assets/luts/primelive_jiudiao.cube
TITLE "primelive_jiudiao"
LUT_3D_SIZE 5
0.209123 0.221668 0.225213
0.380352 0.227156 0.229227
0.551581 0.232643 0.233241
0.722811 0.238131 0.237256
0.894040 0.243619 0.241270
0.222264 0.389977 0.232791
0.393493 0.395465 0.236805
0.564722 0.400952 0.240819
0.735951 0.406440 0.244833
0.907180 0.411928 0.248847
0.235404 0.558286 0.240368
0.406633 0.563774 0.244382
0.577862 0.569261 0.248396
0.749092 0.574749 0.252411
0.920321 0.580237 0.256425
0.248545 0.726595 0.247946
0.419774 0.732083 0.251960
0.591003 0.737570 0.255974
0.762232 0.743058 0.259988
0.933461 0.748546 0.264002
0.261685 0.894904 0.255523
0.432914 0.900392 0.259537
0.604144 0.905879 0.263551
0.775373 0.911367 0.267566
0.946602 0.916855 0.271580
0.211522 0.223559 0.375069
0.382751 0.229047 0.379084
0.553980 0.234535 0.383098
0.725209 0.240022 0.387112
0.896438 0.245510 0.391126
0.224663 0.391868 0.382647
0.395892 0.397356 0.386661
0.567121 0.402844 0.390675
0.738350 0.408331 0.394689
0.909579 0.413819 0.398704
0.237803 0.560177 0.390224
0.409032 0.565665 0.394239
0.580261 0.571153 0.398253
0.751490 0.576640 0.402267
0.922720 0.582128 0.406281
0.250944 0.728486 0.397802
0.422173 0.733974 0.401816
0.593402 0.739462 0.405830
0.764631 0.744949 0.409844
0.935860 0.750437 0.413859
0.264084 0.896795 0.405379
0.435313 0.902283 0.409394
0.606542 0.907771 0.413408
0.777771 0.913258 0.417422
0.949001 0.918746 0.421436
0.213921 0.225450 0.524926
0.385150 0.230938 0.528940
0.556379 0.236426 0.532954
0.727608 0.241913 0.536968
0.898837 0.247401 0.540982
0.227061 0.393759 0.532503
0.398291 0.399247 0.536517
0.569520 0.404735 0.540531
0.740749 0.410222 0.544546
0.911978 0.415710 0.548560
0.240202 0.562068 0.540081
0.411431 0.567556 0.544095
0.582660 0.573044 0.548109
0.753889 0.578531 0.552123
0.925118 0.584019 0.556137
0.253343 0.730377 0.547658
0.424572 0.735865 0.551672
0.595801 0.741353 0.555687
0.767030 0.746840 0.559701
0.938259 0.752328 0.563715
0.266483 0.898686 0.555236
0.437712 0.904174 0.559250
0.608941 0.909662 0.563264
0.780170 0.915149 0.567278
0.951399 0.920637 0.571292
0.216320 0.227341 0.674782
0.387549 0.232829 0.678796
0.558778 0.238317 0.682810
0.730007 0.243804 0.686824
0.901236 0.249292 0.690839
0.229460 0.395650 0.682359
0.400689 0.401138 0.686374
0.571919 0.406626 0.690388
0.743148 0.412113 0.694402
0.914377 0.417601 0.698416
0.242601 0.563959 0.689937
0.413830 0.569447 0.693951
0.585059 0.574935 0.697965
0.756288 0.580422 0.701979
0.927517 0.585910 0.705994
0.255741 0.732268 0.697515
0.426971 0.737756 0.701529
0.598200 0.743244 0.705543
0.769429 0.748731 0.709557
0.940658 0.754219 0.713571
0.268882 0.900577 0.705092
0.440111 0.906065 0.709106
0.611340 0.911553 0.713120
0.782569 0.917040 0.717135
0.953798 0.922528 0.721149
0.218719 0.229233 0.824638
0.389948 0.234720 0.828652
0.561177 0.240208 0.832667
0.732406 0.245695 0.836681
0.903635 0.251183 0.840695
0.231859 0.397542 0.832216
0.403088 0.403029 0.836230
0.574317 0.408517 0.840244
0.745547 0.414004 0.844258
0.916776 0.419492 0.848272
0.245000 0.565851 0.839793
0.416229 0.571338 0.843808
0.587458 0.576826 0.847822
0.758687 0.582313 0.851836
0.929916 0.587801 0.855850
0.258140 0.734160 0.847371
0.429369 0.739647 0.851385
0.600598 0.745135 0.855399
0.771828 0.750622 0.859413
0.943057 0.756110 0.863428
0.271281 0.902469 0.854948
0.442510 0.907956 0.858963
0.613739 0.913444 0.862977
0.784968 0.918932 0.866991
0.956197 0.924419 0.871005
