assets/luts/primelive_dongri.cube
TITLE "primelive_dongri"
LUT_3D_SIZE 9
0.255200 0.255200 0.255200
0.348375 0.255765 0.255765
0.441550 0.256330 0.256330
0.534725 0.256895 0.256895
0.627900 0.257460 0.257460
0.721076 0.258026 0.258026
0.814251 0.258591 0.258591
0.907426 0.259156 0.259156
1.000000 0.259721 0.259721
0.256320 0.349812 0.256320
0.349495 0.350377 0.256885
0.442670 0.350942 0.257450
0.535845 0.351507 0.258015
0.629020 0.352072 0.258580
0.722196 0.352638 0.259146
0.815371 0.353203 0.259711
0.908546 0.353768 0.260276
1.000000 0.354333 0.260841
0.257440 0.444424 0.257440
0.350615 0.444989 0.258005
0.443790 0.445554 0.258570
0.536965 0.446119 0.259135
0.630140 0.446684 0.259700
0.723316 0.447250 0.260266
0.816491 0.447815 0.260831
0.909666 0.448380 0.261396
1.000000 0.448945 0.261961
0.258560 0.539036 0.258560
0.351735 0.539601 0.259125
0.444910 0.540166 0.259690
0.538085 0.540731 0.260255
0.631260 0.541296 0.260820
0.724436 0.541862 0.261386
0.817611 0.542427 0.261951
0.910786 0.542992 0.262516
1.000000 0.543557 0.263081
0.259680 0.633648 0.259680
0.352855 0.634213 0.260245
0.446030 0.634778 0.260810
0.539205 0.635343 0.261375
0.632380 0.635908 0.261940
0.725556 0.636473 0.262506
0.818731 0.637039 0.263071
0.911906 0.637604 0.263636
1.000000 0.638169 0.264201
0.260800 0.728260 0.260800
0.353975 0.728825 0.261365
0.447150 0.729390 0.261930
0.540325 0.729955 0.262495
0.633500 0.730520 0.263060
0.726676 0.731086 0.263625
0.819851 0.731651 0.264191
0.913026 0.732216 0.264756
1.000000 0.732781 0.265321
0.261920 0.822872 0.261920
0.355095 0.823437 0.262485
0.448270 0.824002 0.263050
0.541445 0.824567 0.263615
0.634620 0.825132 0.264180
0.727796 0.825698 0.264745
0.820971 0.826263 0.265311
0.914146 0.826828 0.265876
1.000000 0.827393 0.266441
0.263040 0.917484 0.263040
0.356215 0.918049 0.263605
0.449390 0.918614 0.264170
0.542565 0.919179 0.264735
0.635740 0.919744 0.265300
0.728916 0.920310 0.265865
0.822091 0.920875 0.266431
0.915266 0.921440 0.266996
1.000000 0.922005 0.267561
0.264160 1.000000 0.264160
0.357335 1.000000 0.264725
0.450510 1.000000 0.265290
0.543685 1.000000 0.265855
0.636860 1.000000 0.266420
0.730036 1.000000 0.266985
0.823211 1.000000 0.267551
0.916386 1.000000 0.268116
1.000000 1.000000 0.268681
0.255424 0.255424 0.351562
0.348599 0.255989 0.352127
0.441774 0.256554 0.352692
0.534949 0.257119 0.353257
0.628124 0.257684 0.353822
0.721299 0.258249 0.354387
0.814474 0.258814 0.354952
0.907649 0.259379 0.355517
1.000000 0.259945 0.356083
0.256544 0.350036 0.352682
0.349719 0.350601 0.353247
0.442894 0.351166 0.353812
0.536069 0.351731 0.354377
0.629244 0.352296 0.354942
0.722419 0.352861 0.355507
0.815594 0.353426 0.356072
0.908769 0.353991 0.356637
1.000000 0.354557 0.357203
0.257664 0.444648 0.353802
0.350839 0.445213 0.354367
0.444014 0.445778 0.354932
0.537189 0.446343 0.355497
0.630364 0.446908 0.356062
0.723539 0.447473 0.356627
0.816714 0.448038 0.357192
0.909889 0.448603 0.357757
1.000000 0.449169 0.358323
0.258784 0.539260 0.354922
0.351959 0.539825 0.355487
0.445134 0.540390 0.356052
0.538309 0.540955 0.356617
0.631484 0.541520 0.357182
0.724659 0.542085 0.357747
0.817834 0.542650 0.358312
0.911009 0.543215 0.358877
1.000000 0.543781 0.359443
0.259904 0.633872 0.356042
0.353079 0.634437 0.356607
0.446254 0.635002 0.357172
0.539429 0.635567 0.357737
0.632604 0.636132 0.358302
0.725779 0.636697 0.358867
0.818954 0.637262 0.359432
0.912129 0.637827 0.359997
1.000000 0.638392 0.360563
0.261024 0.728484 0.357162
0.354199 0.729049 0.357727
0.447374 0.729614 0.358292
0.540549 0.730179 0.358857
0.633724 0.730744 0.359422
0.726899 0.731309 0.359987
0.820074 0.731874 0.360552
0.913249 0.732439 0.361117
1.000000 0.733005 0.361683
0.262144 0.823096 0.358282
0.355319 0.823661 0.358847
0.448494 0.824226 0.359412
0.541669 0.824791 0.359977
0.634844 0.825356 0.360542
0.728019 0.825921 0.361107
0.821194 0.826486 0.361672
0.914369 0.827051 0.362237
1.000000 0.827617 0.362802
0.263264 0.917708 0.359402
0.356439 0.918273 0.359967
0.449614 0.918838 0.360532
0.542789 0.919403 0.361097
0.635964 0.919968 0.361662
0.729139 0.920533 0.362227
0.822314 0.921098 0.362792
0.915489 0.921663 0.363357
1.000000 0.922228 0.363922
0.264384 1.000000 0.360522
0.357559 1.000000 0.361087
0.450734 1.000000 0.361652
0.543909 1.000000 0.362217
0.637084 1.000000 0.362782
0.730259 1.000000 0.363347
0.823434 1.000000 0.363912
0.916609 1.000000 0.364477
1.000000 1.000000 0.365042
0.255647 0.255647 0.447923
0.348822 0.256212 0.448488
0.441998 0.256778 0.449054
0.535173 0.257343 0.449619
0.628348 0.257908 0.450184
0.721523 0.258473 0.450749
0.814698 0.259038 0.451314
0.907873 0.259603 0.451879
1.000000 0.260168 0.452444
0.256767 0.350259 0.449043
0.349942 0.350824 0.449608
0.443118 0.351390 0.450174
0.536293 0.351955 0.450739
0.629468 0.352520 0.451304
0.722643 0.353085 0.451869
0.815818 0.353650 0.452434
0.908993 0.354215 0.452999
1.000000 0.354780 0.453564
0.257887 0.444871 0.450163
0.351062 0.445436 0.450728
0.444238 0.446002 0.451294
0.537413 0.446567 0.451859
0.630588 0.447132 0.452424
0.723763 0.447697 0.452989
0.816938 0.448262 0.453554
0.910113 0.448827 0.454119
1.000000 0.449392 0.454684
0.259007 0.539483 0.451283
0.352182 0.540048 0.451848
0.445358 0.540614 0.452414
0.538533 0.541179 0.452979
0.631708 0.541744 0.453544
0.724883 0.542309 0.454109
0.818058 0.542874 0.454674
0.911233 0.543439 0.455239
1.000000 0.544004 0.455804
0.260127 0.634095 0.452403
0.353302 0.634660 0.452968
0.446478 0.635225 0.453534
0.539653 0.635791 0.454099
0.632828 0.636356 0.454664
0.726003 0.636921 0.455229
0.819178 0.637486 0.455794
0.912353 0.638051 0.456359
1.000000 0.638616 0.456924
0.261247 0.728707 0.453523
0.354422 0.729272 0.454088
0.447598 0.729838 0.454654
0.540773 0.730403 0.455219
0.633948 0.730968 0.455784
0.727123 0.731533 0.456349
0.820298 0.732098 0.456914
0.913473 0.732663 0.457479
1.000000 0.733228 0.458044
0.262367 0.823319 0.454643
0.355542 0.823884 0.455208
0.448718 0.824450 0.455774
0.541893 0.825015 0.456339
0.635068 0.825580 0.456904
0.728243 0.826145 0.457469
0.821418 0.826710 0.458034
0.914593 0.827275 0.458599
1.000000 0.827840 0.459164
0.263487 0.917931 0.455763
0.356662 0.918496 0.456328
0.449838 0.919062 0.456894
0.543013 0.919627 0.457459
0.636188 0.920192 0.458024
0.729363 0.920757 0.458589
0.822538 0.921322 0.459154
0.915713 0.921887 0.459719
1.000000 0.922452 0.460284
0.264607 1.000000 0.456883
0.357782 1.000000 0.457448
0.450958 1.000000 0.458014
0.544133 1.000000 0.458579
0.637308 1.000000 0.459144
0.730483 1.000000 0.459709
0.823658 1.000000 0.460274
0.916833 1.000000 0.460839
1.000000 1.000000 0.461404
0.255871 0.255871 0.544285
0.349046 0.256436 0.544850
0.442221 0.257001 0.545415
0.535396 0.257566 0.545980
0.628571 0.258131 0.546545
0.721747 0.258697 0.547111
0.814922 0.259262 0.547676
0.908097 0.259827 0.548241
1.000000 0.260392 0.548806
0.256991 0.350483 0.545405
0.350166 0.351048 0.545970
0.443341 0.351613 0.546535
0.536516 0.352178 0.547100
0.629691 0.352743 0.547665
0.722867 0.353309 0.548231
0.816042 0.353874 0.548796
0.909217 0.354439 0.549361
1.000000 0.355004 0.549926
0.258111 0.445095 0.546525
0.351286 0.445660 0.547090
0.444461 0.446225 0.547655
0.537636 0.446790 0.548220
0.630811 0.447355 0.548785
0.723987 0.447921 0.549351
0.817162 0.448486 0.549916
0.910337 0.449051 0.550481
1.000000 0.449616 0.551046
0.259231 0.539707 0.547645
0.352406 0.540272 0.548210
0.445581 0.540837 0.548775
0.538756 0.541402 0.549340
0.631931 0.541967 0.549905
0.725107 0.542533 0.550471
0.818282 0.543098 0.551036
0.911457 0.543663 0.551601
1.000000 0.544228 0.552166
0.260351 0.634319 0.548765
0.353526 0.634884 0.549330
0.446701 0.635449 0.549895
0.539876 0.636014 0.550460
0.633051 0.636579 0.551025
0.726227 0.637144 0.551591
0.819402 0.637710 0.552156
0.912577 0.638275 0.552721
1.000000 0.638840 0.553286
0.261471 0.728931 0.549885
0.354646 0.729496 0.550450
0.447821 0.730061 0.551015
0.540996 0.730626 0.551580
0.634171 0.731191 0.552145
0.727347 0.731757 0.552711
0.820522 0.732322 0.553276
0.913697 0.732887 0.553841
1.000000 0.733452 0.554406
0.262591 0.823543 0.551005
0.355766 0.824108 0.551570
0.448941 0.824673 0.552135
0.542116 0.825238 0.552700
0.635291 0.825803 0.553265
0.728467 0.826369 0.553831
0.821642 0.826934 0.554396
0.914817 0.827499 0.554961
1.000000 0.828064 0.555526
0.263711 0.918155 0.552125
0.356886 0.918720 0.552690
0.450061 0.919285 0.553255
0.543236 0.919850 0.553820
0.636411 0.920415 0.554385
0.729587 0.920981 0.554951
0.822762 0.921546 0.555516
0.915937 0.922111 0.556081
1.000000 0.922676 0.556646
0.264831 1.000000 0.553245
0.358006 1.000000 0.553810
0.451181 1.000000 0.554375
0.544356 1.000000 0.554940
0.637531 1.000000 0.555505
0.730707 1.000000 0.556071
0.823882 1.000000 0.556636
0.917057 1.000000 0.557201
1.000000 1.000000 0.557766
0.256095 0.256095 0.640647
0.349270 0.256660 0.641212
0.442445 0.257225 0.641777
0.535620 0.257790 0.642342
0.628795 0.258355 0.642907
0.721970 0.258920 0.643472
0.815145 0.259485 0.644037
0.908320 0.260050 0.644602
1.000000 0.260616 0.645168
0.257215 0.350707 0.641767
0.350390 0.351272 0.642332
0.443565 0.351837 0.642897
0.536740 0.352402 0.643462
0.629915 0.352967 0.644027
0.723090 0.353532 0.644592
0.816265 0.354097 0.645157
0.909440 0.354662 0.645722
1.000000 0.355228 0.646288
0.258335 0.445319 0.642887
0.351510 0.445884 0.643452
0.444685 0.446449 0.644017
0.537860 0.447014 0.644582
0.631035 0.447579 0.645147
0.724210 0.448144 0.645712
0.817385 0.448709 0.646277
0.910560 0.449274 0.646842
1.000000 0.449840 0.647408
0.259455 0.539931 0.644007
0.352630 0.540496 0.644572
0.445805 0.541061 0.645137
0.538980 0.541626 0.645702
0.632155 0.542191 0.646267
0.725330 0.542756 0.646832
0.818505 0.543321 0.647397
0.911680 0.543886 0.647962
1.000000 0.544452 0.648528
0.260575 0.634543 0.645127
0.353750 0.635108 0.645692
0.446925 0.635673 0.646257
0.540100 0.636238 0.646822
0.633275 0.636803 0.647387
0.726450 0.637368 0.647952
0.819625 0.637933 0.648517
0.912800 0.638498 0.649082
1.000000 0.639063 0.649648
0.261695 0.729155 0.646247
0.354870 0.729720 0.646812
0.448045 0.730285 0.647377
0.541220 0.730850 0.647942
0.634395 0.731415 0.648507
0.727570 0.731980 0.649072
0.820745 0.732545 0.649637
0.913920 0.733110 0.650202
1.000000 0.733676 0.650768
0.262815 0.823767 0.647367
0.355990 0.824332 0.647932
0.449165 0.824897 0.648497
0.542340 0.825462 0.649062
0.635515 0.826027 0.649627
0.728690 0.826592 0.650192
0.821865 0.827157 0.650757
0.915040 0.827722 0.651322
1.000000 0.828288 0.651888
0.263935 0.918379 0.648487
0.357110 0.918944 0.649052
0.450285 0.919509 0.649617
0.543460 0.920074 0.650182
0.636635 0.920639 0.650747
0.729810 0.921204 0.651312
0.822985 0.921769 0.651877
0.916160 0.922334 0.652442
1.000000 0.922900 0.653008
0.265055 1.000000 0.649607
0.358230 1.000000 0.650172
0.451405 1.000000 0.650737
0.544580 1.000000 0.651302
0.637755 1.000000 0.651867
0.730930 1.000000 0.652432
0.824105 1.000000 0.652997
0.917280 1.000000 0.653562
1.000000 1.000000 0.654128
0.256318 0.256318 0.737008
0.349493 0.256883 0.737574
0.442669 0.257449 0.738139
0.535844 0.258014 0.738704
0.629019 0.258579 0.739269
0.722194 0.259144 0.739834
0.815369 0.259709 0.740399
0.908544 0.260274 0.740964
1.000000 0.260839 0.741529
0.257438 0.350930 0.738128
0.350613 0.351495 0.738694
0.443789 0.352061 0.739259
0.536964 0.352626 0.739824
0.630139 0.353191 0.740389
0.723314 0.353756 0.740954
0.816489 0.354321 0.741519
0.909664 0.354886 0.742084
1.000000 0.355451 0.742649
0.258558 0.445542 0.739248
0.351733 0.446107 0.739814
0.444909 0.446673 0.740379
0.538084 0.447238 0.740944
0.631259 0.447803 0.741509
0.724434 0.448368 0.742074
0.817609 0.448933 0.742639
0.910784 0.449498 0.743204
1.000000 0.450063 0.743769
0.259678 0.540154 0.740368
0.352853 0.540719 0.740933
0.446029 0.541285 0.741499
0.539204 0.541850 0.742064
0.632379 0.542415 0.742629
0.725554 0.542980 0.743194
0.818729 0.543545 0.743759
0.911904 0.544110 0.744324
1.000000 0.544675 0.744889
0.260798 0.634766 0.741488
0.353973 0.635331 0.742053
0.447149 0.635896 0.742619
0.540324 0.636462 0.743184
0.633499 0.637027 0.743749
0.726674 0.637592 0.744314
0.819849 0.638157 0.744879
0.913024 0.638722 0.745444
1.000000 0.639287 0.746009
0.261918 0.729378 0.742608
0.355093 0.729943 0.743173
0.448269 0.730509 0.743739
0.541444 0.731074 0.744304
0.634619 0.731639 0.744869
0.727794 0.732204 0.745434
0.820969 0.732769 0.745999
0.914144 0.733334 0.746564
1.000000 0.733899 0.747129
0.263038 0.823990 0.743728
0.356213 0.824555 0.744293
0.449389 0.825121 0.744859
0.542564 0.825686 0.745424
0.635739 0.826251 0.745989
0.728914 0.826816 0.746554
0.822089 0.827381 0.747119
0.915264 0.827946 0.747684
1.000000 0.828511 0.748249
0.264158 0.918602 0.744848
0.357333 0.919167 0.745413
0.450509 0.919733 0.745979
0.543684 0.920298 0.746544
0.636859 0.920863 0.747109
0.730034 0.921428 0.747674
0.823209 0.921993 0.748239
0.916384 0.922558 0.748804
1.000000 0.923123 0.749369
0.265278 1.000000 0.745968
0.358453 1.000000 0.746533
0.451629 1.000000 0.747099
0.544804 1.000000 0.747664
0.637979 1.000000 0.748229
0.731154 1.000000 0.748794
0.824329 1.000000 0.749359
0.917504 1.000000 0.749924
1.000000 1.000000 0.750489
0.256542 0.256542 0.833370
0.349717 0.257107 0.833935
0.442892 0.257672 0.834500
0.536067 0.258237 0.835065
0.629242 0.258802 0.835630
0.722418 0.259368 0.836196
0.815593 0.259933 0.836761
0.908768 0.260498 0.837326
1.000000 0.261063 0.837891
0.257662 0.351154 0.834490
0.350837 0.351719 0.835055
0.444012 0.352284 0.835620
0.537187 0.352849 0.836185
0.630362 0.353414 0.836750
0.723538 0.353980 0.837316
0.816713 0.354545 0.837881
0.909888 0.355110 0.838446
1.000000 0.355675 0.839011
0.258782 0.445766 0.835610
0.351957 0.446331 0.836175
0.445132 0.446896 0.836740
0.538307 0.447461 0.837305
0.631482 0.448026 0.837870
0.724658 0.448592 0.838435
0.817833 0.449157 0.839001
0.911008 0.449722 0.839566
1.000000 0.450287 0.840131
0.259902 0.540378 0.836730
0.353077 0.540943 0.837295
0.446252 0.541508 0.837860
0.539427 0.542073 0.838425
0.632602 0.542638 0.838990
0.725778 0.543204 0.839555
0.818953 0.543769 0.840121
0.912128 0.544334 0.840686
1.000000 0.544899 0.841251
0.261022 0.634990 0.837850
0.354197 0.635555 0.838415
0.447372 0.636120 0.838980
0.540547 0.636685 0.839545
0.633722 0.637250 0.840110
0.726898 0.637815 0.840675
0.820073 0.638381 0.841241
0.913248 0.638946 0.841806
1.000000 0.639511 0.842371
0.262142 0.729602 0.838970
0.355317 0.730167 0.839535
0.448492 0.730732 0.840100
0.541667 0.731297 0.840665
0.634842 0.731862 0.841230
0.728018 0.732428 0.841795
0.821193 0.732993 0.842361
0.914368 0.733558 0.842926
1.000000 0.734123 0.843491
0.263262 0.824214 0.840090
0.356437 0.824779 0.840655
0.449612 0.825344 0.841220
0.542787 0.825909 0.841785
0.635962 0.826474 0.842350
0.729138 0.827040 0.842915
0.822313 0.827605 0.843481
0.915488 0.828170 0.844046
1.000000 0.828735 0.844611
0.264382 0.918826 0.841210
0.357557 0.919391 0.841775
0.450732 0.919956 0.842340
0.543907 0.920521 0.842905
0.637082 0.921086 0.843470
0.730258 0.921652 0.844035
0.823433 0.922217 0.844601
0.916608 0.922782 0.845166
1.000000 0.923347 0.845731
0.265502 1.000000 0.842330
0.358677 1.000000 0.842895
0.451852 1.000000 0.843460
0.545027 1.000000 0.844025
0.638202 1.000000 0.844590
0.731378 1.000000 0.845155
0.824553 1.000000 0.845721
0.917728 1.000000 0.846286
1.000000 1.000000 0.846851
0.256766 0.256766 0.929732
0.349941 0.257331 0.930297
0.443116 0.257896 0.930862
0.536291 0.258461 0.931427
0.629466 0.259026 0.931992
0.722641 0.259591 0.932557
0.815816 0.260156 0.933122
0.908991 0.260721 0.933687
1.000000 0.261287 0.934253
0.257886 0.351378 0.930852
0.351061 0.351943 0.931417
0.444236 0.352508 0.931982
0.537411 0.353073 0.932547
0.630586 0.353638 0.933112
0.723761 0.354203 0.933677
0.816936 0.354768 0.934242
0.910111 0.355333 0.934807
1.000000 0.355899 0.935373
0.259006 0.445990 0.931972
0.352181 0.446555 0.932537
0.445356 0.447120 0.933102
0.538531 0.447685 0.933667
0.631706 0.448250 0.934232
0.724881 0.448815 0.934797
0.818056 0.449380 0.935362
0.911231 0.449945 0.935927
1.000000 0.450511 0.936493
0.260126 0.540602 0.933092
0.353301 0.541167 0.933657
0.446476 0.541732 0.934222
0.539651 0.542297 0.934787
0.632826 0.542862 0.935352
0.726001 0.543427 0.935917
0.819176 0.543992 0.936482
0.912351 0.544557 0.937047
1.000000 0.545123 0.937613
0.261246 0.635214 0.934212
0.354421 0.635779 0.934777
0.447596 0.636344 0.935342
0.540771 0.636909 0.935907
0.633946 0.637474 0.936472
0.727121 0.638039 0.937037
0.820296 0.638604 0.937602
0.913471 0.639169 0.938167
1.000000 0.639734 0.938733
0.262366 0.729826 0.935332
0.355541 0.730391 0.935897
0.448716 0.730956 0.936462
0.541891 0.731521 0.937027
0.635066 0.732086 0.937592
0.728241 0.732651 0.938157
0.821416 0.733216 0.938722
0.914591 0.733781 0.939287
1.000000 0.734347 0.939853
0.263486 0.824438 0.936452
0.356661 0.825003 0.937017
0.449836 0.825568 0.937582
0.543011 0.826133 0.938147
0.636186 0.826698 0.938712
0.729361 0.827263 0.939277
0.822536 0.827828 0.939842
0.915711 0.828393 0.940407
1.000000 0.828959 0.940973
0.264606 0.919050 0.937572
0.357781 0.919615 0.938137
0.450956 0.920180 0.938702
0.544131 0.920745 0.939267
0.637306 0.921310 0.939832
0.730481 0.921875 0.940397
0.823656 0.922440 0.940962
0.916831 0.923005 0.941527
1.000000 0.923571 0.942093
0.265726 1.000000 0.938692
0.358901 1.000000 0.939257
0.452076 1.000000 0.939822
0.545251 1.000000 0.940387
0.638426 1.000000 0.940952
0.731601 1.000000 0.941517
0.824776 1.000000 0.942082
0.917951 1.000000 0.942647
1.000000 1.000000 0.943213
0.256989 0.256989 1.000000
0.350164 0.257554 1.000000
0.443340 0.258120 1.000000
0.536515 0.258685 1.000000
0.629690 0.259250 1.000000
0.722865 0.259815 1.000000
0.816040 0.260380 1.000000
0.909215 0.260945 1.000000
1.000000 0.261510 1.000000
0.258109 0.351601 1.000000
0.351284 0.352166 1.000000
0.444460 0.352732 1.000000
0.537635 0.353297 1.000000
0.630810 0.353862 1.000000
0.723985 0.354427 1.000000
0.817160 0.354992 1.000000
0.910335 0.355557 1.000000
1.000000 0.356122 1.000000
0.259229 0.446213 1.000000
0.352404 0.446778 1.000000
0.445580 0.447344 1.000000
0.538755 0.447909 1.000000
0.631930 0.448474 1.000000
0.725105 0.449039 1.000000
0.818280 0.449604 1.000000
0.911455 0.450169 1.000000
1.000000 0.450734 1.000000
0.260349 0.540825 1.000000
0.353524 0.541390 1.000000
0.446700 0.541956 1.000000
0.539875 0.542521 1.000000
0.633050 0.543086 1.000000
0.726225 0.543651 1.000000
0.819400 0.544216 1.000000
0.912575 0.544781 1.000000
1.000000 0.545346 1.000000
0.261469 0.635437 1.000000
0.354644 0.636002 1.000000
0.447820 0.636567 1.000000
0.540995 0.637133 1.000000
0.634170 0.637698 1.000000
0.727345 0.638263 1.000000
0.820520 0.638828 1.000000
0.913695 0.639393 1.000000
1.000000 0.639958 1.000000
0.262589 0.730049 1.000000
0.355764 0.730614 1.000000
0.448940 0.731180 1.000000
0.542115 0.731745 1.000000
0.635290 0.732310 1.000000
0.728465 0.732875 1.000000
0.821640 0.733440 1.000000
0.914815 0.734005 1.000000
1.000000 0.734570 1.000000
0.263709 0.824661 1.000000
0.356884 0.825226 1.000000
0.450060 0.825792 1.000000
0.543235 0.826357 1.000000
0.636410 0.826922 1.000000
0.729585 0.827487 1.000000
0.822760 0.828052 1.000000
0.915935 0.828617 1.000000
1.000000 0.829182 1.000000
0.264829 0.919273 1.000000
0.358004 0.919838 1.000000
0.451180 0.920404 1.000000
0.544355 0.920969 1.000000
0.637530 0.921534 1.000000
0.730705 0.922099 1.000000
0.823880 0.922664 1.000000
0.917055 0.923229 1.000000
1.000000 0.923794 1.000000
0.265949 1.000000 1.000000
0.359124 1.000000 1.000000
0.452300 1.000000 1.000000
0.545475 1.000000 1.000000
0.638650 1.000000 1.000000
0.731825 1.000000 1.000000
0.825000 1.000000 1.000000
0.918175 1.000000 1.000000
1.000000 1.000000 1.000000
