assets/luts/primelive_amb_jp_fresh.cube
TITLE "primelive JP Fresh"
LUT_3D_SIZE 33
DOMAIN_MIN 0.0 0.0 0.0
DOMAIN_MAX 1.0 1.0 1.0
0.066962 0.073729 0.076996
0.102260 0.073986 0.077227
0.135612 0.074229 0.077444
0.167765 0.074463 0.077654
0.199055 0.074691 0.077858
0.229675 0.074914 0.078058
0.259748 0.075133 0.078254
0.289363 0.075349 0.078447
0.318581 0.075562 0.078638
0.347453 0.075772 0.078826
0.376015 0.075980 0.079012
0.404300 0.076186 0.079197
0.432333 0.076390 0.079379
0.460136 0.076593 0.079561
0.487725 0.076794 0.079741
0.515119 0.076993 0.079919
0.542329 0.077191 0.080097
0.569368 0.077388 0.080273
0.596246 0.077584 0.080449
0.622973 0.077779 0.080623
0.649557 0.077972 0.080796
0.676005 0.078165 0.080969
0.702325 0.078357 0.081140
0.728522 0.078547 0.081311
0.754603 0.078737 0.081481
0.780572 0.078927 0.081651
0.806434 0.079115 0.081820
0.832194 0.079303 0.081988
0.857855 0.079489 0.082155
0.883421 0.079676 0.082322
0.908896 0.079861 0.082488
0.934284 0.080046 0.082653
0.955357 0.080200 0.082791
0.067922 0.109782 0.077775
0.103220 0.110040 0.078005
0.136572 0.110282 0.078222
0.168725 0.110517 0.078432
0.200015 0.110745 0.078636
0.230634 0.110968 0.078836
0.260708 0.111187 0.079032
0.290323 0.111402 0.079225
0.319541 0.111615 0.079416
0.348412 0.111825 0.079604
0.376975 0.112033 0.079790
0.405260 0.112239 0.079975
0.433293 0.112444 0.080158
0.461095 0.112646 0.080339
0.488685 0.112847 0.080519
0.516079 0.113047 0.080698
0.543289 0.113245 0.080875
0.570328 0.113442 0.081052
0.597206 0.113637 0.081227
0.623933 0.113832 0.081401
0.650517 0.114026 0.081575
0.676965 0.114218 0.081747
0.703285 0.114410 0.081919
0.729482 0.114601 0.082090
0.755563 0.114791 0.082260
0.781532 0.114980 0.082429
0.807394 0.115168 0.082598
0.833153 0.115356 0.082766
0.858815 0.115543 0.082933
0.884381 0.115729 0.083100
0.909856 0.115915 0.083266
0.935243 0.116099 0.083432
0.956317 0.116253 0.083569
0.068829 0.143843 0.078510
0.104127 0.144100 0.078740
0.137479 0.144343 0.078958
0.169632 0.144577 0.079167
0.200922 0.144805 0.079371
0.231541 0.145028 0.079571
0.261615 0.145247 0.079767
0.291229 0.145463 0.079960
0.320448 0.145676 0.080151
0.349319 0.145886 0.080339
0.377882 0.146094 0.080526
0.406167 0.146300 0.080710
0.434200 0.146504 0.080893
0.462002 0.146707 0.081074
0.489592 0.146908 0.081254
0.516985 0.147107 0.081433
0.544196 0.147306 0.081610
0.571234 0.147502 0.081787
0.598113 0.147698 0.081962
0.624840 0.147893 0.082136
0.651423 0.148086 0.082310
0.677872 0.148279 0.082482
0.704192 0.148471 0.082654
0.730389 0.148662 0.082825
0.756470 0.148852 0.082995
0.782439 0.149041 0.083164
0.808301 0.149229 0.083333
0.834060 0.149417 0.083501
0.859721 0.149604 0.083668
0.885288 0.149790 0.083835
0.910763 0.149975 0.084001
0.936150 0.150160 0.084167
0.957224 0.150314 0.084304
0.069703 0.176677 0.079219
0.105001 0.176934 0.079449
0.138353 0.177177 0.079666
0.170506 0.177411 0.079876
0.201796 0.177639 0.080080
0.232415 0.177862 0.080280
0.262489 0.178081 0.080476
0.292103 0.178296 0.080669
0.321322 0.178509 0.080860
0.350193 0.178719 0.081048
0.378756 0.178927 0.081234
0.407041 0.179133 0.081419
0.435074 0.179338 0.081602
0.462876 0.179540 0.081783
0.490466 0.179741 0.081963
0.517860 0.179941 0.082142
0.545070 0.180139 0.082319
0.572109 0.180336 0.082496
0.598987 0.180531 0.082671
0.625714 0.180726 0.082845
0.652298 0.180920 0.083019
0.678746 0.181112 0.083191
0.705066 0.181304 0.083363
0.731263 0.181495 0.083534
0.757344 0.181685 0.083704
0.783313 0.181874 0.083873
0.809175 0.182062 0.084042
0.834934 0.182250 0.084210
0.860595 0.182437 0.084377
0.886162 0.182623 0.084544
0.911637 0.182809 0.084710
0.937024 0.182993 0.084876
0.958098 0.183147 0.085013
0.070553 0.208628 0.079908
0.105851 0.208885 0.080139
0.139204 0.209128 0.080356
0.171356 0.209362 0.080566
0.202646 0.209590 0.080770
0.233266 0.209813 0.080970
0.263340 0.210032 0.081166
0.292954 0.210248 0.081359
0.322173 0.210460 0.081550
0.351044 0.210671 0.081738
0.379607 0.210879 0.081924
0.407892 0.211085 0.082109
0.435925 0.211289 0.082291
0.463727 0.211491 0.082473
0.491317 0.211692 0.082653
0.518710 0.211892 0.082831
0.545920 0.212090 0.083009
0.572959 0.212287 0.083185
0.599837 0.212483 0.083361
0.626564 0.212677 0.083535
0.653148 0.212871 0.083708
0.679597 0.213064 0.083881
0.705916 0.213255 0.084052
0.732114 0.213446 0.084223
0.758194 0.213636 0.084393
0.784163 0.213825 0.084563
0.810025 0.214014 0.084731
0.835785 0.214201 0.084899
0.861446 0.214388 0.085067
0.887013 0.214574 0.085234
0.912488 0.214760 0.085400
0.937875 0.214945 0.085565
0.958948 0.215098 0.085703
0.071386 0.239894 0.080583
0.106684 0.240151 0.080814
0.140036 0.240394 0.081031
0.172189 0.240628 0.081241
0.203479 0.240856 0.081445
0.234098 0.241079 0.081645
0.264172 0.241298 0.081841
0.293787 0.241514 0.082034
0.323005 0.241727 0.082224
0.351876 0.241937 0.082413
0.380439 0.242145 0.082599
0.408724 0.242351 0.082784
0.436757 0.242555 0.082966
0.464559 0.242758 0.083148
0.492149 0.242959 0.083328
0.519543 0.243158 0.083506
0.546753 0.243356 0.083684
0.573792 0.243553 0.083860
0.600670 0.243749 0.084035
0.627397 0.243944 0.084210
0.653981 0.244137 0.084383
0.680429 0.244330 0.084556
0.706749 0.244522 0.084727
0.732946 0.244712 0.084898
0.759027 0.244902 0.085068
0.784996 0.245092 0.085238
0.810858 0.245280 0.085406
0.836617 0.245468 0.085574
0.862279 0.245654 0.085742
0.887845 0.245841 0.085909
0.913320 0.246026 0.086075
0.938707 0.246211 0.086240
0.959781 0.246365 0.086378
0.072203 0.270602 0.081246
0.107501 0.270860 0.081476
0.140854 0.271102 0.081694
0.173006 0.271337 0.081904
0.204296 0.271564 0.082108
0.234916 0.271788 0.082307
0.264990 0.272007 0.082504
0.294604 0.272222 0.082697
0.323823 0.272435 0.082887
0.352694 0.272645 0.083076
0.381257 0.272853 0.083262
0.409542 0.273059 0.083446
0.437575 0.273264 0.083629
0.465377 0.273466 0.083811
0.492967 0.273667 0.083991
0.520360 0.273866 0.084169
0.547570 0.274065 0.084347
0.574609 0.274262 0.084523
0.601487 0.274457 0.084698
0.628214 0.274652 0.084873
0.654798 0.274846 0.085046
0.681247 0.275038 0.085219
0.707566 0.275230 0.085390
0.733764 0.275421 0.085561
0.759844 0.275611 0.085731
0.785813 0.275800 0.085901
0.811675 0.275988 0.086069
0.837435 0.276176 0.086237
0.863096 0.276363 0.086405
0.888662 0.276549 0.086571
0.914138 0.276734 0.086738
0.939525 0.276919 0.086903
0.960598 0.277073 0.087041
0.073008 0.300841 0.081899
0.108306 0.301098 0.082129
0.141659 0.301341 0.082347
0.173811 0.301575 0.082556
0.205101 0.301803 0.082760
0.235721 0.302026 0.082960
0.265795 0.302245 0.083156
0.295409 0.302461 0.083350
0.324628 0.302674 0.083540
0.353499 0.302884 0.083728
0.382062 0.303092 0.083915
0.410347 0.303298 0.084099
0.438380 0.303502 0.084282
0.466182 0.303705 0.084463
0.493772 0.303906 0.084643
0.521165 0.304105 0.084822
0.548375 0.304303 0.084999
0.575414 0.304500 0.085176
0.602292 0.304696 0.085351
0.629019 0.304891 0.085525
0.655603 0.305084 0.085699
0.682052 0.305277 0.085871
0.708372 0.305469 0.086043
0.734569 0.305660 0.086214
0.760649 0.305850 0.086384
0.786618 0.306039 0.086553
0.812480 0.306227 0.086722
0.838240 0.306415 0.086890
0.863901 0.306602 0.087057
0.889468 0.306788 0.087224
0.914943 0.306973 0.087390
0.940330 0.307158 0.087556
0.961403 0.307312 0.087693
0.073803 0.330676 0.082543
0.109101 0.330933 0.082773
0.142453 0.331176 0.082991
0.174606 0.331410 0.083200
0.205896 0.331638 0.083405
0.236515 0.331861 0.083604
0.266589 0.332080 0.083800
0.296203 0.332295 0.083994
0.325422 0.332508 0.084184
0.354293 0.332719 0.084372
0.382856 0.332927 0.084559
0.411141 0.333133 0.084743
0.439174 0.333337 0.084926
0.466976 0.333539 0.085107
0.494566 0.333740 0.085287
0.521959 0.333940 0.085466
0.549170 0.334138 0.085643
0.576208 0.334335 0.085820
0.603087 0.334531 0.085995
0.629814 0.334725 0.086169
0.656397 0.334919 0.086343
0.682846 0.335112 0.086515
0.709166 0.335303 0.086687
0.735363 0.335494 0.086858
0.761444 0.335684 0.087028
0.787413 0.335873 0.087197
0.813275 0.336061 0.087366
0.839034 0.336249 0.087534
0.864695 0.336436 0.087701
0.890262 0.336622 0.087868
0.915737 0.336808 0.088034
0.941124 0.336993 0.088200
0.962198 0.337146 0.088337
0.074587 0.360155 0.083179
0.109886 0.360413 0.083410
0.143238 0.360655 0.083627
0.175391 0.360890 0.083837
0.206680 0.361118 0.084041
0.237300 0.361341 0.084241
0.267374 0.361560 0.084437
0.296988 0.361775 0.084630
0.326207 0.361988 0.084820
0.355078 0.362198 0.085009
0.383641 0.362406 0.085195
0.411926 0.362612 0.085380
0.439959 0.362817 0.085562
0.467761 0.363019 0.085744
0.495351 0.363220 0.085924
0.522744 0.363420 0.086102
0.549954 0.363618 0.086280
0.576993 0.363815 0.086456
0.603872 0.364010 0.086631
0.630598 0.364205 0.086806
0.657182 0.364399 0.086979
0.683631 0.364591 0.087152
0.709951 0.364783 0.087323
0.736148 0.364974 0.087494
0.762229 0.365164 0.087664
0.788198 0.365353 0.087834
0.814060 0.365541 0.088002
0.839819 0.365729 0.088170
0.865480 0.365916 0.088338
0.891047 0.366102 0.088505
0.916522 0.366288 0.088671
0.941909 0.366472 0.088836
0.962982 0.366626 0.088974
0.075364 0.389320 0.083809
0.110662 0.389577 0.084039
0.144014 0.389820 0.084257
0.176167 0.390054 0.084466
0.207457 0.390282 0.084670
0.238077 0.390505 0.084870
0.268150 0.390724 0.085066
0.297765 0.390940 0.085259
0.326983 0.391152 0.085450
0.355855 0.391363 0.085638
0.384417 0.391571 0.085825
0.412702 0.391777 0.086009
0.440735 0.391981 0.086192
0.468538 0.392183 0.086373
0.496128 0.392384 0.086553
0.523521 0.392584 0.086732
0.550731 0.392782 0.086909
0.577770 0.392979 0.087086
0.604648 0.393175 0.087261
0.631375 0.393369 0.087435
0.657959 0.393563 0.087609
0.684407 0.393756 0.087781
0.710727 0.393947 0.087953
0.736924 0.394138 0.088124
0.763005 0.394328 0.088294
0.788974 0.394517 0.088463
0.814836 0.394706 0.088632
0.840596 0.394893 0.088800
0.866257 0.395080 0.088967
0.891823 0.395266 0.089134
0.917298 0.395452 0.089300
0.942686 0.395637 0.089466
0.963759 0.395790 0.089603
0.076133 0.418201 0.084432
0.111431 0.418458 0.084663
0.144783 0.418701 0.084880
0.176936 0.418935 0.085090
0.208226 0.419163 0.085294
0.238846 0.419386 0.085494
0.268919 0.419605 0.085690
0.298534 0.419820 0.085883
0.327752 0.420033 0.086073
0.356623 0.420244 0.086262
0.385186 0.420452 0.086448
0.413471 0.420658 0.086633
0.441504 0.420862 0.086815
0.469306 0.421064 0.086997
0.496896 0.421265 0.087177
0.524290 0.421465 0.087355
0.551500 0.421663 0.087533
0.578539 0.421860 0.087709
0.605417 0.422056 0.087884
0.632144 0.422250 0.088059
0.658728 0.422444 0.088232
0.685176 0.422637 0.088405
0.711496 0.422828 0.088576
0.737693 0.423019 0.088747
0.763774 0.423209 0.088917
0.789743 0.423398 0.089087
0.815605 0.423586 0.089255
0.841365 0.423774 0.089423
0.867026 0.423961 0.089591
0.892592 0.424147 0.089758
0.918067 0.424333 0.089924
0.943454 0.424518 0.090089
0.964528 0.424671 0.090227
0.076895 0.446824 0.085050
0.112193 0.447081 0.085280
0.145545 0.447324 0.085498
0.177698 0.447558 0.085708
0.208988 0.447786 0.085912
0.239608 0.448009 0.086111
0.269681 0.448228 0.086308
0.299296 0.448444 0.086501
0.328514 0.448657 0.086691
0.357386 0.448867 0.086880
0.385948 0.449075 0.087066
0.414233 0.449281 0.087250
0.442266 0.449485 0.087433
0.470068 0.449688 0.087615
0.497658 0.449889 0.087795
0.525052 0.450088 0.087973
0.552262 0.450286 0.088151
0.579301 0.450483 0.088327
0.606179 0.450679 0.088502
0.632906 0.450874 0.088677
0.659490 0.451067 0.088850
0.685938 0.451260 0.089023
0.712258 0.451452 0.089194
0.738455 0.451642 0.089365
0.764536 0.451832 0.089535
0.790505 0.452021 0.089705
0.816367 0.452210 0.089873
0.842127 0.452397 0.090041
0.867788 0.452584 0.090209
0.893354 0.452771 0.090375
0.918829 0.452956 0.090542
0.944217 0.453141 0.090707
0.965290 0.453294 0.090845
0.077651 0.475212 0.085663
0.112949 0.475469 0.085893
0.146301 0.475712 0.086111
0.178454 0.475946 0.086320
0.209744 0.476174 0.086525
0.240363 0.476397 0.086724
0.270437 0.476616 0.086920
0.300051 0.476832 0.087114
0.329270 0.477044 0.087304
0.358141 0.477255 0.087492
0.386704 0.477463 0.087679
0.414989 0.477669 0.087863
0.443022 0.477873 0.088046
0.470824 0.478075 0.088227
0.498414 0.478276 0.088407
0.525807 0.478476 0.088586
0.553018 0.478674 0.088763
0.580057 0.478871 0.088940
0.606935 0.479067 0.089115
0.633662 0.479261 0.089289
0.660246 0.479455 0.089463
0.686694 0.479648 0.089635
0.713014 0.479839 0.089807
0.739211 0.480030 0.089978
0.765292 0.480220 0.090148
0.791261 0.480409 0.090317
0.817123 0.480598 0.090486
0.842882 0.480785 0.090654
0.868543 0.480972 0.090821
0.894110 0.481158 0.090988
0.919585 0.481344 0.091154
0.944972 0.481529 0.091320
0.966046 0.481682 0.091457
0.078401 0.503383 0.086271
0.113699 0.503640 0.086501
0.147051 0.503883 0.086719
0.179204 0.504117 0.086929
0.210494 0.504345 0.087133
0.241113 0.504568 0.087332
0.271187 0.504787 0.087528
0.300801 0.505002 0.087722
0.330020 0.505215 0.087912
0.358891 0.505426 0.088101
0.387454 0.505634 0.088287
0.415739 0.505840 0.088471
0.443772 0.506044 0.088654
0.471574 0.506246 0.088835
0.499164 0.506447 0.089015
0.526557 0.506647 0.089194
0.553768 0.506845 0.089372
0.580807 0.507042 0.089548
0.607685 0.507238 0.089723
0.634412 0.507432 0.089898
0.660996 0.507626 0.090071
0.687444 0.507818 0.090243
0.713764 0.508010 0.090415
0.739961 0.508201 0.090586
0.766042 0.508391 0.090756
0.792011 0.508580 0.090925
0.817873 0.508768 0.091094
0.843632 0.508956 0.091262
0.869293 0.509143 0.091430
0.894860 0.509329 0.091596
0.920335 0.509515 0.091762
0.945722 0.509700 0.091928
0.966796 0.509853 0.092066
0.079145 0.531353 0.086875
0.114443 0.531610 0.087105
0.147796 0.531853 0.087323
0.179948 0.532087 0.087532
0.211238 0.532315 0.087736
0.241858 0.532538 0.087936
0.271932 0.532757 0.088132
0.301546 0.532972 0.088325
0.330765 0.533185 0.088516
0.359636 0.533395 0.088704
0.388199 0.533603 0.088891
0.416484 0.533809 0.089075
0.444517 0.534014 0.089258
0.472319 0.534216 0.089439
0.499909 0.534417 0.089619
0.527302 0.534617 0.089798
0.554512 0.534815 0.089975
0.581551 0.535012 0.090152
0.608429 0.535207 0.090327
0.635156 0.535402 0.090501
0.661740 0.535596 0.090675
0.688189 0.535788 0.090847
0.714508 0.535980 0.091019
0.740706 0.536171 0.091190
0.766786 0.536361 0.091360
0.792755 0.536550 0.091529
0.818617 0.536738 0.091698
0.844377 0.536926 0.091866
0.870038 0.537113 0.092033
0.895605 0.537299 0.092200
0.921080 0.537485 0.092366
0.946467 0.537669 0.092532
0.967540 0.537823 0.092669
0.079885 0.559135 0.087475
0.115183 0.559392 0.087705
0.148536 0.559635 0.087922
0.180688 0.559870 0.088132
0.211978 0.560097 0.088336
0.242598 0.560320 0.088536
0.272671 0.560540 0.088732
0.302286 0.560755 0.088925
0.331504 0.560968 0.089116
0.360376 0.561178 0.089304
0.388938 0.561386 0.089490
0.417223 0.561592 0.089675
0.445256 0.561796 0.089858
0.473059 0.561999 0.090039
0.500649 0.562200 0.090219
0.528042 0.562399 0.090398
0.555252 0.562598 0.090575
0.582291 0.562795 0.090751
0.609169 0.562990 0.090927
0.635896 0.563185 0.091101
0.662480 0.563379 0.091274
0.688928 0.563571 0.091447
0.715248 0.563763 0.091619
0.741446 0.563954 0.091790
0.767526 0.564144 0.091960
0.793495 0.564333 0.092129
0.819357 0.564521 0.092298
0.845117 0.564709 0.092466
0.870778 0.564896 0.092633
0.896344 0.565082 0.092800
0.921819 0.565267 0.092966
0.947207 0.565452 0.093132
0.968280 0.565606 0.093269
0.080620 0.586743 0.088071
0.115918 0.587000 0.088301
0.149271 0.587243 0.088518
0.181423 0.587478 0.088728
0.212713 0.587705 0.088932
0.243333 0.587928 0.089132
0.273406 0.588148 0.089328
0.303021 0.588363 0.089521
0.332239 0.588576 0.089712
0.361111 0.588786 0.089900
0.389673 0.588994 0.090086
0.417958 0.589200 0.090271
0.445991 0.589405 0.090454
0.473794 0.589607 0.090635
0.501384 0.589808 0.090815
0.528777 0.590007 0.090994
0.555987 0.590206 0.091171
0.583026 0.590403 0.091347
0.609904 0.590598 0.091523
0.636631 0.590793 0.091697
0.663215 0.590987 0.091870
0.689663 0.591179 0.092043
0.715983 0.591371 0.092215
0.742181 0.591562 0.092385
0.768261 0.591752 0.092556
0.794230 0.591941 0.092725
0.820092 0.592129 0.092894
0.845852 0.592317 0.093062
0.871513 0.592504 0.093229
0.897079 0.592690 0.093396
0.922554 0.592875 0.093562
0.947942 0.593060 0.093728
0.969015 0.593214 0.093865
0.081351 0.614187 0.088663
0.116649 0.614444 0.088893
0.150001 0.614687 0.089111
0.182154 0.614921 0.089320
0.213444 0.615149 0.089525
0.244063 0.615372 0.089724
0.274137 0.615591 0.089920
0.303751 0.615807 0.090114
0.332970 0.616020 0.090304
0.361841 0.616230 0.090492
0.390404 0.616438 0.090679
0.418689 0.616644 0.090863
0.446722 0.616848 0.091046
0.474524 0.617051 0.091227
0.502114 0.617252 0.091407
0.529507 0.617451 0.091586
0.556718 0.617650 0.091763
0.583756 0.617846 0.091940
0.610635 0.618042 0.092115
0.637362 0.618237 0.092289
0.663945 0.618430 0.092463
0.690394 0.618623 0.092635
0.716714 0.618815 0.092807
0.742911 0.619006 0.092978
0.768992 0.619196 0.093148
0.794961 0.619385 0.093317
0.820823 0.619573 0.093486
0.846582 0.619761 0.093654
0.872243 0.619948 0.093821
0.897810 0.620134 0.093988
0.923285 0.620319 0.094154
0.948672 0.620504 0.094320
0.969746 0.620658 0.094457
0.082077 0.641477 0.089252
0.117375 0.641734 0.089482
0.150728 0.641977 0.089700
0.182880 0.642211 0.089909
0.214170 0.642439 0.090114
0.244790 0.642662 0.090313
0.274864 0.642881 0.090509
0.304478 0.643096 0.090703
0.333696 0.643309 0.090893
0.362568 0.643520 0.091081
0.391130 0.643728 0.091268
0.419415 0.643934 0.091452
0.447448 0.644138 0.091635
0.475251 0.644340 0.091816
0.502841 0.644541 0.091996
0.530234 0.644741 0.092175
0.557444 0.644939 0.092353
0.584483 0.645136 0.092529
0.611361 0.645332 0.092704
0.638088 0.645526 0.092879
0.664672 0.645720 0.093052
0.691120 0.645912 0.093224
0.717440 0.646104 0.093396
0.743638 0.646295 0.093567
0.769718 0.646485 0.093737
0.795687 0.646674 0.093906
0.821549 0.646862 0.094075
0.847309 0.647050 0.094243
0.872970 0.647237 0.094411
0.898536 0.647423 0.094577
0.924012 0.647609 0.094743
0.949399 0.647794 0.094909
0.970472 0.647947 0.095046
0.082800 0.668620 0.089838
0.118098 0.668877 0.090068
0.151450 0.669120 0.090286
0.183603 0.669354 0.090495
0.214893 0.669582 0.090700
0.245513 0.669805 0.090899
0.275586 0.670024 0.091095
0.305201 0.670240 0.091289
0.334419 0.670453 0.091479
0.363290 0.670663 0.091667
0.391853 0.670871 0.091854
0.420138 0.671077 0.092038
0.448171 0.671281 0.092221
0.475973 0.671484 0.092402
0.503563 0.671684 0.092582
0.530957 0.671884 0.092761
0.558167 0.672082 0.092938
0.585206 0.672279 0.093115
0.612084 0.672475 0.093290
0.638811 0.672670 0.093464
0.665395 0.672863 0.093638
0.691843 0.673056 0.093810
0.718163 0.673247 0.093982
0.744360 0.673438 0.094153
0.770441 0.673628 0.094323
0.796410 0.673817 0.094492
0.822272 0.674006 0.094661
0.848032 0.674193 0.094829
0.873693 0.674380 0.094996
0.899259 0.674566 0.095163
0.924734 0.674752 0.095329
0.950121 0.674937 0.095495
0.971195 0.675090 0.095632
0.083519 0.695625 0.090421
0.118817 0.695882 0.090651
0.152169 0.696125 0.090869
0.184322 0.696359 0.091078
0.215612 0.696587 0.091282
0.246231 0.696810 0.091482
0.276305 0.697029 0.091678
0.305920 0.697245 0.091871
0.335138 0.697458 0.092062
0.364009 0.697668 0.092250
0.392572 0.697876 0.092437
0.420857 0.698082 0.092621
0.448890 0.698286 0.092804
0.476692 0.698489 0.092985
0.504282 0.698689 0.093165
0.531676 0.698889 0.093344
0.558886 0.699087 0.093521
0.585925 0.699284 0.093698
0.612803 0.699480 0.093873
0.639530 0.699674 0.094047
0.666114 0.699868 0.094221
0.692562 0.700061 0.094393
0.718882 0.700252 0.094565
0.745079 0.700443 0.094736
0.771160 0.700633 0.094906
0.797129 0.700822 0.095075
0.822991 0.701011 0.095244
0.848750 0.701198 0.095412
0.874412 0.701385 0.095579
0.899978 0.701571 0.095746
0.925453 0.701757 0.095912
0.950840 0.701942 0.096078
0.971914 0.702095 0.096215
0.084234 0.722499 0.091001
0.119532 0.722756 0.091231
0.152885 0.722999 0.091449
0.185037 0.723233 0.091658
0.216327 0.723461 0.091863
0.246947 0.723684 0.092062
0.277021 0.723903 0.092258
0.306635 0.724118 0.092452
0.335853 0.724331 0.092642
0.364725 0.724541 0.092830
0.393288 0.724749 0.093017
0.421573 0.724955 0.093201
0.449605 0.725160 0.093384
0.477408 0.725362 0.093565
0.504998 0.725563 0.093745
0.532391 0.725763 0.093924
0.559601 0.725961 0.094102
0.586640 0.726158 0.094278
0.613518 0.726353 0.094453
0.640245 0.726548 0.094628
0.666829 0.726742 0.094801
0.693278 0.726934 0.094973
0.719597 0.727126 0.095145
0.745795 0.727317 0.095316
0.771875 0.727507 0.095486
0.797844 0.727696 0.095655
0.823706 0.727884 0.095824
0.849466 0.728072 0.095992
0.875127 0.728259 0.096159
0.900693 0.728445 0.096326
0.926169 0.728631 0.096492
0.951556 0.728815 0.096658
0.972629 0.728969 0.096795
0.084946 0.749247 0.091578
0.120244 0.749504 0.091809
0.153597 0.749747 0.092026
0.185749 0.749981 0.092236
0.217039 0.750209 0.092440
0.247659 0.750432 0.092640
0.277733 0.750651 0.092836
0.307347 0.750867 0.093029
0.336566 0.751080 0.093220
0.365437 0.751290 0.093408
0.394000 0.751498 0.093594
0.422285 0.751704 0.093779
0.450318 0.751908 0.093961
0.478120 0.752111 0.094143
0.505710 0.752312 0.094323
0.533103 0.752511 0.094501
0.560313 0.752709 0.094679
0.587352 0.752906 0.094855
0.614230 0.753102 0.095031
0.640957 0.753297 0.095205
0.667541 0.753490 0.095378
0.693990 0.753683 0.095551
0.720310 0.753875 0.095722
0.746507 0.754065 0.095893
0.772587 0.754255 0.096063
0.798556 0.754445 0.096233
0.824419 0.754633 0.096402
0.850178 0.754821 0.096570
0.875839 0.755007 0.096737
0.901406 0.755194 0.096904
0.926881 0.755379 0.097070
0.952268 0.755564 0.097235
0.973341 0.755718 0.097373
0.085655 0.775876 0.092153
0.120953 0.776133 0.092383
0.154306 0.776376 0.092601
0.186458 0.776611 0.092811
0.217748 0.776838 0.093015
0.248368 0.777061 0.093215
0.278442 0.777280 0.093411
0.308056 0.777496 0.093604
0.337275 0.777709 0.093794
0.366146 0.777919 0.093983
0.394709 0.778127 0.094169
0.422994 0.778333 0.094353
0.451027 0.778537 0.094536
0.478829 0.778740 0.094718
0.506419 0.778941 0.094898
0.533812 0.779140 0.095076
0.561022 0.779339 0.095254
0.588061 0.779536 0.095430
0.614939 0.779731 0.095605
0.641666 0.779926 0.095780
0.668250 0.780120 0.095953
0.694699 0.780312 0.096126
0.721018 0.780504 0.096297
0.747216 0.780695 0.096468
0.773296 0.780885 0.096638
0.799265 0.781074 0.096808
0.825127 0.781262 0.096976
0.850887 0.781450 0.097144
0.876548 0.781637 0.097312
0.902115 0.781823 0.097478
0.927590 0.782008 0.097645
0.952977 0.782193 0.097810
0.974050 0.782347 0.097948
0.086361 0.802392 0.092726
0.121659 0.802649 0.092956
0.155012 0.802892 0.093173
0.187164 0.803126 0.093383
0.218454 0.803354 0.093587
0.249074 0.803577 0.093787
0.279148 0.803796 0.093983
0.308762 0.804011 0.094176
0.337981 0.804224 0.094367
0.366852 0.804435 0.094555
0.395415 0.804643 0.094741
0.423700 0.804849 0.094926
0.451732 0.805053 0.095109
0.479535 0.805255 0.095290
0.507125 0.805456 0.095470
0.534518 0.805656 0.095649
0.561728 0.805854 0.095826
0.588767 0.806051 0.096002
0.615645 0.806247 0.096178
0.642372 0.806441 0.096352
0.668956 0.806635 0.096525
0.695405 0.806827 0.096698
0.721724 0.807019 0.096870
0.747922 0.807210 0.097041
0.774002 0.807400 0.097211
0.799971 0.807589 0.097380
0.825833 0.807777 0.097549
0.851593 0.807965 0.097717
0.877254 0.808152 0.097884
0.902820 0.808338 0.098051
0.928296 0.808524 0.098217
0.953683 0.808709 0.098383
0.974756 0.808862 0.098520
0.087064 0.828798 0.093296
0.122362 0.829055 0.093526
0.155715 0.829298 0.093743
0.187867 0.829532 0.093953
0.219157 0.829760 0.094157
0.249777 0.829983 0.094357
0.279851 0.830202 0.094553
0.309465 0.830418 0.094746
0.338684 0.830630 0.094937
0.367555 0.830841 0.095125
0.396118 0.831049 0.095311
0.424403 0.831255 0.095496
0.452436 0.831459 0.095679
0.480238 0.831661 0.095860
0.507828 0.831862 0.096040
0.535221 0.832062 0.096219
0.562431 0.832260 0.096396
0.589470 0.832457 0.096572
0.616348 0.832653 0.096748
0.643075 0.832847 0.096922
0.669659 0.833041 0.097096
0.696108 0.833234 0.097268
0.722427 0.833425 0.097440
0.748625 0.833616 0.097611
0.774705 0.833806 0.097781
0.800674 0.833995 0.097950
0.826536 0.834184 0.098119
