assets/luts/primelive_bainen.cube
TITLE "primelive_bainen"
LUT_3D_SIZE 9
0.122800 0.122800 0.122800
0.248973 0.120978 0.120978
0.375145 0.119155 0.119155
0.501318 0.117333 0.117333
0.627490 0.115510 0.115510
0.753663 0.113688 0.113688
0.879836 0.111866 0.111866
1.000000 0.110043 0.110043
1.000000 0.108221 0.108221
0.119222 0.247217 0.119222
0.245395 0.245395 0.117400
0.371567 0.243572 0.115577
0.497740 0.241750 0.113755
0.623913 0.239928 0.111933
0.750085 0.238105 0.110110
0.876258 0.236283 0.108288
1.000000 0.234460 0.106465
1.000000 0.232638 0.104643
0.115644 0.371634 0.115644
0.241817 0.369812 0.113822
0.367990 0.367990 0.112000
0.494162 0.366167 0.110177
0.620335 0.364345 0.108355
0.746507 0.362522 0.106532
0.872680 0.360700 0.104710
0.998853 0.358878 0.102888
1.000000 0.357055 0.101065
0.112067 0.496052 0.112067
0.238239 0.494229 0.110244
0.364412 0.492407 0.108422
0.490584 0.490584 0.106599
0.616757 0.488762 0.104777
0.742930 0.486940 0.102955
0.869102 0.485117 0.101132
0.995275 0.483295 0.099310
1.000000 0.481472 0.097487
0.108489 0.620469 0.108489
0.234662 0.618647 0.106667
0.360834 0.616824 0.104844
0.487007 0.615002 0.103022
0.613179 0.613179 0.101199
0.739352 0.611357 0.099377
0.865525 0.609535 0.097555
0.991697 0.607712 0.095732
1.000000 0.605890 0.093910
0.104911 0.744886 0.104911
0.231084 0.743064 0.103089
0.357256 0.741241 0.101266
0.483429 0.739419 0.099444
0.609602 0.737596 0.097622
0.735774 0.735774 0.095799
0.861947 0.733952 0.093977
0.988119 0.732129 0.092154
1.000000 0.730307 0.090332
0.101333 0.869303 0.101333
0.227506 0.867481 0.099511
0.353679 0.865659 0.097689
0.479851 0.863836 0.095866
0.606024 0.862014 0.094044
0.732196 0.860191 0.092221
0.858369 0.858369 0.090399
0.984542 0.856547 0.088577
1.000000 0.854724 0.086754
0.097756 0.993721 0.097756
0.223928 0.991898 0.095933
0.350101 0.990076 0.094111
0.476273 0.988253 0.092288
0.602446 0.986431 0.090466
0.728619 0.984609 0.088644
0.854791 0.982786 0.086821
0.980964 0.980964 0.084999
1.000000 0.979141 0.083176
0.094178 1.000000 0.094178
0.220350 1.000000 0.092355
0.346523 1.000000 0.090533
0.472696 1.000000 0.088711
0.598868 1.000000 0.086888
0.725041 1.000000 0.085066
0.851213 1.000000 0.083243
0.977386 1.000000 0.081421
1.000000 1.000000 0.079599
0.122085 0.122085 0.253703
0.248258 0.120263 0.251881
0.374431 0.118441 0.250058
0.500603 0.116618 0.248236
0.626776 0.114796 0.246413
0.752948 0.112973 0.244591
0.879121 0.111151 0.242769
1.000000 0.109329 0.240946
1.000000 0.107506 0.239124
0.118508 0.246503 0.250125
0.244680 0.244680 0.248303
0.370853 0.242858 0.246480
0.497025 0.241036 0.244658
0.623198 0.239213 0.242836
0.749371 0.237391 0.241013
0.875543 0.235568 0.239191
1.000000 0.233746 0.237368
1.000000 0.231923 0.235546
0.114930 0.370920 0.246547
0.241103 0.369098 0.244725
0.367275 0.367275 0.242903
0.493448 0.365453 0.241080
0.619620 0.363630 0.239258
0.745793 0.361808 0.237435
0.871966 0.359986 0.235613
0.998138 0.358163 0.233791
1.000000 0.356341 0.231968
0.111352 0.495337 0.242970
0.237525 0.493515 0.241147
0.363697 0.491692 0.239325
0.489870 0.489870 0.237502
0.616043 0.488048 0.235680
0.742215 0.486225 0.233858
0.868388 0.484403 0.232035
0.994560 0.482580 0.230213
1.000000 0.480758 0.228390
0.107774 0.619754 0.239392
0.233947 0.617932 0.237570
0.360120 0.616110 0.235747
0.486292 0.614287 0.233925
0.612465 0.612465 0.232102
0.738637 0.610642 0.230280
0.864810 0.608820 0.228458
0.990983 0.606998 0.226635
1.000000 0.605175 0.224813
0.104197 0.744172 0.235814
0.230369 0.742349 0.233992
0.356542 0.740527 0.232169
0.482714 0.738704 0.230347
0.608887 0.736882 0.228525
0.735060 0.735060 0.226702
0.861232 0.733237 0.224880
0.987405 0.731415 0.223057
1.000000 0.729592 0.221235
0.100619 0.868589 0.232236
0.226791 0.866767 0.230414
0.352964 0.864944 0.228592
0.479137 0.863122 0.226769
0.605309 0.861299 0.224947
0.731482 0.859477 0.223124
0.857654 0.857654 0.221302
0.983827 0.855832 0.219480
1.000000 0.854010 0.217657
0.097041 0.993006 0.228659
0.223214 0.991184 0.226836
0.349386 0.989361 0.225014
0.475559 0.987539 0.223191
0.601732 0.985716 0.221369
0.727904 0.983894 0.219547
0.854077 0.982072 0.217724
0.980249 0.980249 0.215902
1.000000 0.978427 0.214079
0.093463 1.000000 0.225081
0.219636 1.000000 0.223258
0.345809 1.000000 0.221436
0.471981 1.000000 0.219614
0.598154 1.000000 0.217791
0.724326 1.000000 0.215969
0.850499 1.000000 0.214146
0.976672 1.000000 0.212324
1.000000 1.000000 0.210502
0.121371 0.121371 0.384606
0.247544 0.119549 0.382784
0.373716 0.117726 0.380961
0.499889 0.115904 0.379139
0.626061 0.114081 0.377316
0.752234 0.112259 0.375494
0.878407 0.110437 0.373672
1.000000 0.108614 0.371849
1.000000 0.106792 0.370027
0.117793 0.245788 0.381028
0.243966 0.243966 0.379206
0.370138 0.242143 0.377383
0.496311 0.240321 0.375561
0.622484 0.238499 0.373739
0.748656 0.236676 0.371916
0.874829 0.234854 0.370094
1.000000 0.233031 0.368271
1.000000 0.231209 0.366449
0.114215 0.370205 0.377450
0.240388 0.368383 0.375628
0.366561 0.366561 0.373806
0.492733 0.364738 0.371983
0.618906 0.362916 0.370161
0.745078 0.361093 0.368338
0.871251 0.359271 0.366516
0.997424 0.357449 0.364694
1.000000 0.355626 0.362871
0.110638 0.494623 0.373873
0.236810 0.492800 0.372050
0.362983 0.490978 0.370228
0.489155 0.489155 0.368405
0.615328 0.487333 0.366583
0.741501 0.485511 0.364761
0.867673 0.483688 0.362938
0.993846 0.481866 0.361116
1.000000 0.480043 0.359293
0.107060 0.619040 0.370295
0.233233 0.617218 0.368473
0.359405 0.615395 0.366650
0.485578 0.613573 0.364828
0.611750 0.611750 0.363005
0.737923 0.609928 0.361183
0.864096 0.608106 0.359361
0.990268 0.606283 0.357538
1.000000 0.604461 0.355716
0.103482 0.743457 0.366717
0.229655 0.741635 0.364895
0.355827 0.739812 0.363072
0.482000 0.737990 0.361250
0.608173 0.736167 0.359428
0.734345 0.734345 0.357605
0.860518 0.732523 0.355783
0.986690 0.730700 0.353960
1.000000 0.728878 0.352138
0.099904 0.867874 0.363139
0.226077 0.866052 0.361317
0.352250 0.864230 0.359495
0.478422 0.862407 0.357672
0.604595 0.860585 0.355850
0.730767 0.858762 0.354027
0.856940 0.856940 0.352205
0.983113 0.855118 0.350383
1.000000 0.853295 0.348560
0.096327 0.992292 0.359562
0.222499 0.990469 0.357739
0.348672 0.988647 0.355917
0.474844 0.986824 0.354094
0.601017 0.985002 0.352272
0.727190 0.983180 0.350450
0.853362 0.981357 0.348627
0.979535 0.979535 0.346805
1.000000 0.977712 0.344982
0.092749 1.000000 0.355984
0.218921 1.000000 0.354161
0.345094 1.000000 0.352339
0.471267 1.000000 0.350517
0.597439 1.000000 0.348694
0.723612 1.000000 0.346872
0.849784 1.000000 0.345049
0.975957 1.000000 0.343227
1.000000 1.000000 0.341405
0.120657 0.120657 0.515509
0.246829 0.118834 0.513687
0.373002 0.117012 0.511864
0.499174 0.115189 0.510042
0.625347 0.113367 0.508219
0.751519 0.111544 0.506397
0.877692 0.109722 0.504575
1.000000 0.107900 0.502752
1.000000 0.106077 0.500930
0.117079 0.245074 0.511931
0.243251 0.243251 0.510109
0.369424 0.241429 0.508286
0.495597 0.239607 0.506464
0.621769 0.237784 0.504642
0.747942 0.235962 0.502819
0.874114 0.234139 0.500997
1.000000 0.232317 0.499174
1.000000 0.230494 0.497352
0.113501 0.369491 0.508353
0.239674 0.367669 0.506531
0.365846 0.365846 0.504709
0.492019 0.364024 0.502886
0.618191 0.362201 0.501064
0.744364 0.360379 0.499241
0.870537 0.358557 0.497419
0.996709 0.356734 0.495597
1.000000 0.354912 0.493774
0.109923 0.493908 0.504776
0.236096 0.492086 0.502953
0.362268 0.490263 0.501131
0.488441 0.488441 0.499308
0.614614 0.486619 0.497486
0.740786 0.484796 0.495664
0.866959 0.482974 0.493841
0.993131 0.481151 0.492019
1.000000 0.479329 0.490196
0.106345 0.618325 0.501198
0.232518 0.616503 0.499376
0.358691 0.614681 0.497553
0.484863 0.612858 0.495731
0.611036 0.611036 0.493908
0.737208 0.609213 0.492086
0.863381 0.607391 0.490264
0.989554 0.605569 0.488441
1.000000 0.603746 0.486619
0.102768 0.742743 0.497620
0.228940 0.740920 0.495798
0.355113 0.739098 0.493975
0.481285 0.737275 0.492153
0.607458 0.735453 0.490331
0.733631 0.733631 0.488508
0.859803 0.731808 0.486686
0.985976 0.729986 0.484863
1.000000 0.728163 0.483041
0.099190 0.867160 0.494042
0.225363 0.865338 0.492220
0.351535 0.863515 0.490398
0.477708 0.861693 0.488575
0.603880 0.859870 0.486753
0.730053 0.858048 0.484930
0.856226 0.856226 0.483108
0.982398 0.854403 0.481286
1.000000 0.852581 0.479463
0.095612 0.991577 0.490465
0.221785 0.989755 0.488642
0.347957 0.987932 0.486820
0.474130 0.986110 0.484997
0.600303 0.984288 0.483175
0.726475 0.982465 0.481353
0.852648 0.980643 0.479530
0.978820 0.978820 0.477708
1.000000 0.976998 0.475885
0.092034 1.000000 0.486887
0.218207 1.000000 0.485064
0.344380 1.000000 0.483242
0.470552 1.000000 0.481420
0.596725 1.000000 0.479597
0.722897 1.000000 0.477775
0.849070 1.000000 0.475952
0.975243 1.000000 0.474130
1.000000 1.000000 0.472308
0.119942 0.119942 0.646412
0.246115 0.118120 0.644590
0.372287 0.116297 0.642767
0.498460 0.114475 0.640945
0.624632 0.112652 0.639122
0.750805 0.110830 0.637300
0.876978 0.109008 0.635478
1.000000 0.107185 0.633655
1.000000 0.105363 0.631833
0.116364 0.244359 0.642834
0.242537 0.242537 0.641012
0.368709 0.240714 0.639189
0.494882 0.238892 0.637367
0.621055 0.237070 0.635545
0.747227 0.235247 0.633722
0.873400 0.233425 0.631900
0.999572 0.231602 0.630077
1.000000 0.229780 0.628255
0.112786 0.368776 0.639256
0.238959 0.366954 0.637434
0.365132 0.365132 0.635612
0.491304 0.363309 0.633789
0.617477 0.361487 0.631967
0.743649 0.359664 0.630144
0.869822 0.357842 0.628322
0.995995 0.356020 0.626500
1.000000 0.354197 0.624677
0.109209 0.493194 0.635679
0.235381 0.491371 0.633856
0.361554 0.489549 0.632034
0.487726 0.487726 0.630211
0.613899 0.485904 0.628389
0.740072 0.484082 0.626567
0.866244 0.482259 0.624744
0.992417 0.480437 0.622922
1.000000 0.478614 0.621099
0.105631 0.617611 0.632101
0.231804 0.615789 0.630279
0.357976 0.613966 0.628456
0.484149 0.612144 0.626634
0.610321 0.610321 0.624811
0.736494 0.608499 0.622989
0.862667 0.606677 0.621167
0.988839 0.604854 0.619344
1.000000 0.603032 0.617522
0.102053 0.742028 0.628523
0.228226 0.740206 0.626701
0.354398 0.738383 0.624878
0.480571 0.736561 0.623056
0.606744 0.734738 0.621234
0.732916 0.732916 0.619411
0.859089 0.731094 0.617589
0.985261 0.729271 0.615766
1.000000 0.727449 0.613944
0.098475 0.866445 0.624945
0.224648 0.864623 0.623123
0.350821 0.862801 0.621301
0.476993 0.860978 0.619478
0.603166 0.859156 0.617656
0.729338 0.857333 0.615833
0.855511 0.855511 0.614011
0.981684 0.853689 0.612189
1.000000 0.851866 0.610366
0.094898 0.990863 0.621368
0.221070 0.989040 0.619545
0.347243 0.987218 0.617723
0.473415 0.985395 0.615900
0.599588 0.983573 0.614078
0.725761 0.981751 0.612256
0.851933 0.979928 0.610433
0.978106 0.978106 0.608611
1.000000 0.976283 0.606788
0.091320 1.000000 0.617790
0.217492 1.000000 0.615967
0.343665 1.000000 0.614145
0.469838 1.000000 0.612323
0.596010 1.000000 0.610500
0.722183 1.000000 0.608678
0.848355 1.000000 0.606855
0.974528 1.000000 0.605033
1.000000 1.000000 0.603211
0.119228 0.119228 0.777315
0.245400 0.117405 0.775493
0.371573 0.115583 0.773670
0.497745 0.113760 0.771848
0.623918 0.111938 0.770025
0.750090 0.110115 0.768203
0.876263 0.108293 0.766381
1.000000 0.106471 0.764558
1.000000 0.104648 0.762736
0.115650 0.243645 0.773737
0.241822 0.241822 0.771915
0.367995 0.240000 0.770092
0.494168 0.238178 0.768270
0.620340 0.236355 0.766448
0.746513 0.234533 0.764625
0.872685 0.232710 0.762803
0.998858 0.230888 0.760980
1.000000 0.229066 0.759158
0.112072 0.368062 0.770159
0.238245 0.366240 0.768337
0.364417 0.364417 0.766515
0.490590 0.362595 0.764692
0.616762 0.360772 0.762870
0.742935 0.358950 0.761047
0.869108 0.357128 0.759225
0.995280 0.355305 0.757403
1.000000 0.353483 0.755580
0.108494 0.492479 0.766582
0.234667 0.490657 0.764759
0.360839 0.488834 0.762937
0.487012 0.487012 0.761115
0.613185 0.485190 0.759292
0.739357 0.483367 0.757470
0.865530 0.481545 0.755647
0.991702 0.479722 0.753825
1.000000 0.477900 0.752002
0.104916 0.616896 0.763004
0.231089 0.615074 0.761182
0.357262 0.613252 0.759359
0.483434 0.611429 0.757537
0.609607 0.609607 0.755714
0.735779 0.607784 0.753892
0.861952 0.605962 0.752070
0.988125 0.604140 0.750247
1.000000 0.602317 0.748425
0.101339 0.741314 0.759426
0.227511 0.739491 0.757604
0.353684 0.737669 0.755781
0.479856 0.735846 0.753959
0.606029 0.734024 0.752137
0.732202 0.732202 0.750314
0.858374 0.730379 0.748492
0.984547 0.728557 0.746669
1.000000 0.726734 0.744847
0.097761 0.865731 0.755848
0.223934 0.863909 0.754026
0.350106 0.862086 0.752204
0.476279 0.860264 0.750381
0.602451 0.858441 0.748559
0.728624 0.856619 0.746736
0.854797 0.854797 0.744914
0.980969 0.852974 0.743092
1.000000 0.851152 0.741269
0.094183 0.990148 0.752271
0.220356 0.988326 0.750448
0.346528 0.986503 0.748626
0.472701 0.984681 0.746803
0.598874 0.982859 0.744981
0.725046 0.981036 0.743159
0.851219 0.979214 0.741336
0.977391 0.977391 0.739514
1.000000 0.975569 0.737691
0.090605 1.000000 0.748693
0.216778 1.000000 0.746870
0.342951 1.000000 0.745048
0.469123 1.000000 0.743226
0.595296 1.000000 0.741403
0.721468 1.000000 0.739581
0.847641 1.000000 0.737758
0.973814 1.000000 0.735936
1.000000 1.000000 0.734114
0.118513 0.118513 0.908218
0.244686 0.116691 0.906396
0.370858 0.114868 0.904573
0.497031 0.113046 0.902751
0.623203 0.111223 0.900928
0.749376 0.109401 0.899106
0.875549 0.107579 0.897284
1.000000 0.105756 0.895461
1.000000 0.103934 0.893639
0.114935 0.242930 0.904640
0.241108 0.241108 0.902818
0.367280 0.239285 0.900996
0.493453 0.237463 0.899173
0.619626 0.235641 0.897351
0.745798 0.233818 0.895528
0.871971 0.231996 0.893706
0.998143 0.230173 0.891883
1.000000 0.228351 0.890061
0.111357 0.367347 0.901063
0.237530 0.365525 0.899240
0.363703 0.363703 0.897418
0.489875 0.361880 0.895595
0.616048 0.360058 0.893773
0.742220 0.358235 0.891951
0.868393 0.356413 0.890128
0.994566 0.354591 0.888306
1.000000 0.352768 0.886483
0.107780 0.491765 0.897485
0.233952 0.489942 0.895662
0.360125 0.488120 0.893840
0.486297 0.486297 0.892018
0.612470 0.484475 0.890195
0.738643 0.482653 0.888373
0.864815 0.480830 0.886550
0.990988 0.479008 0.884728
1.000000 0.477185 0.882906
0.104202 0.616182 0.893907
0.230375 0.614360 0.892085
0.356547 0.612537 0.890262
0.482720 0.610715 0.888440
0.608892 0.608892 0.886617
0.735065 0.607070 0.884795
0.861238 0.605248 0.882973
0.987410 0.603425 0.881150
1.000000 0.601603 0.879328
0.100624 0.740599 0.890329
0.226797 0.738777 0.888507
0.352969 0.736954 0.886684
0.479142 0.735132 0.884862
0.605315 0.733310 0.883040
0.731487 0.731487 0.881217
0.857660 0.729665 0.879395
0.983832 0.727842 0.877572
1.000000 0.726020 0.875750
0.097046 0.865016 0.886751
0.223219 0.863194 0.884929
0.349392 0.861372 0.883107
0.475564 0.859549 0.881284
0.601737 0.857727 0.879462
0.727909 0.855904 0.877639
0.854082 0.854082 0.875817
0.980255 0.852260 0.873995
1.000000 0.850437 0.872172
0.093469 0.989434 0.883174
0.219641 0.987611 0.881351
0.345814 0.985789 0.879529
0.471986 0.983966 0.877707
0.598159 0.982144 0.875884
0.724332 0.980322 0.874062
0.850504 0.978499 0.872239
0.976677 0.976677 0.870417
1.000000 0.974854 0.868594
0.089891 1.000000 0.879596
0.216063 1.000000 0.877774
0.342236 1.000000 0.875951
0.468409 1.000000 0.874129
0.594581 1.000000 0.872306
0.720754 1.000000 0.870484
0.846926 1.000000 0.868662
0.973099 1.000000 0.866839
1.000000 1.000000 0.865017
0.117799 0.117799 1.000000
0.243971 0.115976 1.000000
0.370144 0.114154 1.000000
0.496316 0.112331 1.000000
0.622489 0.110509 1.000000
0.748661 0.108687 1.000000
0.874834 0.106864 1.000000
1.000000 0.105042 1.000000
1.000000 0.103219 1.000000
0.114221 0.242216 1.000000
0.240393 0.240393 1.000000
0.366566 0.238571 1.000000
0.492739 0.236749 1.000000
0.618911 0.234926 1.000000
0.745084 0.233104 1.000000
0.871256 0.231281 1.000000
0.997429 0.229459 1.000000
1.000000 0.227637 1.000000
0.110643 0.366633 1.000000
0.236816 0.364811 1.000000
0.362988 0.362988 1.000000
0.489161 0.361166 1.000000
0.615333 0.359343 1.000000
0.741506 0.357521 1.000000
0.867679 0.355699 1.000000
0.993851 0.353876 1.000000
1.000000 0.352054 1.000000
0.107065 0.491050 1.000000
0.233238 0.489228 1.000000
0.359410 0.487405 1.000000
0.485583 0.485583 1.000000
0.611756 0.483761 1.000000
0.737928 0.481938 1.000000
0.864101 0.480116 1.000000
0.990273 0.478293 1.000000
1.000000 0.476471 1.000000
0.103487 0.615467 1.000000
0.229660 0.613645 1.000000
0.355833 0.611823 1.000000
0.482005 0.610000 1.000000
0.608178 0.608178 1.000000
0.734350 0.606355 1.000000
0.860523 0.604533 1.000000
0.986696 0.602711 1.000000
1.000000 0.600888 1.000000
0.099910 0.739885 1.000000
0.226082 0.738062 1.000000
0.352255 0.736240 1.000000
0.478427 0.734417 1.000000
0.604600 0.732595 1.000000
0.730773 0.730773 1.000000
0.856945 0.728950 1.000000
0.983118 0.727128 1.000000
1.000000 0.725305 1.000000
0.096332 0.864302 1.000000
0.222505 0.862480 1.000000
0.348677 0.860657 1.000000
0.474850 0.858835 1.000000
0.601022 0.857012 1.000000
0.727195 0.855190 1.000000
0.853368 0.853368 1.000000
0.979540 0.851545 1.000000
1.000000 0.849723 1.000000
0.092754 0.988719 1.000000
0.218927 0.986897 1.000000
0.345099 0.985074 1.000000
0.471272 0.983252 1.000000
0.597445 0.981430 1.000000
0.723617 0.979607 1.000000
0.849790 0.977785 1.000000
0.975962 0.975962 1.000000
1.000000 0.974140 0.999498
0.089176 1.000000 1.000000
0.215349 1.000000 1.000000
0.341522 1.000000 1.000000
0.467694 1.000000 1.000000
0.593867 1.000000 1.000000
0.720039 1.000000 1.000000
0.846212 1.000000 0.999565
0.972385 1.000000 0.997742
1.000000 1.000000 0.995920
0.117084 0.117084 1.000000
0.243257 0.115262 1.000000
0.369429 0.113439 1.000000
0.495602 0.111617 1.000000
0.621774 0.109794 1.000000
0.747947 0.107972 1.000000
0.874120 0.106150 1.000000
1.000000 0.104327 1.000000
1.000000 0.102505 1.000000
0.113506 0.241501 1.000000
0.239679 0.239679 1.000000
0.365851 0.237856 1.000000
0.492024 0.236034 1.000000
0.618197 0.234212 1.000000
0.744369 0.232389 1.000000
0.870542 0.230567 1.000000
0.996714 0.228744 1.000000
1.000000 0.226922 1.000000
0.109929 0.365918 1.000000
0.236101 0.364096 1.000000
0.362274 0.362274 1.000000
0.488446 0.360451 1.000000
0.614619 0.358629 1.000000
0.740791 0.356806 1.000000
0.866964 0.354984 1.000000
0.993137 0.353162 1.000000
1.000000 0.351339 1.000000
0.106351 0.490336 1.000000
0.232523 0.488513 1.000000
0.358696 0.486691 1.000000
0.484868 0.484868 1.000000
0.611041 0.483046 1.000000
0.737214 0.481224 1.000000
0.863386 0.479401 1.000000
0.989559 0.477579 1.000000
1.000000 0.475756 1.000000
0.102773 0.614753 1.000000
0.228946 0.612931 1.000000
0.355118 0.611108 1.000000
0.481291 0.609286 1.000000
0.607463 0.607463 1.000000
0.733636 0.605641 1.000000
0.859809 0.603819 1.000000
0.985981 0.601996 1.000000
1.000000 0.600174 1.000000
0.099195 0.739170 1.000000
0.225368 0.737348 1.000000
0.351540 0.735525 1.000000
0.477713 0.733703 1.000000
0.603886 0.731881 1.000000
0.730058 0.730058 1.000000
0.856231 0.728236 1.000000
0.982403 0.726413 1.000000
1.000000 0.724591 1.000000
0.095617 0.863587 1.000000
0.221790 0.861765 1.000000
0.347963 0.859943 1.000000
0.474135 0.858120 1.000000
0.600308 0.856298 1.000000
0.726480 0.854475 1.000000
0.852653 0.852653 1.000000
0.978826 0.850831 1.000000
1.000000 0.849008 1.000000
0.092040 0.988005 1.000000
0.218212 0.986182 1.000000
0.344385 0.984360 1.000000
0.470557 0.982537 1.000000
0.596730 0.980715 1.000000
0.722903 0.978893 1.000000
0.849075 0.977070 1.000000
0.975248 0.975248 1.000000
1.000000 0.973425 1.000000
0.088462 1.000000 1.000000
0.214634 1.000000 1.000000
0.340807 1.000000 1.000000
0.466980 1.000000 1.000000
0.593152 1.000000 1.000000
0.719325 1.000000 1.000000
0.845497 1.000000 1.000000
0.971670 1.000000 1.000000
1.000000 1.000000 1.000000
