assets/luts/primelive_amb_rainy_bluegrey.cube
TITLE "primelive Rainy Blue-Grey"
LUT_3D_SIZE 5
DOMAIN_MIN 0.0 0.0 0.0
DOMAIN_MAX 1.0 1.0 1.0
0.027652 0.042279 0.061906
0.247362 0.047338 0.066459
0.460070 0.052235 0.070867
0.669735 0.057062 0.075211
0.877407 0.061844 0.079514
0.046937 0.280433 0.077685
0.266647 0.285491 0.082238
0.479355 0.290389 0.086645
0.689020 0.295216 0.090990
0.896692 0.299997 0.095293
0.065605 0.510959 0.092959
0.285315 0.516018 0.097511
0.498023 0.520915 0.101919
0.707688 0.525743 0.106264
0.915360 0.530524 0.110567
0.084005 0.738183 0.108013
0.303715 0.743241 0.112566
0.516423 0.748139 0.116974
0.726088 0.752966 0.121318
0.933760 0.757747 0.125622
0.102230 0.963244 0.122925
0.321940 0.968303 0.127477
0.534648 0.973200 0.131885
0.744313 0.978028 0.136230
0.951985 0.982809 0.140533
0.029675 0.044118 0.292810
0.249385 0.049177 0.297363
0.462093 0.054074 0.301770
0.671758 0.058901 0.306115
0.879430 0.063683 0.310418
0.048960 0.282272 0.308589
0.268670 0.287330 0.313142
0.481378 0.292228 0.317549
0.691043 0.297055 0.321894
0.898715 0.301837 0.326197
0.067628 0.512799 0.323862
0.287338 0.517857 0.328415
0.500046 0.522755 0.332823
0.709711 0.527582 0.337167
0.917383 0.532363 0.341471
0.086028 0.740022 0.338917
0.305738 0.745080 0.343470
0.518446 0.749978 0.347877
0.728111 0.754805 0.352222
0.935783 0.759587 0.356525
0.104253 0.965083 0.353829
0.323963 0.970142 0.358381
0.536671 0.975039 0.362789
0.746336 0.979867 0.367133
0.954008 0.984648 0.371437
0.031633 0.045898 0.516273
0.251343 0.050956 0.520826
0.464051 0.055854 0.525234
0.673715 0.060681 0.529578
0.881388 0.065463 0.533881
0.050918 0.284052 0.532052
0.270628 0.289110 0.536605
0.483336 0.294008 0.541012
0.693001 0.298835 0.545357
0.900673 0.303616 0.549660
0.069585 0.514578 0.547326
0.289295 0.519637 0.551878
0.502004 0.524534 0.556286
0.711668 0.529362 0.560631
0.919341 0.534143 0.564934
0.087986 0.741802 0.562380
0.307696 0.746860 0.566933
0.520404 0.751758 0.571341
0.730068 0.756585 0.575685
0.937741 0.761366 0.579989
0.106211 0.966863 0.577292
0.325921 0.971922 0.581844
0.538629 0.976819 0.586252
0.748294 0.981647 0.590597
0.955966 0.986428 0.594900
0.033562 0.047652 0.736528
0.253272 0.052711 0.741080
0.465980 0.057608 0.745488
0.675645 0.062435 0.749833
0.883318 0.067217 0.754136
0.052848 0.285806 0.752306
0.272558 0.290865 0.756859
0.485266 0.295762 0.761267
0.694930 0.300589 0.765611
0.902603 0.305371 0.769915
0.071515 0.516333 0.767580
0.291225 0.521391 0.772133
0.503933 0.526289 0.776540
0.713598 0.531116 0.780885
0.921270 0.535897 0.785188
0.089915 0.743556 0.782635
0.309625 0.748614 0.787187
0.522333 0.753512 0.791595
0.731998 0.758339 0.795940
0.939671 0.763121 0.800243
0.108140 0.968618 0.797546
0.327850 0.973676 0.802099
0.540558 0.978574 0.806506
0.750223 0.983401 0.810851
0.957896 0.988182 0.815154
0.035180 0.049123 0.921233
0.254890 0.054182 0.925786
0.467599 0.059079 0.930193
0.677263 0.063907 0.934538
0.884936 0.068688 0.938841
0.054466 0.287277 0.937012
0.274176 0.292336 0.941565
0.486884 0.297233 0.945972
0.696549 0.302060 0.950317
0.904221 0.306842 0.954620
0.073133 0.517804 0.952286
0.292843 0.522862 0.956838
0.505551 0.527760 0.961246
0.715216 0.532587 0.965590
0.922889 0.537369 0.969894
0.091534 0.745027 0.967340
0.311244 0.750086 0.971893
0.523952 0.754983 0.976301
0.733616 0.759810 0.980645
0.941289 0.764592 0.984948
0.109759 0.970089 0.982252
0.329469 0.975147 0.986804
0.542177 0.980045 0.991212
0.751841 0.984872 0.995557
0.959514 0.989653 0.999860
