assets/luts/primelive_heibai.cube
TITLE "primelive_heibai"
LUT_3D_SIZE 33
0.016000 0.016000 0.016000
0.026278 0.026278 0.026278
0.036556 0.036556 0.036556
0.046834 0.046834 0.046834
0.057112 0.057112 0.057112
0.067391 0.067391 0.067391
0.077669 0.077669 0.077669
0.087947 0.087947 0.087947
0.098225 0.098225 0.098225
0.108503 0.108503 0.108503
0.118781 0.118781 0.118781
0.129059 0.129059 0.129059
0.139338 0.139338 0.139338
0.149616 0.149616 0.149616
0.159894 0.159894 0.159894
0.170172 0.170172 0.170172
0.180450 0.180450 0.180450
0.190728 0.190728 0.190728
0.201006 0.201006 0.201006
0.211284 0.211284 0.211284
0.221563 0.221563 0.221563
0.231841 0.231841 0.231841
0.242119 0.242119 0.242119
0.252397 0.252397 0.252397
0.262675 0.262675 0.262675
0.272953 0.272953 0.272953
0.283231 0.283231 0.283231
0.293509 0.293509 0.293509
0.303788 0.303788 0.303788
0.314066 0.314066 0.314066
0.324344 0.324344 0.324344
0.334622 0.334622 0.334622
0.344900 0.344900 0.344900
0.036178 0.036178 0.036178
0.046456 0.046456 0.046456
0.056734 0.056734 0.056734
0.067012 0.067012 0.067012
0.077291 0.077291 0.077291
0.087569 0.087569 0.087569
0.097847 0.097847 0.097847
0.108125 0.108125 0.108125
0.118403 0.118403 0.118403
0.128681 0.128681 0.128681
0.138959 0.138959 0.138959
0.149237 0.149237 0.149237
0.159516 0.159516 0.159516
0.169794 0.169794 0.169794
0.180072 0.180072 0.180072
0.190350 0.190350 0.190350
0.200628 0.200628 0.200628
0.210906 0.210906 0.210906
0.221184 0.221184 0.221184
0.231462 0.231462 0.231462
0.241741 0.241741 0.241741
0.252019 0.252019 0.252019
0.262297 0.262297 0.262297
0.272575 0.272575 0.272575
0.282853 0.282853 0.282853
0.293131 0.293131 0.293131
0.303409 0.303409 0.303409
0.313688 0.313688 0.313688
0.323966 0.323966 0.323966
0.334244 0.334244 0.334244
0.344522 0.344522 0.344522
0.354800 0.354800 0.354800
0.365078 0.365078 0.365078
0.056356 0.056356 0.056356
0.066634 0.066634 0.066634
0.076912 0.076912 0.076912
0.087191 0.087191 0.087191
0.097469 0.097469 0.097469
0.107747 0.107747 0.107747
0.118025 0.118025 0.118025
0.128303 0.128303 0.128303
0.138581 0.138581 0.138581
0.148859 0.148859 0.148859
0.159137 0.159137 0.159137
0.169416 0.169416 0.169416
0.179694 0.179694 0.179694
0.189972 0.189972 0.189972
0.200250 0.200250 0.200250
0.210528 0.210528 0.210528
0.220806 0.220806 0.220806
0.231084 0.231084 0.231084
0.241363 0.241363 0.241363
0.251641 0.251641 0.251641
0.261919 0.261919 0.261919
0.272197 0.272197 0.272197
0.282475 0.282475 0.282475
0.292753 0.292753 0.292753
0.303031 0.303031 0.303031
0.313309 0.313309 0.313309
0.323587 0.323587 0.323587
0.333866 0.333866 0.333866
0.344144 0.344144 0.344144
0.354422 0.354422 0.354422
0.364700 0.364700 0.364700
0.374978 0.374978 0.374978
0.385256 0.385256 0.385256
0.076534 0.076534 0.076534
0.086813 0.086813 0.086813
0.097091 0.097091 0.097091
0.107369 0.107369 0.107369
0.117647 0.117647 0.117647
0.127925 0.127925 0.127925
0.138203 0.138203 0.138203
0.148481 0.148481 0.148481
0.158759 0.158759 0.158759
0.169038 0.169038 0.169038
0.179316 0.179316 0.179316
0.189594 0.189594 0.189594
0.199872 0.199872 0.199872
0.210150 0.210150 0.210150
0.220428 0.220428 0.220428
0.230706 0.230706 0.230706
0.240984 0.240984 0.240984
0.251263 0.251263 0.251263
0.261541 0.261541 0.261541
0.271819 0.271819 0.271819
0.282097 0.282097 0.282097
0.292375 0.292375 0.292375
0.302653 0.302653 0.302653
0.312931 0.312931 0.312931
0.323209 0.323209 0.323209
0.333488 0.333488 0.333488
0.343766 0.343766 0.343766
0.354044 0.354044 0.354044
0.364322 0.364322 0.364322
0.374600 0.374600 0.374600
0.384878 0.384878 0.384878
0.395156 0.395156 0.395156
0.405434 0.405434 0.405434
0.096712 0.096712 0.096712
0.106991 0.106991 0.106991
0.117269 0.117269 0.117269
0.127547 0.127547 0.127547
0.137825 0.137825 0.137825
0.148103 0.148103 0.148103
0.158381 0.158381 0.158381
0.168659 0.168659 0.168659
0.178937 0.178937 0.178937
0.189216 0.189216 0.189216
0.199494 0.199494 0.199494
0.209772 0.209772 0.209772
0.220050 0.220050 0.220050
0.230328 0.230328 0.230328
0.240606 0.240606 0.240606
0.250884 0.250884 0.250884
0.261162 0.261162 0.261162
0.271441 0.271441 0.271441
0.281719 0.281719 0.281719
0.291997 0.291997 0.291997
0.302275 0.302275 0.302275
0.312553 0.312553 0.312553
0.322831 0.322831 0.322831
0.333109 0.333109 0.333109
0.343388 0.343388 0.343388
0.353666 0.353666 0.353666
0.363944 0.363944 0.363944
0.374222 0.374222 0.374222
0.384500 0.384500 0.384500
0.394778 0.394778 0.394778
0.405056 0.405056 0.405056
0.415334 0.415334 0.415334
0.425612 0.425612 0.425612
0.116891 0.116891 0.116891
0.127169 0.127169 0.127169
0.137447 0.137447 0.137447
0.147725 0.147725 0.147725
0.158003 0.158003 0.158003
0.168281 0.168281 0.168281
0.178559 0.178559 0.178559
0.188838 0.188838 0.188838
0.199116 0.199116 0.199116
0.209394 0.209394 0.209394
0.219672 0.219672 0.219672
0.229950 0.229950 0.229950
0.240228 0.240228 0.240228
0.250506 0.250506 0.250506
0.260784 0.260784 0.260784
0.271063 0.271063 0.271063
0.281341 0.281341 0.281341
0.291619 0.291619 0.291619
0.301897 0.301897 0.301897
0.312175 0.312175 0.312175
0.322453 0.322453 0.322453
0.332731 0.332731 0.332731
0.343009 0.343009 0.343009
0.353288 0.353288 0.353288
0.363566 0.363566 0.363566
0.373844 0.373844 0.373844
0.384122 0.384122 0.384122
0.394400 0.394400 0.394400
0.404678 0.404678 0.404678
0.414956 0.414956 0.414956
0.425234 0.425234 0.425234
0.435512 0.435512 0.435512
0.445791 0.445791 0.445791
0.137069 0.137069 0.137069
0.147347 0.147347 0.147347
0.157625 0.157625 0.157625
0.167903 0.167903 0.167903
0.178181 0.178181 0.178181
0.188459 0.188459 0.188459
0.198737 0.198737 0.198737
0.209016 0.209016 0.209016
0.219294 0.219294 0.219294
0.229572 0.229572 0.229572
0.239850 0.239850 0.239850
0.250128 0.250128 0.250128
0.260406 0.260406 0.260406
0.270684 0.270684 0.270684
0.280962 0.280962 0.280962
0.291241 0.291241 0.291241
0.301519 0.301519 0.301519
0.311797 0.311797 0.311797
0.322075 0.322075 0.322075
0.332353 0.332353 0.332353
0.342631 0.342631 0.342631
0.352909 0.352909 0.352909
0.363187 0.363187 0.363187
0.373466 0.373466 0.373466
0.383744 0.383744 0.383744
0.394022 0.394022 0.394022
0.404300 0.404300 0.404300
0.414578 0.414578 0.414578
0.424856 0.424856 0.424856
0.435134 0.435134 0.435134
0.445413 0.445413 0.445413
0.455691 0.455691 0.455691
0.465969 0.465969 0.465969
0.157247 0.157247 0.157247
0.167525 0.167525 0.167525
0.177803 0.177803 0.177803
0.188081 0.188081 0.188081
0.198359 0.198359 0.198359
0.208637 0.208637 0.208637
0.218916 0.218916 0.218916
0.229194 0.229194 0.229194
0.239472 0.239472 0.239472
0.249750 0.249750 0.249750
0.260028 0.260028 0.260028
0.270306 0.270306 0.270306
0.280584 0.280584 0.280584
0.290863 0.290863 0.290863
0.301141 0.301141 0.301141
0.311419 0.311419 0.311419
0.321697 0.321697 0.321697
0.331975 0.331975 0.331975
0.342253 0.342253 0.342253
0.352531 0.352531 0.352531
0.362809 0.362809 0.362809
0.373087 0.373087 0.373087
0.383366 0.383366 0.383366
0.393644 0.393644 0.393644
0.403922 0.403922 0.403922
0.414200 0.414200 0.414200
0.424478 0.424478 0.424478
0.434756 0.434756 0.434756
0.445034 0.445034 0.445034
0.455313 0.455313 0.455313
0.465591 0.465591 0.465591
0.475869 0.475869 0.475869
0.486147 0.486147 0.486147
0.177425 0.177425 0.177425
0.187703 0.187703 0.187703
0.197981 0.197981 0.197981
0.208259 0.208259 0.208259
0.218538 0.218538 0.218538
0.228816 0.228816 0.228816
0.239094 0.239094 0.239094
0.249372 0.249372 0.249372
0.259650 0.259650 0.259650
0.269928 0.269928 0.269928
0.280206 0.280206 0.280206
0.290484 0.290484 0.290484
0.300763 0.300763 0.300763
0.311041 0.311041 0.311041
0.321319 0.321319 0.321319
0.331597 0.331597 0.331597
0.341875 0.341875 0.341875
0.352153 0.352153 0.352153
0.362431 0.362431 0.362431
0.372709 0.372709 0.372709
0.382988 0.382988 0.382988
0.393266 0.393266 0.393266
0.403544 0.403544 0.403544
0.413822 0.413822 0.413822
0.424100 0.424100 0.424100
0.434378 0.434378 0.434378
0.444656 0.444656 0.444656
0.454934 0.454934 0.454934
0.465213 0.465213 0.465213
0.475491 0.475491 0.475491
0.485769 0.485769 0.485769
0.496047 0.496047 0.496047
0.506325 0.506325 0.506325
0.197603 0.197603 0.197603
0.207881 0.207881 0.207881
0.218159 0.218159 0.218159
0.228438 0.228438 0.228438
0.238716 0.238716 0.238716
0.248994 0.248994 0.248994
0.259272 0.259272 0.259272
0.269550 0.269550 0.269550
0.279828 0.279828 0.279828
0.290106 0.290106 0.290106
0.300384 0.300384 0.300384
0.310663 0.310663 0.310663
0.320941 0.320941 0.320941
0.331219 0.331219 0.331219
0.341497 0.341497 0.341497
0.351775 0.351775 0.351775
0.362053 0.362053 0.362053
0.372331 0.372331 0.372331
0.382609 0.382609 0.382609
0.392888 0.392888 0.392888
0.403166 0.403166 0.403166
0.413444 0.413444 0.413444
0.423722 0.423722 0.423722
0.434000 0.434000 0.434000
0.444278 0.444278 0.444278
0.454556 0.454556 0.454556
0.464834 0.464834 0.464834
0.475113 0.475113 0.475113
0.485391 0.485391 0.485391
0.495669 0.495669 0.495669
0.505947 0.505947 0.505947
0.516225 0.516225 0.516225
0.526503 0.526503 0.526503
0.217781 0.217781 0.217781
0.228059 0.228059 0.228059
0.238338 0.238338 0.238338
0.248616 0.248616 0.248616
0.258894 0.258894 0.258894
0.269172 0.269172 0.269172
0.279450 0.279450 0.279450
0.289728 0.289728 0.289728
0.300006 0.300006 0.300006
0.310284 0.310284 0.310284
0.320563 0.320563 0.320563
0.330841 0.330841 0.330841
0.341119 0.341119 0.341119
0.351397 0.351397 0.351397
0.361675 0.361675 0.361675
0.371953 0.371953 0.371953
0.382231 0.382231 0.382231
0.392509 0.392509 0.392509
0.402788 0.402788 0.402788
0.413066 0.413066 0.413066
0.423344 0.423344 0.423344
0.433622 0.433622 0.433622
0.443900 0.443900 0.443900
0.454178 0.454178 0.454178
0.464456 0.464456 0.464456
0.474734 0.474734 0.474734
0.485012 0.485012 0.485012
0.495291 0.495291 0.495291
0.505569 0.505569 0.505569
0.515847 0.515847 0.515847
0.526125 0.526125 0.526125
0.536403 0.536403 0.536403
0.546681 0.546681 0.546681
0.237959 0.237959 0.237959
0.248237 0.248237 0.248237
0.258516 0.258516 0.258516
0.268794 0.268794 0.268794
0.279072 0.279072 0.279072
0.289350 0.289350 0.289350
0.299628 0.299628 0.299628
0.309906 0.309906 0.309906
0.320184 0.320184 0.320184
0.330462 0.330462 0.330462
0.340741 0.340741 0.340741
0.351019 0.351019 0.351019
0.361297 0.361297 0.361297
0.371575 0.371575 0.371575
0.381853 0.381853 0.381853
0.392131 0.392131 0.392131
0.402409 0.402409 0.402409
0.412687 0.412687 0.412687
0.422966 0.422966 0.422966
0.433244 0.433244 0.433244
0.443522 0.443522 0.443522
0.453800 0.453800 0.453800
0.464078 0.464078 0.464078
0.474356 0.474356 0.474356
0.484634 0.484634 0.484634
0.494913 0.494913 0.494913
0.505191 0.505191 0.505191
0.515469 0.515469 0.515469
0.525747 0.525747 0.525747
0.536025 0.536025 0.536025
0.546303 0.546303 0.546303
0.556581 0.556581 0.556581
0.566859 0.566859 0.566859
0.258137 0.258137 0.258137
0.268416 0.268416 0.268416
0.278694 0.278694 0.278694
0.288972 0.288972 0.288972
0.299250 0.299250 0.299250
0.309528 0.309528 0.309528
0.319806 0.319806 0.319806
0.330084 0.330084 0.330084
0.340363 0.340363 0.340363
0.350641 0.350641 0.350641
0.360919 0.360919 0.360919
0.371197 0.371197 0.371197
0.381475 0.381475 0.381475
0.391753 0.391753 0.391753
0.402031 0.402031 0.402031
0.412309 0.412309 0.412309
0.422587 0.422587 0.422587
0.432866 0.432866 0.432866
0.443144 0.443144 0.443144
0.453422 0.453422 0.453422
0.463700 0.463700 0.463700
0.473978 0.473978 0.473978
0.484256 0.484256 0.484256
0.494534 0.494534 0.494534
0.504813 0.504813 0.504813
0.515091 0.515091 0.515091
0.525369 0.525369 0.525369
0.535647 0.535647 0.535647
0.545925 0.545925 0.545925
0.556203 0.556203 0.556203
0.566481 0.566481 0.566481
0.576759 0.576759 0.576759
0.587037 0.587037 0.587037
0.278316 0.278316 0.278316
0.288594 0.288594 0.288594
0.298872 0.298872 0.298872
0.309150 0.309150 0.309150
0.319428 0.319428 0.319428
0.329706 0.329706 0.329706
0.339984 0.339984 0.339984
0.350263 0.350263 0.350263
0.360541 0.360541 0.360541
0.370819 0.370819 0.370819
0.381097 0.381097 0.381097
0.391375 0.391375 0.391375
0.401653 0.401653 0.401653
0.411931 0.411931 0.411931
0.422209 0.422209 0.422209
0.432488 0.432488 0.432488
0.442766 0.442766 0.442766
0.453044 0.453044 0.453044
0.463322 0.463322 0.463322
0.473600 0.473600 0.473600
0.483878 0.483878 0.483878
0.494156 0.494156 0.494156
0.504434 0.504434 0.504434
0.514713 0.514713 0.514713
0.524991 0.524991 0.524991
0.535269 0.535269 0.535269
0.545547 0.545547 0.545547
0.555825 0.555825 0.555825
0.566103 0.566103 0.566103
0.576381 0.576381 0.576381
0.586659 0.586659 0.586659
0.596938 0.596938 0.596938
0.607216 0.607216 0.607216
0.298494 0.298494 0.298494
0.308772 0.308772 0.308772
0.319050 0.319050 0.319050
0.329328 0.329328 0.329328
0.339606 0.339606 0.339606
0.349884 0.349884 0.349884
0.360162 0.360162 0.360162
0.370441 0.370441 0.370441
0.380719 0.380719 0.380719
0.390997 0.390997 0.390997
0.401275 0.401275 0.401275
0.411553 0.411553 0.411553
0.421831 0.421831 0.421831
0.432109 0.432109 0.432109
0.442387 0.442387 0.442387
0.452666 0.452666 0.452666
0.462944 0.462944 0.462944
0.473222 0.473222 0.473222
0.483500 0.483500 0.483500
0.493778 0.493778 0.493778
0.504056 0.504056 0.504056
0.514334 0.514334 0.514334
0.524612 0.524612 0.524612
0.534891 0.534891 0.534891
0.545169 0.545169 0.545169
0.555447 0.555447 0.555447
0.565725 0.565725 0.565725
0.576003 0.576003 0.576003
0.586281 0.586281 0.586281
0.596559 0.596559 0.596559
0.606838 0.606838 0.606838
0.617116 0.617116 0.617116
0.627394 0.627394 0.627394
0.318672 0.318672 0.318672
0.328950 0.328950 0.328950
0.339228 0.339228 0.339228
0.349506 0.349506 0.349506
0.359784 0.359784 0.359784
0.370063 0.370063 0.370063
0.380341 0.380341 0.380341
0.390619 0.390619 0.390619
0.400897 0.400897 0.400897
0.411175 0.411175 0.411175
0.421453 0.421453 0.421453
0.431731 0.431731 0.431731
0.442009 0.442009 0.442009
0.452288 0.452288 0.452288
0.462566 0.462566 0.462566
0.472844 0.472844 0.472844
0.483122 0.483122 0.483122
0.493400 0.493400 0.493400
0.503678 0.503678 0.503678
0.513956 0.513956 0.513956
0.524234 0.524234 0.524234
0.534513 0.534513 0.534513
0.544791 0.544791 0.544791
0.555069 0.555069 0.555069
0.565347 0.565347 0.565347
0.575625 0.575625 0.575625
0.585903 0.585903 0.585903
0.596181 0.596181 0.596181
0.606459 0.606459 0.606459
0.616738 0.616738 0.616738
0.627016 0.627016 0.627016
0.637294 0.637294 0.637294
0.647572 0.647572 0.647572
0.338850 0.338850 0.338850
0.349128 0.349128 0.349128
0.359406 0.359406 0.359406
0.369684 0.369684 0.369684
0.379962 0.379962 0.379962
0.390241 0.390241 0.390241
0.400519 0.400519 0.400519
0.410797 0.410797 0.410797
0.421075 0.421075 0.421075
0.431353 0.431353 0.431353
0.441631 0.441631 0.441631
0.451909 0.451909 0.451909
0.462187 0.462187 0.462187
0.472466 0.472466 0.472466
0.482744 0.482744 0.482744
0.493022 0.493022 0.493022
0.503300 0.503300 0.503300
0.513578 0.513578 0.513578
0.523856 0.523856 0.523856
0.534134 0.534134 0.534134
0.544413 0.544413 0.544413
0.554691 0.554691 0.554691
0.564969 0.564969 0.564969
0.575247 0.575247 0.575247
0.585525 0.585525 0.585525
0.595803 0.595803 0.595803
0.606081 0.606081 0.606081
0.616359 0.616359 0.616359
0.626637 0.626637 0.626637
0.636916 0.636916 0.636916
0.647194 0.647194 0.647194
0.657472 0.657472 0.657472
0.667750 0.667750 0.667750
0.359028 0.359028 0.359028
0.369306 0.369306 0.369306
0.379584 0.379584 0.379584
0.389863 0.389863 0.389863
0.400141 0.400141 0.400141
0.410419 0.410419 0.410419
0.420697 0.420697 0.420697
0.430975 0.430975 0.430975
0.441253 0.441253 0.441253
0.451531 0.451531 0.451531
0.461809 0.461809 0.461809
0.472087 0.472087 0.472087
0.482366 0.482366 0.482366
0.492644 0.492644 0.492644
0.502922 0.502922 0.502922
0.513200 0.513200 0.513200
0.523478 0.523478 0.523478
0.533756 0.533756 0.533756
0.544034 0.544034 0.544034
0.554313 0.554313 0.554313
0.564591 0.564591 0.564591
0.574869 0.574869 0.574869
0.585147 0.585147 0.585147
0.595425 0.595425 0.595425
0.605703 0.605703 0.605703
0.615981 0.615981 0.615981
0.626259 0.626259 0.626259
0.636538 0.636538 0.636538
0.646816 0.646816 0.646816
0.657094 0.657094 0.657094
0.667372 0.667372 0.667372
0.677650 0.677650 0.677650
0.687928 0.687928 0.687928
0.379206 0.379206 0.379206
0.389484 0.389484 0.389484
0.399763 0.399763 0.399763
0.410041 0.410041 0.410041
0.420319 0.420319 0.420319
0.430597 0.430597 0.430597
0.440875 0.440875 0.440875
0.451153 0.451153 0.451153
0.461431 0.461431 0.461431
0.471709 0.471709 0.471709
0.481988 0.481988 0.481988
0.492266 0.492266 0.492266
0.502544 0.502544 0.502544
0.512822 0.512822 0.512822
0.523100 0.523100 0.523100
0.533378 0.533378 0.533378
0.543656 0.543656 0.543656
0.553934 0.553934 0.553934
0.564213 0.564213 0.564213
0.574491 0.574491 0.574491
0.584769 0.584769 0.584769
0.595047 0.595047 0.595047
0.605325 0.605325 0.605325
0.615603 0.615603 0.615603
0.625881 0.625881 0.625881
0.636159 0.636159 0.636159
0.646438 0.646438 0.646438
0.656716 0.656716 0.656716
0.666994 0.666994 0.666994
0.677272 0.677272 0.677272
0.687550 0.687550 0.687550
0.697828 0.697828 0.697828
0.708106 0.708106 0.708106
0.399384 0.399384 0.399384
0.409663 0.409663 0.409663
0.419941 0.419941 0.419941
0.430219 0.430219 0.430219
0.440497 0.440497 0.440497
0.450775 0.450775 0.450775
0.461053 0.461053 0.461053
0.471331 0.471331 0.471331
0.481609 0.481609 0.481609
0.491888 0.491888 0.491888
0.502166 0.502166 0.502166
0.512444 0.512444 0.512444
0.522722 0.522722 0.522722
0.533000 0.533000 0.533000
0.543278 0.543278 0.543278
0.553556 0.553556 0.553556
0.563834 0.563834 0.563834
0.574113 0.574113 0.574113
0.584391 0.584391 0.584391
0.594669 0.594669 0.594669
0.604947 0.604947 0.604947
0.615225 0.615225 0.615225
0.625503 0.625503 0.625503
0.635781 0.635781 0.635781
0.646059 0.646059 0.646059
0.656338 0.656338 0.656338
0.666616 0.666616 0.666616
0.676894 0.676894 0.676894
0.687172 0.687172 0.687172
0.697450 0.697450 0.697450
0.707728 0.707728 0.707728
0.718006 0.718006 0.718006
0.728284 0.728284 0.728284
0.419563 0.419563 0.419563
0.429841 0.429841 0.429841
0.440119 0.440119 0.440119
0.450397 0.450397 0.450397
0.460675 0.460675 0.460675
0.470953 0.470953 0.470953
0.481231 0.481231 0.481231
0.491509 0.491509 0.491509
0.501788 0.501788 0.501788
0.512066 0.512066 0.512066
0.522344 0.522344 0.522344
0.532622 0.532622 0.532622
0.542900 0.542900 0.542900
0.553178 0.553178 0.553178
0.563456 0.563456 0.563456
0.573734 0.573734 0.573734
0.584013 0.584013 0.584013
0.594291 0.594291 0.594291
0.604569 0.604569 0.604569
0.614847 0.614847 0.614847
0.625125 0.625125 0.625125
0.635403 0.635403 0.635403
0.645681 0.645681 0.645681
0.655959 0.655959 0.655959
0.666238 0.666238 0.666238
0.676516 0.676516 0.676516
0.686794 0.686794 0.686794
0.697072 0.697072 0.697072
0.707350 0.707350 0.707350
0.717628 0.717628 0.717628
0.727906 0.727906 0.727906
0.738184 0.738184 0.738184
0.748463 0.748463 0.748463
0.439741 0.439741 0.439741
0.450019 0.450019 0.450019
0.460297 0.460297 0.460297
0.470575 0.470575 0.470575
0.480853 0.480853 0.480853
0.491131 0.491131 0.491131
0.501409 0.501409 0.501409
0.511687 0.511687 0.511687
0.521966 0.521966 0.521966
0.532244 0.532244 0.532244
0.542522 0.542522 0.542522
0.552800 0.552800 0.552800
0.563078 0.563078 0.563078
0.573356 0.573356 0.573356
0.583634 0.583634 0.583634
0.593913 0.593913 0.593913
0.604191 0.604191 0.604191
0.614469 0.614469 0.614469
0.624747 0.624747 0.624747
0.635025 0.635025 0.635025
0.645303 0.645303 0.645303
0.655581 0.655581 0.655581
0.665859 0.665859 0.665859
0.676137 0.676137 0.676137
0.686416 0.686416 0.686416
0.696694 0.696694 0.696694
0.706972 0.706972 0.706972
0.717250 0.717250 0.717250
0.727528 0.727528 0.727528
0.737806 0.737806 0.737806
0.748084 0.748084 0.748084
0.758362 0.758362 0.758362
0.768641 0.768641 0.768641
0.459919 0.459919 0.459919
0.470197 0.470197 0.470197
0.480475 0.480475 0.480475
0.490753 0.490753 0.490753
0.501031 0.501031 0.501031
0.511309 0.511309 0.511309
0.521587 0.521587 0.521587
0.531866 0.531866 0.531866
0.542144 0.542144 0.542144
0.552422 0.552422 0.552422
0.562700 0.562700 0.562700
0.572978 0.572978 0.572978
0.583256 0.583256 0.583256
0.593534 0.593534 0.593534
0.603812 0.603812 0.603812
0.614091 0.614091 0.614091
0.624369 0.624369 0.624369
0.634647 0.634647 0.634647
0.644925 0.644925 0.644925
0.655203 0.655203 0.655203
0.665481 0.665481 0.665481
0.675759 0.675759 0.675759
0.686037 0.686037 0.686037
0.696316 0.696316 0.696316
0.706594 0.706594 0.706594
0.716872 0.716872 0.716872
0.727150 0.727150 0.727150
0.737428 0.737428 0.737428
0.747706 0.747706 0.747706
0.757984 0.757984 0.757984
0.768263 0.768263 0.768263
0.778541 0.778541 0.778541
0.788819 0.788819 0.788819
0.480097 0.480097 0.480097
0.490375 0.490375 0.490375
0.500653 0.500653 0.500653
0.510931 0.510931 0.510931
0.521209 0.521209 0.521209
0.531488 0.531488 0.531488
0.541766 0.541766 0.541766
0.552044 0.552044 0.552044
0.562322 0.562322 0.562322
0.572600 0.572600 0.572600
0.582878 0.582878 0.582878
0.593156 0.593156 0.593156
0.603434 0.603434 0.603434
0.613713 0.613713 0.613713
0.623991 0.623991 0.623991
0.634269 0.634269 0.634269
0.644547 0.644547 0.644547
0.654825 0.654825 0.654825
0.665103 0.665103 0.665103
0.675381 0.675381 0.675381
0.685659 0.685659 0.685659
0.695938 0.695938 0.695938
0.706216 0.706216 0.706216
0.716494 0.716494 0.716494
0.726772 0.726772 0.726772
0.737050 0.737050 0.737050
0.747328 0.747328 0.747328
0.757606 0.757606 0.757606
0.767884 0.767884 0.767884
0.778163 0.778163 0.778163
0.788441 0.788441 0.788441
0.798719 0.798719 0.798719
0.808997 0.808997 0.808997
0.500275 0.500275 0.500275
0.510553 0.510553 0.510553
0.520831 0.520831 0.520831
0.531109 0.531109 0.531109
0.541388 0.541388 0.541388
0.551666 0.551666 0.551666
0.561944 0.561944 0.561944
0.572222 0.572222 0.572222
0.582500 0.582500 0.582500
0.592778 0.592778 0.592778
0.603056 0.603056 0.603056
0.613334 0.613334 0.613334
0.623613 0.623613 0.623613
0.633891 0.633891 0.633891
0.644169 0.644169 0.644169
0.654447 0.654447 0.654447
0.664725 0.664725 0.664725
0.675003 0.675003 0.675003
0.685281 0.685281 0.685281
0.695559 0.695559 0.695559
0.705838 0.705838 0.705838
0.716116 0.716116 0.716116
0.726394 0.726394 0.726394
0.736672 0.736672 0.736672
0.746950 0.746950 0.746950
0.757228 0.757228 0.757228
0.767506 0.767506 0.767506
0.777784 0.777784 0.777784
0.788063 0.788063 0.788063
0.798341 0.798341 0.798341
0.808619 0.808619 0.808619
0.818897 0.818897 0.818897
0.829175 0.829175 0.829175
0.520453 0.520453 0.520453
0.530731 0.530731 0.530731
0.541009 0.541009 0.541009
0.551288 0.551288 0.551288
0.561566 0.561566 0.561566
0.571844 0.571844 0.571844
0.582122 0.582122 0.582122
0.592400 0.592400 0.592400
0.602678 0.602678 0.602678
0.612956 0.612956 0.612956
0.623234 0.623234 0.623234
0.633513 0.633513 0.633513
0.643791 0.643791 0.643791
0.654069 0.654069 0.654069
0.664347 0.664347 0.664347
0.674625 0.674625 0.674625
0.684903 0.684903 0.684903
0.695181 0.695181 0.695181
0.705459 0.705459 0.705459
0.715738 0.715738 0.715738
0.726016 0.726016 0.726016
0.736294 0.736294 0.736294
0.746572 0.746572 0.746572
0.756850 0.756850 0.756850
0.767128 0.767128 0.767128
0.777406 0.777406 0.777406
0.787684 0.787684 0.787684
0.797963 0.797963 0.797963
0.808241 0.808241 0.808241
0.818519 0.818519 0.818519
0.828797 0.828797 0.828797
0.839075 0.839075 0.839075
0.849353 0.849353 0.849353
0.540631 0.540631 0.540631
0.550909 0.550909 0.550909
0.561187 0.561187 0.561187
0.571466 0.571466 0.571466
0.581744 0.581744 0.581744
0.592022 0.592022 0.592022
0.602300 0.602300 0.602300
0.612578 0.612578 0.612578
0.622856 0.622856 0.622856
0.633134 0.633134 0.633134
0.643412 0.643412 0.643412
0.653691 0.653691 0.653691
0.663969 0.663969 0.663969
0.674247 0.674247 0.674247
0.684525 0.684525 0.684525
0.694803 0.694803 0.694803
0.705081 0.705081 0.705081
0.715359 0.715359 0.715359
0.725637 0.725637 0.725637
0.735916 0.735916 0.735916
0.746194 0.746194 0.746194
0.756472 0.756472 0.756472
0.766750 0.766750 0.766750
0.777028 0.777028 0.777028
0.787306 0.787306 0.787306
0.797584 0.797584 0.797584
0.807862 0.807862 0.807862
0.818141 0.818141 0.818141
0.828419 0.828419 0.828419
