assets/luts/primelive_amb_night_lamp.cube
TITLE "primelive Night Lamp"
LUT_3D_SIZE 33
DOMAIN_MIN 0.0 0.0 0.0
DOMAIN_MAX 1.0 1.0 1.0
0.000000 0.000000 0.020000
0.000000 0.000010 0.019990
0.031106 0.000152 0.019848
0.065113 0.000296 0.019704
0.099357 0.000440 0.019560
0.133778 0.000585 0.019415
0.168341 0.000731 0.019269
0.203022 0.000877 0.019123
0.237805 0.001024 0.018976
0.272677 0.001171 0.018829
0.307628 0.001318 0.018682
0.342651 0.001466 0.018534
0.377738 0.001614 0.018386
0.412886 0.001762 0.018238
0.448089 0.001910 0.018090
0.483343 0.002059 0.017941
0.518645 0.002208 0.017792
0.553993 0.002357 0.017643
0.589383 0.002506 0.017494
0.624813 0.002655 0.017345
0.660281 0.002805 0.017195
0.695785 0.002955 0.017045
0.731324 0.003104 0.016896
0.766896 0.003254 0.016746
0.802499 0.003405 0.016595
0.838133 0.003555 0.016445
0.873796 0.003705 0.016295
0.909487 0.003856 0.016144
0.945205 0.004006 0.015994
0.980949 0.004157 0.015843
1.000000 0.004252 0.015748
1.000000 0.004252 0.015748
1.000000 0.004252 0.015748
0.000000 0.000875 0.019988
0.000000 0.000886 0.019977
0.031130 0.001028 0.019835
0.065138 0.001171 0.019692
0.099382 0.001315 0.019548
0.133803 0.001460 0.019403
0.168366 0.001606 0.019257
0.203047 0.001752 0.019111
0.237830 0.001899 0.018964
0.272702 0.002046 0.018817
0.307653 0.002193 0.018670
0.342675 0.002341 0.018522
0.377763 0.002489 0.018374
0.412911 0.002637 0.018226
0.448114 0.002786 0.018077
0.483368 0.002934 0.017929
0.518670 0.003083 0.017780
0.554017 0.003232 0.017631
0.589407 0.003381 0.017482
0.624837 0.003531 0.017332
0.660305 0.003680 0.017183
0.695810 0.003830 0.017033
0.731349 0.003980 0.016883
0.766921 0.004130 0.016733
0.802524 0.004280 0.016583
0.838158 0.004430 0.016433
0.873821 0.004581 0.016283
0.909511 0.004731 0.016132
0.945229 0.004882 0.015981
0.980973 0.005032 0.015831
1.000000 0.005127 0.015736
1.000000 0.005127 0.015736
1.000000 0.005127 0.015736
0.000000 0.033072 0.019534
0.000000 0.033082 0.019523
0.032038 0.033224 0.019381
0.066046 0.033367 0.019238
0.100290 0.033512 0.019094
0.134711 0.033657 0.018949
0.169274 0.033803 0.018803
0.203955 0.033949 0.018657
0.238738 0.034096 0.018510
0.273610 0.034243 0.018363
0.308561 0.034390 0.018216
0.343583 0.034538 0.018068
0.378671 0.034685 0.017920
0.413819 0.034834 0.017772
0.449022 0.034982 0.017623
0.484276 0.035131 0.017475
0.519578 0.035280 0.017326
0.554926 0.035429 0.017177
0.590315 0.035578 0.017028
0.625745 0.035727 0.016878
0.661214 0.035877 0.016729
0.696718 0.036026 0.016579
0.732257 0.036176 0.016429
0.767829 0.036326 0.016279
0.803432 0.036476 0.016129
0.839066 0.036627 0.015979
0.874729 0.036777 0.015828
0.910420 0.036927 0.015678
0.946137 0.037078 0.015527
0.981881 0.037229 0.015377
1.000000 0.037324 0.015282
1.000000 0.037324 0.015282
1.000000 0.037324 0.015282
0.000000 0.065614 0.019075
0.000000 0.065624 0.019064
0.032956 0.065766 0.018922
0.066964 0.065909 0.018779
0.101208 0.066054 0.018635
0.135629 0.066199 0.018490
0.170192 0.066345 0.018344
0.204873 0.066491 0.018198
0.239656 0.066637 0.018051
0.274527 0.066784 0.017904
0.309479 0.066932 0.017757
0.344501 0.067079 0.017609
0.379589 0.067227 0.017461
0.414737 0.067376 0.017313
0.449939 0.067524 0.017164
0.485194 0.067673 0.017016
0.520496 0.067822 0.016867
0.555843 0.067971 0.016718
0.591233 0.068120 0.016569
0.626663 0.068269 0.016419
0.662131 0.068419 0.016270
0.697636 0.068568 0.016120
0.733175 0.068718 0.015970
0.768746 0.068868 0.015820
0.804350 0.069018 0.015670
0.839984 0.069169 0.015520
0.875646 0.069319 0.015370
0.911337 0.069469 0.015219
0.947055 0.069620 0.015068
0.982799 0.069771 0.014918
1.000000 0.069866 0.014823
1.000000 0.069866 0.014823
1.000000 0.069866 0.014823
0.000000 0.098382 0.018613
0.000234 0.098392 0.018602
0.033880 0.098534 0.018460
0.067888 0.098678 0.018317
0.102132 0.098822 0.018173
0.136553 0.098967 0.018027
0.171116 0.099113 0.017882
0.205797 0.099259 0.017736
0.240580 0.099406 0.017589
0.275452 0.099553 0.017442
0.310403 0.099700 0.017295
0.345425 0.099848 0.017147
0.380513 0.099996 0.016999
0.415661 0.100144 0.016851
0.450864 0.100292 0.016702
0.486118 0.100441 0.016554
0.521420 0.100590 0.016405
0.556768 0.100739 0.016256
0.592157 0.100888 0.016107
0.627587 0.101037 0.015957
0.663056 0.101187 0.015808
0.698560 0.101337 0.015658
0.734099 0.101487 0.015508
0.769671 0.101637 0.015358
0.805274 0.101787 0.015208
0.840908 0.101937 0.015058
0.876571 0.102087 0.014907
0.912262 0.102238 0.014757
0.947979 0.102388 0.014606
0.983723 0.102539 0.014456
1.000000 0.102634 0.014361
1.000000 0.102634 0.014361
1.000000 0.102634 0.014361
0.000000 0.131320 0.018148
0.001163 0.131330 0.018138
0.034809 0.131472 0.017996
0.068817 0.131615 0.017852
0.103061 0.131760 0.017708
0.137482 0.131905 0.017563
0.172045 0.132051 0.017417
0.206726 0.132197 0.017271
0.241509 0.132343 0.017124
0.276381 0.132491 0.016977
0.311332 0.132638 0.016830
0.346354 0.132786 0.016682
0.381442 0.132933 0.016534
0.416590 0.133082 0.016386
0.451793 0.133230 0.016238
0.487047 0.133379 0.016089
0.522349 0.133528 0.015940
0.557697 0.133677 0.015791
0.593086 0.133826 0.015642
0.628516 0.133975 0.015493
0.663985 0.134125 0.015343
0.699489 0.134274 0.015193
0.735028 0.134424 0.015044
0.770600 0.134574 0.014894
0.806203 0.134724 0.014744
0.841837 0.134875 0.014593
0.877500 0.135025 0.014443
0.913191 0.135175 0.014292
0.948908 0.135326 0.014142
0.984652 0.135477 0.013991
1.000000 0.135572 0.013896
1.000000 0.135572 0.013896
1.000000 0.135572 0.013896
0.000000 0.164393 0.017682
0.002096 0.164404 0.017671
0.035742 0.164545 0.017529
0.069750 0.164689 0.017386
0.103994 0.164833 0.017242
0.138415 0.164978 0.017097
0.172978 0.165124 0.016951
0.207659 0.165270 0.016805
0.242442 0.165417 0.016658
0.277313 0.165564 0.016511
0.312265 0.165711 0.016364
0.347287 0.165859 0.016216
0.382375 0.166007 0.016068
0.417523 0.166155 0.015920
0.452725 0.166303 0.015771
0.487980 0.166452 0.015623
0.523282 0.166601 0.015474
0.558629 0.166750 0.015325
0.594019 0.166899 0.015176
0.629449 0.167049 0.015026
0.664917 0.167198 0.014877
0.700422 0.167348 0.014727
0.735961 0.167498 0.014577
0.771532 0.167648 0.014427
0.807136 0.167798 0.014277
0.842770 0.167948 0.014127
0.878433 0.168098 0.013977
0.914123 0.168249 0.013826
0.949841 0.168399 0.013675
0.985585 0.168550 0.013525
1.000000 0.168645 0.013430
1.000000 0.168645 0.013430
1.000000 0.168645 0.013430
0.000573 0.197580 0.017214
0.003032 0.197590 0.017203
0.036678 0.197732 0.017061
0.070686 0.197875 0.016918
0.104930 0.198020 0.016774
0.139351 0.198165 0.016629
0.173914 0.198311 0.016483
0.208595 0.198457 0.016337
0.243378 0.198603 0.016190
0.278249 0.198750 0.016043
0.313201 0.198898 0.015896
0.348223 0.199045 0.015748
0.383311 0.199193 0.015600
0.418459 0.199342 0.015452
0.453661 0.199490 0.015303
0.488916 0.199639 0.015155
0.524218 0.199787 0.015006
0.559565 0.199936 0.014857
0.594955 0.200086 0.014708
0.630385 0.200235 0.014558
0.665853 0.200385 0.014409
0.701358 0.200534 0.014259
0.736897 0.200684 0.014109
0.772468 0.200834 0.013959
0.808072 0.200984 0.013809
0.843706 0.201134 0.013659
0.879369 0.201285 0.013509
0.915059 0.201435 0.013358
0.950777 0.201586 0.013207
0.986521 0.201737 0.013057
1.000000 0.201832 0.012962
1.000000 0.201832 0.012962
1.000000 0.201832 0.012962
0.001511 0.230863 0.016744
0.003971 0.230874 0.016734
0.037617 0.231016 0.016592
0.071625 0.231159 0.016449
0.105869 0.231303 0.016304
0.140290 0.231449 0.016159
0.174853 0.231594 0.016013
0.209534 0.231741 0.015867
0.244316 0.231887 0.015721
0.279188 0.232034 0.015574
0.314139 0.232182 0.015426
0.349162 0.232329 0.015279
0.384250 0.232477 0.015131
0.419397 0.232625 0.014982
0.454600 0.232774 0.014834
0.489855 0.232922 0.014685
0.525157 0.233071 0.014537
0.560504 0.233220 0.014388
0.595894 0.233369 0.014238
0.631324 0.233519 0.014089
0.666792 0.233668 0.013939
0.702296 0.233818 0.013790
0.737835 0.233968 0.013640
0.773407 0.234118 0.013490
0.809011 0.234268 0.013340
0.844644 0.234418 0.013190
0.880307 0.234569 0.013039
0.915998 0.234719 0.012889
0.951716 0.234870 0.012738
0.987460 0.235020 0.012587
1.000000 0.235115 0.012492
1.000000 0.235115 0.012492
1.000000 0.235115 0.012492
0.002453 0.264232 0.016274
0.004912 0.264243 0.016263
0.038558 0.264385 0.016121
0.072566 0.264528 0.015978
0.106810 0.264672 0.015834
0.141231 0.264818 0.015689
0.175794 0.264963 0.015543
0.210475 0.265110 0.015397
0.245258 0.265256 0.015250
0.280129 0.265403 0.015103
0.315081 0.265551 0.014956
0.350103 0.265698 0.014808
0.385191 0.265846 0.014660
0.420339 0.265994 0.014512
0.455541 0.266143 0.014363
0.490796 0.266291 0.014215
0.526098 0.266440 0.014066
0.561445 0.266589 0.013917
0.596835 0.266738 0.013768
0.632265 0.266888 0.013618
0.667733 0.267037 0.013469
0.703238 0.267187 0.013319
0.738777 0.267337 0.013169
0.774348 0.267487 0.013019
0.809952 0.267637 0.012869
0.845586 0.267787 0.012719
0.881248 0.267938 0.012569
0.916939 0.268088 0.012418
0.952657 0.268239 0.012268
0.988401 0.268389 0.012117
1.000000 0.268484 0.012022
1.000000 0.268484 0.012022
1.000000 0.268484 0.012022
0.003396 0.297677 0.015802
0.005855 0.297688 0.015792
0.039502 0.297830 0.015650
0.073509 0.297973 0.015506
0.107753 0.298117 0.015362
0.142174 0.298262 0.015217
0.176737 0.298408 0.015071
0.211418 0.298554 0.014925
0.246201 0.298701 0.014778
0.281073 0.298848 0.014631
0.316024 0.298995 0.014484
0.351046 0.299143 0.014336
0.386134 0.299291 0.014188
0.421282 0.299439 0.014040
0.456485 0.299588 0.013892
0.491739 0.299736 0.013743
0.527041 0.299885 0.013594
0.562389 0.300034 0.013445
0.597778 0.300183 0.013296
0.633208 0.300333 0.013147
0.668677 0.300482 0.012997
0.704181 0.300632 0.012847
0.739720 0.300782 0.012698
0.775292 0.300932 0.012548
0.810895 0.301082 0.012398
0.846529 0.301232 0.012247
0.882192 0.301383 0.012097
0.917883 0.301533 0.011946
0.953600 0.301684 0.011796
0.989344 0.301834 0.011645
1.000000 0.301929 0.011550
1.000000 0.301929 0.011550
1.000000 0.301929 0.011550
0.004341 0.331191 0.015329
0.006800 0.331201 0.015319
0.040447 0.331343 0.015177
0.074454 0.331486 0.015034
0.108698 0.331631 0.014889
0.143119 0.331776 0.014744
0.177682 0.331922 0.014599
0.212363 0.332068 0.014452
0.247146 0.332214 0.014306
0.282018 0.332361 0.014159
0.316969 0.332509 0.014011
0.351992 0.332656 0.013864
0.387080 0.332804 0.013716
0.422227 0.332953 0.013568
0.457430 0.333101 0.013419
0.492684 0.333250 0.013271
0.527986 0.333399 0.013122
0.563334 0.333548 0.012973
0.598724 0.333697 0.012823
0.634154 0.333846 0.012674
0.669622 0.333996 0.012525
0.705126 0.334145 0.012375
0.740665 0.334295 0.012225
0.776237 0.334445 0.012075
0.811840 0.334595 0.011925
0.847474 0.334746 0.011775
0.883137 0.334896 0.011624
0.918828 0.335046 0.011474
0.954546 0.335197 0.011323
0.990290 0.335348 0.011173
1.000000 0.335443 0.011077
1.000000 0.335443 0.011077
1.000000 0.335443 0.011077
0.005288 0.364766 0.014856
0.007747 0.364777 0.014846
0.041394 0.364919 0.014704
0.075401 0.365062 0.014560
0.109645 0.365206 0.014416
0.144066 0.365352 0.014271
0.178629 0.365497 0.014125
0.213310 0.365643 0.013979
0.248093 0.365790 0.013832
0.282965 0.365937 0.013685
0.317916 0.366085 0.013538
0.352939 0.366232 0.013390
0.388026 0.366380 0.013242
0.423174 0.366528 0.013094
0.458377 0.366677 0.012946
0.493631 0.366825 0.012797
0.528933 0.366974 0.012648
0.564281 0.367123 0.012499
0.599671 0.367272 0.012350
0.635101 0.367422 0.012201
0.670569 0.367571 0.012051
0.706073 0.367721 0.011901
0.741612 0.367871 0.011752
0.777184 0.368021 0.011602
0.812787 0.368171 0.011451
0.848421 0.368321 0.011301
0.884084 0.368472 0.011151
0.919775 0.368622 0.011000
0.955493 0.368773 0.010850
0.991237 0.368923 0.010699
1.000000 0.369018 0.010604
1.000000 0.369018 0.010604
1.000000 0.369018 0.010604
0.006237 0.398399 0.014382
0.008696 0.398410 0.014371
0.042342 0.398552 0.014229
0.076350 0.398695 0.014086
0.110594 0.398839 0.013942
0.145015 0.398984 0.013797
0.179578 0.399130 0.013651
0.214259 0.399276 0.013505
0.249042 0.399423 0.013358
0.283914 0.399570 0.013211
0.318865 0.399717 0.013064
0.353887 0.399865 0.012916
0.388975 0.400013 0.012768
0.424123 0.400161 0.012620
0.459326 0.400310 0.012471
0.494580 0.400458 0.012323
0.529882 0.400607 0.012174
0.565229 0.400756 0.012025
0.600619 0.400905 0.011876
0.636049 0.401055 0.011726
0.671517 0.401204 0.011577
0.707022 0.401354 0.011427
0.742561 0.401504 0.011277
0.778133 0.401654 0.011127
0.813736 0.401804 0.010977
0.849370 0.401954 0.010827
0.885033 0.402104 0.010677
0.920723 0.402255 0.010526
0.956441 0.402406 0.010375
0.992185 0.402556 0.010225
1.000000 0.402651 0.010130
1.000000 0.402651 0.010130
1.000000 0.402651 0.010130
0.007187 0.432085 0.013907
0.009646 0.432095 0.013896
0.043292 0.432237 0.013754
0.077300 0.432381 0.013611
0.111544 0.432525 0.013467
0.145965 0.432670 0.013322
0.180528 0.432816 0.013176
0.215209 0.432962 0.013030
0.249992 0.433109 0.012883
0.284864 0.433256 0.012736
0.319815 0.433403 0.012589
0.354837 0.433551 0.012441
0.389925 0.433699 0.012293
0.425073 0.433847 0.012145
0.460276 0.433995 0.011996
0.495530 0.434144 0.011848
0.530832 0.434293 0.011699
0.566180 0.434442 0.011550
0.601569 0.434591 0.011401
0.636999 0.434740 0.011251
0.672468 0.434890 0.011102
0.707972 0.435040 0.010952
0.743511 0.435190 0.010802
0.779083 0.435340 0.010652
0.814686 0.435490 0.010502
0.850320 0.435640 0.010352
0.885983 0.435790 0.010201
0.921674 0.435941 0.010051
0.957391 0.436091 0.009900
0.993135 0.436242 0.009750
1.000000 0.436337 0.009655
1.000000 0.436337 0.009655
1.000000 0.436337 0.009655
0.008138 0.465820 0.013431
0.010597 0.465830 0.013421
0.044244 0.465972 0.013279
0.078251 0.466116 0.013135
0.112495 0.466260 0.012991
0.146917 0.466405 0.012846
0.181479 0.466551 0.012700
0.216161 0.466697 0.012554
0.250943 0.466844 0.012407
0.285815 0.466991 0.012260
0.320766 0.467138 0.012113
0.355789 0.467286 0.011965
0.390877 0.467434 0.011817
0.426024 0.467582 0.011669
0.461227 0.467730 0.011521
0.496481 0.467879 0.011372
0.531784 0.468028 0.011223
0.567131 0.468177 0.011074
0.602521 0.468326 0.010925
0.637951 0.468475 0.010775
0.673419 0.468625 0.010626
0.708923 0.468775 0.010476
0.744462 0.468925 0.010326
0.780034 0.469074 0.010176
0.815638 0.469225 0.010026
0.851271 0.469375 0.009876
0.886934 0.469525 0.009726
0.922625 0.469676 0.009575
0.958343 0.469826 0.009425
0.994087 0.469977 0.009274
1.000000 0.470072 0.009179
1.000000 0.470072 0.009179
1.000000 0.470072 0.009179
0.009091 0.499601 0.012954
0.011550 0.499611 0.012944
0.045197 0.499753 0.012802
0.079204 0.499897 0.012659
0.113448 0.500041 0.012515
0.147869 0.500186 0.012369
0.182432 0.500332 0.012224
0.217113 0.500478 0.012077
0.251896 0.500625 0.011931
0.286768 0.500772 0.011784
0.321719 0.500919 0.011636
0.356742 0.501067 0.011489
0.391829 0.501215 0.011341
0.426977 0.501363 0.011193
0.462180 0.501511 0.011044
0.497434 0.501660 0.010896
0.532736 0.501809 0.010747
0.568084 0.501958 0.010598
0.603474 0.502107 0.010448
0.638904 0.502256 0.010299
0.674372 0.502406 0.010150
0.709876 0.502556 0.010000
0.745415 0.502705 0.009850
0.780987 0.502855 0.009700
0.816590 0.503006 0.009550
0.852224 0.503156 0.009400
0.887887 0.503306 0.009249
0.923578 0.503457 0.009099
0.959296 0.503607 0.008948
0.995040 0.503758 0.008798
1.000000 0.503853 0.008702
1.000000 0.503853 0.008702
1.000000 0.503853 0.008702
0.010045 0.533425 0.012477
0.012504 0.533435 0.012467
0.046151 0.533577 0.012325
0.080158 0.533721 0.012182
0.114402 0.533865 0.012038
0.148823 0.534010 0.011892
0.183386 0.534156 0.011747
0.218067 0.534302 0.011600
0.252850 0.534449 0.011454
0.287722 0.534596 0.011307
0.322673 0.534743 0.011159
0.357696 0.534891 0.011012
0.392783 0.535039 0.010864
0.427931 0.535187 0.010716
0.463134 0.535335 0.010567
0.498388 0.535484 0.010419
0.533690 0.535633 0.010270
0.569038 0.535782 0.010121
0.604428 0.535931 0.009971
0.639858 0.536080 0.009822
0.675326 0.536230 0.009673
0.710830 0.536380 0.009523
0.746369 0.536530 0.009373
0.781941 0.536679 0.009223
0.817544 0.536830 0.009073
0.853178 0.536980 0.008923
0.888841 0.537130 0.008772
0.924532 0.537281 0.008622
0.960250 0.537431 0.008471
0.995994 0.537582 0.008321
1.000000 0.537677 0.008225
1.000000 0.537677 0.008225
1.000000 0.537677 0.008225
0.011000 0.567290 0.012000
0.013459 0.567300 0.011990
0.047106 0.567442 0.011848
0.081113 0.567585 0.011704
0.115357 0.567730 0.011560
0.149778 0.567875 0.011415
0.184341 0.568021 0.011269
0.219022 0.568167 0.011123
0.253805 0.568313 0.010976
0.288677 0.568461 0.010829
0.323628 0.568608 0.010682
0.358651 0.568756 0.010534
0.393739 0.568903 0.010386
0.428886 0.569052 0.010238
0.464089 0.569200 0.010090
0.499343 0.569349 0.009941
0.534646 0.569498 0.009792
0.569993 0.569647 0.009643
0.605383 0.569796 0.009494
0.640813 0.569945 0.009345
0.676281 0.570095 0.009195
0.711785 0.570244 0.009045
0.747324 0.570394 0.008895
0.782896 0.570544 0.008745
0.818499 0.570694 0.008595
0.854133 0.570845 0.008445
0.889796 0.570995 0.008295
0.925487 0.571145 0.008144
0.961205 0.571296 0.007994
0.996949 0.571447 0.007843
1.000000 0.571542 0.007748
1.000000 0.571542 0.007748
1.000000 0.571542 0.007748
0.011956 0.601193 0.011522
0.014416 0.601203 0.011511
0.048062 0.601345 0.011370
0.082070 0.601489 0.011226
0.116314 0.601633 0.011082
0.150735 0.601778 0.010937
0.185298 0.601924 0.010791
0.219979 0.602070 0.010645
0.254761 0.602217 0.010498
0.289633 0.602364 0.010351
0.324584 0.602511 0.010204
0.359607 0.602659 0.010056
0.394695 0.602807 0.009908
0.429842 0.602955 0.009760
0.465045 0.603103 0.009612
0.500299 0.603252 0.009463
0.535602 0.603401 0.009314
0.570949 0.603550 0.009165
0.606339 0.603699 0.009016
0.641769 0.603848 0.008866
0.677237 0.603998 0.008717
0.712741 0.604148 0.008567
0.748280 0.604297 0.008417
0.783852 0.604447 0.008267
0.819456 0.604597 0.008117
0.855089 0.604748 0.007967
0.890752 0.604898 0.007817
0.926443 0.605049 0.007666
0.962161 0.605199 0.007516
0.997905 0.605350 0.007365
1.000000 0.605445 0.007270
1.000000 0.605445 0.007270
1.000000 0.605445 0.007270
0.012914 0.635133 0.011043
0.015373 0.635143 0.011033
0.049019 0.635285 0.010891
0.083027 0.635428 0.010748
0.117271 0.635573 0.010603
0.151692 0.635718 0.010458
0.186255 0.635863 0.010312
0.220936 0.636010 0.010166
0.255719 0.636156 0.010019
0.290590 0.636303 0.009872
0.325542 0.636451 0.009725
0.360564 0.636598 0.009577
0.395652 0.636746 0.009430
0.430800 0.636894 0.009281
0.466002 0.637043 0.009133
0.501257 0.637191 0.008984
0.536559 0.637340 0.008835
0.571906 0.637489 0.008686
0.607296 0.637639 0.008537
0.642726 0.637788 0.008388
0.678194 0.637937 0.008238
0.713699 0.638087 0.008089
0.749238 0.638237 0.007939
0.784809 0.638387 0.007789
0.820413 0.638537 0.007639
0.856047 0.638687 0.007488
0.891710 0.638838 0.007338
0.927400 0.638988 0.007188
0.963118 0.639139 0.007037
0.998862 0.639289 0.006886
1.000000 0.639385 0.006791
1.000000 0.639385 0.006791
1.000000 0.639385 0.006791
0.013872 0.669107 0.010564
0.016331 0.669117 0.010554
0.049978 0.669259 0.010412
0.083985 0.669402 0.010268
0.118229 0.669547 0.010124
0.152650 0.669692 0.009979
0.187213 0.669838 0.009833
0.221894 0.669984 0.009687
0.256677 0.670131 0.009540
0.291549 0.670278 0.009393
0.326500 0.670425 0.009246
0.361522 0.670573 0.009098
0.396610 0.670721 0.008950
0.431758 0.670869 0.008802
0.466961 0.671017 0.008654
0.502215 0.671166 0.008505
0.537517 0.671315 0.008356
0.572865 0.671464 0.008207
0.608254 0.671613 0.008058
0.643684 0.671762 0.007909
0.679153 0.671912 0.007759
0.714657 0.672061 0.007609
0.750196 0.672211 0.007460
0.785768 0.672361 0.007310
0.821371 0.672511 0.007160
0.857005 0.672662 0.007009
0.892668 0.672812 0.006859
0.928359 0.672962 0.006708
0.964076 0.673113 0.006558
0.999820 0.673264 0.006407
1.000000 0.673359 0.006312
1.000000 0.673359 0.006312
1.000000 0.673359 0.006312
0.014831 0.703114 0.010084
0.017290 0.703125 0.010074
0.050937 0.703266 0.009932
0.084944 0.703410 0.009789
0.119188 0.703554 0.009645
0.153609 0.703699 0.009499
0.188172 0.703845 0.009354
0.222853 0.703991 0.009207
0.257636 0.704138 0.009061
0.292508 0.704285 0.008914
0.327459 0.704432 0.008766
0.362482 0.704580 0.008619
0.397569 0.704728 0.008471
0.432717 0.704876 0.008323
0.467920 0.705024 0.008174
0.503174 0.705173 0.008026
0.538476 0.705322 0.007877
0.573824 0.705471 0.007728
0.609214 0.705620 0.007578
0.644644 0.705770 0.007429
0.680112 0.705919 0.007280
0.715616 0.706069 0.007130
0.751155 0.706219 0.006980
0.786727 0.706369 0.006830
0.822330 0.706519 0.006680
0.857964 0.706669 0.006530
0.893627 0.706819 0.006379
0.929318 0.706970 0.006229
0.965036 0.707120 0.006078
1.000000 0.707271 0.005928
1.000000 0.707366 0.005832
1.000000 0.707366 0.005832
1.000000 0.707366 0.005832
0.015791 0.737153 0.009604
0.018250 0.737163 0.009594
0.051897 0.737305 0.009452
0.085904 0.737449 0.009309
0.120148 0.737593 0.009164
0.154569 0.737738 0.009019
0.189132 0.737884 0.008874
0.223813 0.738030 0.008727
0.258596 0.738177 0.008581
0.293468 0.738324 0.008434
0.328419 0.738471 0.008286
0.363442 0.738619 0.008139
0.398529 0.738767 0.007991
0.433677 0.738915 0.007843
0.468880 0.739063 0.007694
0.504134 0.739212 0.007546
0.539436 0.739361 0.007397
0.574784 0.739510 0.007248
0.610174 0.739659 0.007098
0.645604 0.739808 0.006949
0.681072 0.739958 0.006800
0.716576 0.740108 0.006650
0.752115 0.740258 0.006500
0.787687 0.740407 0.006350
0.823290 0.740558 0.006200
0.858924 0.740708 0.006050
0.894587 0.740858 0.005899
0.930278 0.741009 0.005749
0.965996 0.741159 0.005598
1.000000 0.741310 0.005448
1.000000 0.741405 0.005352
1.000000 0.741405 0.005352
1.000000 0.741405 0.005352
0.016752 0.771222 0.009124
0.019211 0.771233 0.009114
0.052858 0.771374 0.008972
0.086865 0.771518 0.008828
0.121109 0.771662 0.008684
0.155530 0.771807 0.008539
0.190093 0.771953 0.008393
0.224774 0.772099 0.008247
0.259557 0.772246 0.008100
0.294429 0.772393 0.007953
0.329380 0.772540 0.007806
0.364403 0.772688 0.007658
0.399490 0.772836 0.007510
0.434638 0.772984 0.007362
0.469841 0.773132 0.007214
0.505095 0.773281 0.007065
0.540397 0.773430 0.006916
0.575745 0.773579 0.006767
0.611135 0.773728 0.006618
0.646565 0.773878 0.006469
0.682033 0.774027 0.006319
0.717537 0.774177 0.006169
0.753076 0.774327 0.006020
0.788648 0.774477 0.005870
0.824251 0.774627 0.005719
0.859885 0.774777 0.005569
0.895548 0.774927 0.005419
0.931239 0.775078 0.005268
0.966957 0.775228 0.005118
1.000000 0.775379 0.004967
1.000000 0.775474 0.004872
1.000000 0.775474 0.004872
1.000000 0.775474 0.004872
0.017714 0.805320 0.008643
0.020173 0.805331 0.008633
0.053819 0.805473 0.008491
0.087827 0.805616 0.008348
0.122071 0.805760 0.008203
0.156492 0.805905 0.008058
0.191055 0.806051 0.007912
0.225736 0.806197 0.007766
0.260519 0.806344 0.007619
0.295391 0.806491 0.007472
0.330342 0.806638 0.007325
0.365364 0.806786 0.007177
0.400452 0.806934 0.007029
0.435600 0.807082 0.006881
0.470803 0.807231 0.006733
0.506057 0.807379 0.006584
0.541359 0.807528 0.006435
0.576706 0.807677 0.006286
0.612096 0.807826 0.006137
0.647526 0.807976 0.005988
0.682994 0.808125 0.005838
0.718499 0.808275 0.005689
0.754038 0.808425 0.005539
0.789610 0.808575 0.005389
0.825213 0.808725 0.005239
0.860847 0.808875 0.005088
0.896510 0.809025 0.004938
0.932200 0.809176 0.004788
0.967918 0.809326 0.004637
1.000000 0.809477 0.004486
1.000000 0.809572 0.004391
1.000000 0.809572 0.004391
1.000000 0.809572 0.004391
0.018676 0.839446 0.008162
0.021135 0.839457 0.008152
0.054782 0.839598 0.008010
0.088789 0.839742 0.007866
0.123033 0.839886 0.007722
0.157455 0.840031 0.007577
0.192017 0.840177 0.007431
0.226698 0.840323 0.007285
0.261481 0.840470 0.007138
0.296353 0.840617 0.006991
0.331304 0.840764 0.006844
0.366327 0.840912 0.006696
0.401415 0.841060 0.006548
0.436562 0.841208 0.006400
0.471765 0.841357 0.006252
0.507019 0.841505 0.006103
0.542322 0.841654 0.005954
0.577669 0.841803 0.005805
0.613059 0.841952 0.005656
0.648489 0.842102 0.005507
0.683957 0.842251 0.005357
0.719461 0.842401 0.005207
0.755000 0.842551 0.005057
0.790572 0.842701 0.004907
0.826175 0.842851 0.004757
0.861809 0.843001 0.004607
0.897472 0.843151 0.004457
