assets/luts/primelive_amb_milktea_warm.cube
TITLE "primelive Milktea Warm"
LUT_3D_SIZE 5
DOMAIN_MIN 0.0 0.0 0.0
DOMAIN_MAX 1.0 1.0 1.0
0.068359 0.055065 0.045859
0.339507 0.053883 0.044424
0.588100 0.052800 0.043109
0.827611 0.051756 0.041842
1.000000 0.050889 0.040792
0.063686 0.315149 0.041186
0.334834 0.313968 0.039751
0.583427 0.312884 0.038436
0.822938 0.311841 0.037168
1.000000 0.310978 0.036121
0.059400 0.553699 0.036900
0.330547 0.552517 0.035465
0.579141 0.551434 0.034149
0.818651 0.550390 0.032882
1.000000 0.549527 0.031834
0.055270 0.783545 0.032770
0.326417 0.782363 0.031335
0.575011 0.781280 0.030019
0.814521 0.780236 0.028752
1.000000 0.779373 0.027704
0.051319 1.000000 0.028819
0.322467 1.000000 0.027384
0.571060 1.000000 0.026069
0.810571 1.000000 0.024802
1.000000 0.999237 0.023754
0.067912 0.054696 0.295711
0.339059 0.053515 0.294276
0.587653 0.052431 0.292961
0.827164 0.051388 0.291694
1.000000 0.050522 0.290644
0.063238 0.314781 0.291038
0.334386 0.313599 0.289603
0.582980 0.312516 0.288288
0.822490 0.311472 0.287020
1.000000 0.310609 0.285972
0.058952 0.553330 0.286751
0.330100 0.552149 0.285317
0.578693 0.551065 0.284001
0.818204 0.550022 0.282734
1.000000 0.549159 0.281686
0.054822 0.783176 0.282621
0.325970 0.781995 0.281187
0.574563 0.780911 0.279871
0.814074 0.779868 0.278604
1.000000 0.779005 0.277556
0.050872 1.000000 0.278671
0.322019 1.000000 0.277236
0.570613 1.000000 0.275921
0.810123 0.999731 0.274653
1.000000 0.998868 0.273605
0.067501 0.054358 0.525035
0.338649 0.053176 0.523600
0.587242 0.052093 0.522285
0.826753 0.051050 0.521018
1.000000 0.050184 0.519969
0.062828 0.314442 0.520362
0.333975 0.313261 0.518927
0.582569 0.312178 0.517612
0.822080 0.311134 0.516344
1.000000 0.310271 0.515297
0.058541 0.552992 0.516076
0.329689 0.551810 0.514641
0.578283 0.550727 0.513325
0.817793 0.549683 0.512058
1.000000 0.548820 0.511010
0.054412 0.782838 0.511946
0.325559 0.781656 0.510511
0.574153 0.780573 0.509195
0.813663 0.779529 0.507928
1.000000 0.778666 0.506880
0.050461 1.000000 0.507995
0.321609 1.000000 0.506560
0.570202 1.000000 0.505245
0.809713 0.999393 0.503978
1.000000 0.998530 0.502930
0.067105 0.054032 0.746013
0.338253 0.052851 0.744578
0.586847 0.051767 0.743263
0.826357 0.050724 0.741995
1.000000 0.049860 0.740947
0.062432 0.314117 0.741339
0.333580 0.312935 0.739905
0.582173 0.311852 0.738589
0.821684 0.310808 0.737322
1.000000 0.309945 0.736274
0.058146 0.552666 0.737053
0.329293 0.551485 0.735618
0.577887 0.550401 0.734303
0.817398 0.549358 0.733036
1.000000 0.548495 0.731988
0.054016 0.782512 0.732923
0.325163 0.781331 0.731488
0.573757 0.780247 0.730173
0.813268 0.779204 0.728906
1.000000 0.778341 0.727858
0.050065 1.000000 0.728972
0.321213 1.000000 0.727538
0.569806 1.000000 0.726222
0.809317 0.999067 0.724955
1.000000 0.998204 0.723907
0.066719 0.053714 0.961651
0.337867 0.052533 0.960216
0.586460 0.051449 0.958901
0.825971 0.050406 0.957633
1.000000 0.049542 0.956585
0.062046 0.313799 0.956978
0.333194 0.312617 0.955543
0.581787 0.311534 0.954227
0.821298 0.310490 0.952960
1.000000 0.309627 0.951912
0.057760 0.552348 0.952691
0.328907 0.551167 0.951256
0.577501 0.550083 0.949941
0.817011 0.549040 0.948674
1.000000 0.548177 0.947626
0.053630 0.782194 0.948561
0.324777 0.781013 0.947126
0.573371 0.779929 0.945811
0.812882 0.778886 0.944544
1.000000 0.778023 0.943496
0.049679 1.000000 0.944611
0.320827 1.000000 0.943176
0.569420 0.999793 0.941861
0.808931 0.998749 0.940593
1.000000 0.997886 0.939545
