assets/luts/primelive_ziran_liang.cube
TITLE "primelive_ziran_liang"
LUT_3D_SIZE 9
0.088400 0.088400 0.088400
0.222435 0.086092 0.086092
0.356470 0.083785 0.083785
0.490505 0.081477 0.081477
0.624540 0.079170 0.079170
0.758575 0.076862 0.076862
0.892610 0.074555 0.074555
1.000000 0.072247 0.072247
1.000000 0.069940 0.069940
0.083913 0.218957 0.083913
0.217948 0.216649 0.081605
0.351983 0.214342 0.079298
0.486018 0.212034 0.076990
0.620053 0.209727 0.074683
0.754088 0.207419 0.072375
0.888123 0.205112 0.070068
1.000000 0.202804 0.067760
1.000000 0.200497 0.065453
0.079426 0.349514 0.079426
0.213461 0.347206 0.077118
0.347496 0.344899 0.074811
0.481531 0.342591 0.072503
0.615566 0.340284 0.070196
0.749601 0.337976 0.067888
0.883636 0.335669 0.065581
1.000000 0.333361 0.063273
1.000000 0.331054 0.060966
0.074939 0.480071 0.074939
0.208974 0.477763 0.072631
0.343009 0.475456 0.070324
0.477044 0.473148 0.068016
0.611079 0.470841 0.065709
0.745114 0.468533 0.063401
0.879149 0.466226 0.061094
1.000000 0.463918 0.058786
1.000000 0.461611 0.056479
0.070452 0.610628 0.070452
0.204487 0.608320 0.068144
0.338522 0.606013 0.065837
0.472557 0.603705 0.063529
0.606592 0.601398 0.061222
0.740627 0.599090 0.058914
0.874662 0.596783 0.056607
1.000000 0.594475 0.054299
1.000000 0.592168 0.051992
0.065965 0.741185 0.065965
0.200000 0.738877 0.063657
0.334035 0.736570 0.061350
0.468070 0.734262 0.059042
0.602105 0.731955 0.056735
0.736140 0.729647 0.054427
0.870175 0.727340 0.052120
1.000000 0.725032 0.049812
1.000000 0.722725 0.047505
0.061478 0.871742 0.061478
0.195513 0.869434 0.059170
0.329548 0.867127 0.056863
0.463583 0.864819 0.054555
0.597618 0.862512 0.052248
0.731653 0.860204 0.049940
0.865688 0.857897 0.047633
0.999722 0.855589 0.045325
1.000000 0.853282 0.043018
0.056991 1.000000 0.056991
0.191026 0.999991 0.054683
0.325061 0.997684 0.052376
0.459096 0.995376 0.050068
0.593131 0.993069 0.047761
0.727166 0.990761 0.045453
0.861201 0.988454 0.043146
0.995235 0.986146 0.040838
1.000000 0.983838 0.038531
0.052504 1.000000 0.052504
0.186539 1.000000 0.050196
0.320574 1.000000 0.047889
0.454609 1.000000 0.045581
0.588644 1.000000 0.043274
0.722679 1.000000 0.040966
0.856714 1.000000 0.038659
0.990748 1.000000 0.036351
1.000000 1.000000 0.034043
0.087520 0.087520 0.223863
0.221555 0.085213 0.221555
0.355590 0.082905 0.219248
0.489625 0.080598 0.216940
0.623660 0.078290 0.214633
0.757695 0.075983 0.212325
0.891730 0.073675 0.210018
1.000000 0.071367 0.207710
1.000000 0.069060 0.205402
0.083033 0.218077 0.219376
0.217068 0.215770 0.217068
0.351103 0.213462 0.214761
0.485138 0.211155 0.212453
0.619173 0.208847 0.210146
0.753208 0.206540 0.207838
0.887243 0.204232 0.205530
1.000000 0.201924 0.203223
1.000000 0.199617 0.200915
0.078546 0.348634 0.214889
0.212581 0.346327 0.212581
0.346616 0.344019 0.210274
0.480651 0.341712 0.207966
0.614686 0.339404 0.205659
0.748721 0.337096 0.203351
0.882756 0.334789 0.201043
1.000000 0.332481 0.198736
1.000000 0.330174 0.196428
0.074059 0.479191 0.210402
0.208094 0.476884 0.208094
0.342129 0.474576 0.205787
0.476164 0.472269 0.203479
0.610199 0.469961 0.201172
0.744234 0.467653 0.198864
0.878269 0.465346 0.196556
1.000000 0.463038 0.194249
1.000000 0.460731 0.191941
0.069572 0.609748 0.205915
0.203607 0.607441 0.203607
0.337642 0.605133 0.201300
0.471677 0.602825 0.198992
0.605712 0.600518 0.196684
0.739747 0.598210 0.194377
0.873782 0.595903 0.192069
1.000000 0.593595 0.189762
1.000000 0.591288 0.187454
0.065085 0.740305 0.201428
0.199120 0.737998 0.199120
0.333155 0.735690 0.196813
0.467190 0.733382 0.194505
0.601225 0.731075 0.192197
0.735260 0.728767 0.189890
0.869295 0.726460 0.187582
1.000000 0.724152 0.185275
1.000000 0.721845 0.182967
0.060598 0.870862 0.196941
0.194633 0.868554 0.194633
0.328668 0.866247 0.192325
0.462703 0.863939 0.190018
0.596738 0.861632 0.187710
0.730773 0.859324 0.185403
0.864808 0.857017 0.183095
0.998843 0.854709 0.180788
1.000000 0.852402 0.178480
0.056111 1.000000 0.192454
0.190146 0.999111 0.190146
0.324181 0.996804 0.187838
0.458216 0.994496 0.185531
0.592251 0.992189 0.183223
0.726286 0.989881 0.180916
0.860321 0.987574 0.178608
0.994356 0.985266 0.176301
1.000000 0.982959 0.173993
0.051624 1.000000 0.187966
0.185659 1.000000 0.185659
0.319694 1.000000 0.183351
0.453729 1.000000 0.181044
0.587764 1.000000 0.178736
0.721799 1.000000 0.176429
0.855834 1.000000 0.174121
0.989869 1.000000 0.171814
1.000000 1.000000 0.169506
0.086640 0.086640 0.359325
0.220675 0.084333 0.357018
0.354710 0.082025 0.354710
0.488745 0.079718 0.352403
0.622780 0.077410 0.350095
0.756815 0.075103 0.347788
0.890850 0.072795 0.345480
1.000000 0.070488 0.343173
1.000000 0.068180 0.340865
0.082153 0.217197 0.354838
0.216188 0.214890 0.352531
0.350223 0.212582 0.350223
0.484258 0.210275 0.347916
0.618293 0.207967 0.345608
0.752328 0.205660 0.343301
0.886363 0.203352 0.340993
1.000000 0.201045 0.338686
1.000000 0.198737 0.336378
0.077666 0.347754 0.350351
0.211701 0.345447 0.348044
0.345736 0.343139 0.345736
0.479771 0.340832 0.343429
0.613806 0.338524 0.341121
0.747841 0.336217 0.338814
0.881876 0.333909 0.336506
1.000000 0.331602 0.334199
1.000000 0.329294 0.331891
0.073179 0.478311 0.345864
0.207214 0.476004 0.343557
0.341249 0.473696 0.341249
0.475284 0.471389 0.338942
0.609319 0.469081 0.336634
0.743354 0.466774 0.334327
0.877389 0.464466 0.332019
1.000000 0.462159 0.329712
1.000000 0.459851 0.327404
0.068692 0.608868 0.341377
0.202727 0.606561 0.339070
0.336762 0.604253 0.336762
0.470797 0.601946 0.334455
0.604832 0.599638 0.332147
0.738867 0.597331 0.329840
0.872902 0.595023 0.327532
1.000000 0.592716 0.325225
1.000000 0.590408 0.322917
0.064205 0.739425 0.336890
0.198240 0.737118 0.334583
0.332275 0.734810 0.332275
0.466310 0.732503 0.329968
0.600345 0.730195 0.327660
0.734380 0.727888 0.325353
0.868415 0.725580 0.323045
1.000000 0.723273 0.320738
1.000000 0.720965 0.318430
0.059718 0.869982 0.332403
0.193753 0.867675 0.330096
0.327788 0.865367 0.327788
0.461823 0.863060 0.325481
0.595858 0.860752 0.323173
0.729893 0.858445 0.320866
0.863928 0.856137 0.318558
0.997963 0.853829 0.316250
1.000000 0.851522 0.313943
0.055231 1.000000 0.327916
0.189266 0.998232 0.325609
0.323301 0.995924 0.323301
0.457336 0.993617 0.320994
0.591371 0.991309 0.318686
0.725406 0.989001 0.316379
0.859441 0.986694 0.314071
0.993476 0.984386 0.311763
1.000000 0.982079 0.309456
0.050744 1.000000 0.323429
0.184779 1.000000 0.321122
0.318814 1.000000 0.318814
0.452849 1.000000 0.316507
0.586884 1.000000 0.314199
0.720919 1.000000 0.311891
0.854954 1.000000 0.309584
0.988989 1.000000 0.307276
1.000000 1.000000 0.304969
0.085761 0.085761 0.494788
0.219796 0.083453 0.492481
0.353831 0.081146 0.490173
0.487866 0.078838 0.487866
0.621900 0.076530 0.485558
0.755935 0.074223 0.483250
0.889970 0.071915 0.480943
1.000000 0.069608 0.478635
1.000000 0.067300 0.476328
0.081274 0.216318 0.490301
0.215309 0.214010 0.487994
0.349343 0.211703 0.485686
0.483378 0.209395 0.483378
0.617413 0.207087 0.481071
0.751448 0.204780 0.478763
0.885483 0.202472 0.476456
1.000000 0.200165 0.474148
1.000000 0.197857 0.471841
0.076787 0.346875 0.485814
0.210822 0.344567 0.483507
0.344856 0.342259 0.481199
0.478891 0.339952 0.478891
0.612926 0.337644 0.476584
0.746961 0.335337 0.474276
0.880996 0.333029 0.471969
1.000000 0.330722 0.469661
1.000000 0.328414 0.467354
0.072300 0.477432 0.481327
0.206335 0.475124 0.479019
0.340369 0.472816 0.476712
0.474404 0.470509 0.474404
0.608439 0.468201 0.472097
0.742474 0.465894 0.469789
0.876509 0.463586 0.467482
1.000000 0.461279 0.465174
1.000000 0.458971 0.462867
0.067812 0.607988 0.476840
0.201847 0.605681 0.474532
0.335882 0.603373 0.472225
0.469917 0.601066 0.469917
0.603952 0.598758 0.467610
0.737987 0.596451 0.465302
0.872022 0.594143 0.462995
1.000000 0.591836 0.460687
1.000000 0.589528 0.458380
0.063325 0.738545 0.472353
0.197360 0.736238 0.470045
0.331395 0.733930 0.467738
0.465430 0.731623 0.465430
0.599465 0.729315 0.463123
0.733500 0.727008 0.460815
0.867535 0.724700 0.458508
1.000000 0.722393 0.456200
1.000000 0.720085 0.453893
0.058838 0.869102 0.467866
0.192873 0.866795 0.465558
0.326908 0.864487 0.463251
0.460943 0.862180 0.460943
0.594978 0.859872 0.458636
0.729013 0.857565 0.456328
0.863048 0.855257 0.454021
0.997083 0.852950 0.451713
1.000000 0.850642 0.449406
0.054351 0.999659 0.463379
0.188386 0.997352 0.461071
0.322421 0.995044 0.458764
0.456456 0.992737 0.456456
0.590491 0.990429 0.454149
0.724526 0.988122 0.451841
0.858561 0.985814 0.449534
0.992596 0.983507 0.447226
1.000000 0.981199 0.444919
0.049864 1.000000 0.458892
0.183899 1.000000 0.456584
0.317934 1.000000 0.454277
0.451969 1.000000 0.451969
0.586004 1.000000 0.449662
0.720039 1.000000 0.447354
0.854074 1.000000 0.445047
0.988109 1.000000 0.442739
1.000000 1.000000 0.440432
0.084881 0.084881 0.630251
0.218916 0.082573 0.627943
0.352951 0.080266 0.625636
0.486986 0.077958 0.623328
0.621021 0.075651 0.621021
0.755056 0.073343 0.618713
0.889091 0.071036 0.616406
1.000000 0.068728 0.614098
1.000000 0.066421 0.611791
0.080394 0.215438 0.625764
0.214429 0.213130 0.623456
0.348464 0.210823 0.621149
0.482499 0.208515 0.618841
0.616534 0.206208 0.616534
0.750569 0.203900 0.614226
0.884604 0.201593 0.611919
1.000000 0.199285 0.609611
1.000000 0.196978 0.607304
0.075907 0.345995 0.621277
0.209942 0.343687 0.618969
0.343977 0.341380 0.616662
0.478012 0.339072 0.614354
0.612047 0.336765 0.612047
0.746082 0.334457 0.609739
0.880117 0.332150 0.607432
1.000000 0.329842 0.605124
1.000000 0.327534 0.602816
0.071420 0.476552 0.616790
0.205455 0.474244 0.614482
0.339490 0.471937 0.612175
0.473525 0.469629 0.609867
0.607560 0.467322 0.607560
0.741595 0.465014 0.605252
0.875630 0.462707 0.602945
1.000000 0.460399 0.600637
1.000000 0.458091 0.598329
0.066933 0.607109 0.612303
0.200968 0.604801 0.609995
0.335003 0.602494 0.607688
0.469038 0.600186 0.605380
0.603073 0.597879 0.603073
0.737108 0.595571 0.600765
0.871142 0.593264 0.598457
1.000000 0.590956 0.596150
1.000000 0.588648 0.593842
0.062446 0.737666 0.607816
0.196481 0.735358 0.605508
0.330516 0.733051 0.603201
0.464551 0.730743 0.600893
0.598586 0.728436 0.598586
0.732621 0.726128 0.596278
0.866655 0.723820 0.593970
1.000000 0.721513 0.591663
1.000000 0.719205 0.589355
0.057959 0.868223 0.603329
0.191994 0.865915 0.601021
0.326029 0.863608 0.598714
0.460064 0.861300 0.596406
0.594098 0.858992 0.594098
0.728133 0.856685 0.591791
0.862168 0.854377 0.589483
0.996203 0.852070 0.587176
1.000000 0.849762 0.584868
0.053472 0.998780 0.598842
0.187507 0.996472 0.596534
0.321542 0.994164 0.594227
0.455577 0.991857 0.591919
0.589611 0.989549 0.589611
0.723646 0.987242 0.587304
0.857681 0.984934 0.584996
0.991716 0.982627 0.582689
1.000000 0.980319 0.580381
0.048985 1.000000 0.594355
0.183020 1.000000 0.592047
0.317054 1.000000 0.589739
0.451089 1.000000 0.587432
0.585124 1.000000 0.585124
0.719159 1.000000 0.582817
0.853194 1.000000 0.580509
0.987229 1.000000 0.578202
1.000000 1.000000 0.575894
0.084001 0.084001 0.765714
0.218036 0.081693 0.763406
0.352071 0.079386 0.761098
0.486106 0.077078 0.758791
0.620141 0.074771 0.756483
0.754176 0.072463 0.754176
0.888211 0.070156 0.751868
1.000000 0.067848 0.749561
1.000000 0.065541 0.747253
0.079514 0.214558 0.761227
0.213549 0.212250 0.758919
0.347584 0.209943 0.756611
0.481619 0.207635 0.754304
0.615654 0.205328 0.751996
0.749689 0.203020 0.749689
0.883724 0.200713 0.747381
1.000000 0.198405 0.745074
1.000000 0.196098 0.742766
0.075027 0.345115 0.756739
0.209062 0.342807 0.754432
0.343097 0.340500 0.752124
0.477132 0.338192 0.749817
0.611167 0.335885 0.747509
0.745202 0.333577 0.745202
0.879237 0.331270 0.742894
1.000000 0.328962 0.740587
1.000000 0.326655 0.738279
0.070540 0.475672 0.752252
0.204575 0.473364 0.749945
0.338610 0.471057 0.747637
0.472645 0.468749 0.745330
0.606680 0.466442 0.743022
0.740715 0.464134 0.740715
0.874750 0.461827 0.738407
1.000000 0.459519 0.736100
1.000000 0.457212 0.733792
0.066053 0.606229 0.747765
0.200088 0.603921 0.745458
0.334123 0.601614 0.743150
0.468158 0.599306 0.740843
0.602193 0.596999 0.738535
0.736228 0.594691 0.736228
0.870263 0.592384 0.733920
1.000000 0.590076 0.731613
1.000000 0.587769 0.729305
0.061566 0.736786 0.743278
0.195601 0.734478 0.740971
0.329636 0.732171 0.738663
0.463671 0.729863 0.736356
0.597706 0.727556 0.734048
0.731741 0.725248 0.731741
0.865776 0.722941 0.729433
0.999811 0.720633 0.727126
1.000000 0.718326 0.724818
0.057079 0.867343 0.738791
0.191114 0.865035 0.736484
0.325149 0.862728 0.734176
0.459184 0.860420 0.731869
0.593219 0.858113 0.729561
0.727254 0.855805 0.727254
0.861289 0.853498 0.724946
0.995324 0.851190 0.722639
1.000000 0.848883 0.720331
0.052592 0.997900 0.734304
0.186627 0.995592 0.731997
0.320662 0.993285 0.729689
0.454697 0.990977 0.727382
0.588732 0.988670 0.725074
0.722767 0.986362 0.722767
0.856802 0.984055 0.720459
0.990836 0.981747 0.718152
1.000000 0.979440 0.715844
0.048105 1.000000 0.729817
0.182140 1.000000 0.727510
0.316175 1.000000 0.725202
0.450210 1.000000 0.722895
0.584245 1.000000 0.720587
0.718280 1.000000 0.718280
0.852315 1.000000 0.715972
0.986349 1.000000 0.713665
1.000000 1.000000 0.711357
0.083121 0.083121 0.901176
0.217156 0.080814 0.898869
0.351191 0.078506 0.896561
0.485226 0.076199 0.894254
0.619261 0.073891 0.891946
0.753296 0.071584 0.889639
0.887331 0.069276 0.887331
1.000000 0.066968 0.885023
1.000000 0.064661 0.882716
0.078634 0.213678 0.896689
0.212669 0.211371 0.894382
0.346704 0.209063 0.892074
0.480739 0.206756 0.889767
0.614774 0.204448 0.887459
0.748809 0.202141 0.885152
0.882844 0.199833 0.882844
1.000000 0.197525 0.880536
1.000000 0.195218 0.878229
0.074147 0.344235 0.892202
0.208182 0.341928 0.889895
0.342217 0.339620 0.887587
0.476252 0.337313 0.885280
0.610287 0.335005 0.882972
0.744322 0.332697 0.880664
0.878357 0.330390 0.878357
1.000000 0.328082 0.876049
1.000000 0.325775 0.873742
0.069660 0.474792 0.887715
0.203695 0.472485 0.885408
0.337730 0.470177 0.883100
0.471765 0.467870 0.880793
0.605800 0.465562 0.878485
0.739835 0.463254 0.876177
0.873870 0.460947 0.873870
1.000000 0.458639 0.871562
1.000000 0.456332 0.869255
0.065173 0.605349 0.883228
0.199208 0.603042 0.880921
0.333243 0.600734 0.878613
0.467278 0.598427 0.876305
0.601313 0.596119 0.873998
0.735348 0.593811 0.871690
0.869383 0.591504 0.869383
1.000000 0.589196 0.867075
1.000000 0.586889 0.864768
0.060686 0.735906 0.878741
0.194721 0.733599 0.876434
0.328756 0.731291 0.874126
0.462791 0.728983 0.871818
0.596826 0.726676 0.869511
0.730861 0.724368 0.867203
0.864896 0.722061 0.864896
0.998931 0.719753 0.862588
1.000000 0.717446 0.860281
0.056199 0.866463 0.874254
0.190234 0.864155 0.871947
0.324269 0.861848 0.869639
0.458304 0.859540 0.867331
0.592339 0.857233 0.865024
0.726374 0.854925 0.862716
0.860409 0.852618 0.860409
0.994444 0.850310 0.858101
1.000000 0.848003 0.855794
0.051712 0.997020 0.869767
0.185747 0.994712 0.867459
0.319782 0.992405 0.865152
0.453817 0.990097 0.862844
0.587852 0.987790 0.860537
0.721887 0.985482 0.858229
0.855922 0.983175 0.855922
0.989957 0.980867 0.853614
1.000000 0.978560 0.851307
0.047225 1.000000 0.865280
0.181260 1.000000 0.862972
0.315295 1.000000 0.860665
0.449330 1.000000 0.858357
0.583365 1.000000 0.856050
0.717400 1.000000 0.853742
0.851435 1.000000 0.851435
0.985470 1.000000 0.849127
1.000000 1.000000 0.846820
0.082241 0.082241 1.000000
0.216276 0.079934 1.000000
0.350311 0.077626 1.000000
0.484346 0.075319 1.000000
0.618381 0.073011 1.000000
0.752416 0.070704 1.000000
0.886451 0.068396 1.000000
1.000000 0.066089 1.000000
1.000000 0.063781 1.000000
0.077754 0.212798 1.000000
0.211789 0.210491 1.000000
0.345824 0.208183 1.000000
0.479859 0.205876 1.000000
0.613894 0.203568 1.000000
0.747929 0.201261 1.000000
0.881964 0.198953 1.000000
1.000000 0.196646 1.000000
1.000000 0.194338 1.000000
0.073267 0.343355 1.000000
0.207302 0.341048 1.000000
0.341337 0.338740 1.000000
0.475372 0.336433 1.000000
0.609407 0.334125 1.000000
0.743442 0.331818 1.000000
0.877477 0.329510 1.000000
1.000000 0.327203 1.000000
1.000000 0.324895 1.000000
0.068780 0.473912 1.000000
0.202815 0.471605 1.000000
0.336850 0.469297 1.000000
0.470885 0.466990 1.000000
0.604920 0.464682 1.000000
0.738955 0.462375 1.000000
0.872990 0.460067 1.000000
1.000000 0.457760 1.000000
1.000000 0.455452 1.000000
0.064293 0.604469 1.000000
0.198328 0.602162 1.000000
0.332363 0.599854 1.000000
0.466398 0.597547 1.000000
0.600433 0.595239 1.000000
0.734468 0.592932 1.000000
0.868503 0.590624 1.000000
1.000000 0.588317 1.000000
1.000000 0.586009 1.000000
0.059806 0.735026 1.000000
0.193841 0.732719 1.000000
0.327876 0.730411 1.000000
0.461911 0.728104 1.000000
0.595946 0.725796 1.000000
0.729981 0.723489 1.000000
0.864016 0.721181 1.000000
0.998051 0.718874 0.998051
1.000000 0.716566 0.995743
0.055319 0.865583 1.000000
0.189354 0.863276 1.000000
0.323389 0.860968 1.000000
0.457424 0.858661 1.000000
0.591459 0.856353 1.000000
0.725494 0.854046 0.998179
0.859529 0.851738 0.995871
0.993564 0.849430 0.993564
1.000000 0.847123 0.991256
0.050832 0.996140 1.000000
0.184867 0.993833 1.000000
0.318902 0.991525 1.000000
0.452937 0.989218 0.998307
0.586972 0.986910 0.996000
0.721007 0.984603 0.993692
0.855042 0.982295 0.991384
0.989077 0.979987 0.989077
1.000000 0.977680 0.986769
0.046345 1.000000 1.000000
0.180380 1.000000 0.998435
0.314415 1.000000 0.996128
0.448450 1.000000 0.993820
0.582485 1.000000 0.991512
0.716520 1.000000 0.989205
0.850555 1.000000 0.986897
0.984590 1.000000 0.984590
1.000000 1.000000 0.982282
0.081362 0.081362 1.000000
0.215397 0.079054 1.000000
0.349432 0.076747 1.000000
0.483467 0.074439 1.000000
0.617501 0.072131 1.000000
0.751536 0.069824 1.000000
0.885571 0.067516 1.000000
1.000000 0.065209 1.000000
1.000000 0.062901 1.000000
0.076875 0.211919 1.000000
0.210910 0.209611 1.000000
0.344945 0.207304 1.000000
0.478980 0.204996 1.000000
0.613014 0.202688 1.000000
0.747049 0.200381 1.000000
0.881084 0.198073 1.000000
1.000000 0.195766 1.000000
1.000000 0.193458 1.000000
0.072388 0.342476 1.000000
0.206423 0.340168 1.000000
0.340457 0.337860 1.000000
0.474492 0.335553 1.000000
0.608527 0.333245 1.000000
0.742562 0.330938 1.000000
0.876597 0.328630 1.000000
1.000000 0.326323 1.000000
1.000000 0.324015 1.000000
0.067901 0.473033 1.000000
0.201936 0.470725 1.000000
0.335970 0.468417 1.000000
0.470005 0.466110 1.000000
0.604040 0.463802 1.000000
0.738075 0.461495 1.000000
0.872110 0.459187 1.000000
1.000000 0.456880 1.000000
1.000000 0.454572 1.000000
0.063414 0.603590 1.000000
0.197449 0.601282 1.000000
0.331483 0.598974 1.000000
0.465518 0.596667 1.000000
0.599553 0.594359 1.000000
0.733588 0.592052 1.000000
0.867623 0.589744 1.000000
1.000000 0.587437 1.000000
1.000000 0.585129 1.000000
0.058926 0.734146 1.000000
0.192961 0.731839 1.000000
0.326996 0.729531 1.000000
0.461031 0.727224 1.000000
0.595066 0.724916 1.000000
0.729101 0.722609 1.000000
0.863136 0.720301 1.000000
0.997171 0.717994 1.000000
1.000000 0.715686 1.000000
0.054439 0.864703 1.000000
0.188474 0.862396 1.000000
0.322509 0.860088 1.000000
0.456544 0.857781 1.000000
0.590579 0.855473 1.000000
0.724614 0.853166 1.000000
0.858649 0.850858 1.000000
0.992684 0.848551 1.000000
1.000000 0.846243 1.000000
0.049952 0.995260 1.000000
0.183987 0.992953 1.000000
0.318022 0.990645 1.000000
0.452057 0.988338 1.000000
0.586092 0.986030 1.000000
0.720127 0.983723 1.000000
0.854162 0.981415 1.000000
0.988197 0.979108 1.000000
1.000000 0.976800 1.000000
0.045465 1.000000 1.000000
0.179500 1.000000 1.000000
0.313535 1.000000 1.000000
0.447570 1.000000 1.000000
0.581605 1.000000 1.000000
0.715640 1.000000 1.000000
0.849675 1.000000 1.000000
0.983710 1.000000 1.000000
1.000000 1.000000 1.000000
