assets/luts/primelive_ziran_liang.cube
TITLE "primelive_ziran_liang"
LUT_3D_SIZE 33
0.088400 0.088400 0.088400
0.121909 0.087823 0.087823
0.155417 0.087246 0.087246
0.188926 0.086669 0.086669
0.222435 0.086092 0.086092
0.255944 0.085516 0.085516
0.289452 0.084939 0.084939
0.322961 0.084362 0.084362
0.356470 0.083785 0.083785
0.389979 0.083208 0.083208
0.423487 0.082631 0.082631
0.456996 0.082054 0.082054
0.490505 0.081477 0.081477
0.524014 0.080900 0.080900
0.557522 0.080324 0.080324
0.591031 0.079747 0.079747
0.624540 0.079170 0.079170
0.658049 0.078593 0.078593
0.691557 0.078016 0.078016
0.725066 0.077439 0.077439
0.758575 0.076862 0.076862
0.792084 0.076285 0.076285
0.825592 0.075709 0.075709
0.859101 0.075132 0.075132
0.892610 0.074555 0.074555
0.926119 0.073978 0.073978
0.959627 0.073401 0.073401
0.993136 0.072824 0.072824
1.000000 0.072247 0.072247
1.000000 0.071670 0.071670
1.000000 0.071093 0.071093
1.000000 0.070517 0.070517
1.000000 0.069940 0.069940
0.087278 0.121039 0.087278
0.120787 0.120462 0.086701
0.154296 0.119885 0.086124
0.187804 0.119309 0.085548
0.221313 0.118732 0.084971
0.254822 0.118155 0.084394
0.288331 0.117578 0.083817
0.321839 0.117001 0.083240
0.355348 0.116424 0.082663
0.388857 0.115847 0.082086
0.422366 0.115270 0.081509
0.455874 0.114694 0.080933
0.489383 0.114117 0.080356
0.522892 0.113540 0.079779
0.556401 0.112963 0.079202
0.589909 0.112386 0.078625
0.623418 0.111809 0.078048
0.656927 0.111232 0.077471
0.690436 0.110655 0.076894
0.723944 0.110078 0.076317
0.757453 0.109502 0.075741
0.790962 0.108925 0.075164
0.824470 0.108348 0.074587
0.857979 0.107771 0.074010
0.891488 0.107194 0.073433
0.924997 0.106617 0.072856
0.958505 0.106040 0.072279
0.992014 0.105463 0.071702
1.000000 0.104887 0.071125
1.000000 0.104310 0.070549
1.000000 0.103733 0.069972
1.000000 0.103156 0.069395
1.000000 0.102579 0.068818
0.086156 0.153678 0.086156
0.119665 0.153102 0.085580
0.153174 0.152525 0.085003
0.186683 0.151948 0.084426
0.220191 0.151371 0.083849
0.253700 0.150794 0.083272
0.287209 0.150217 0.082695
0.320718 0.149640 0.082118
0.354226 0.149063 0.081541
0.387735 0.148487 0.080965
0.421244 0.147910 0.080388
0.454753 0.147333 0.079811
0.488261 0.146756 0.079234
0.521770 0.146179 0.078657
0.555279 0.145602 0.078080
0.588788 0.145025 0.077503
0.622296 0.144448 0.076926
0.655805 0.143871 0.076349
0.689314 0.143295 0.075773
0.722823 0.142718 0.075196
0.756331 0.142141 0.074619
0.789840 0.141564 0.074042
0.823349 0.140987 0.073465
0.856858 0.140410 0.072888
0.890366 0.139833 0.072311
0.923875 0.139256 0.071734
0.957384 0.138679 0.071158
0.990892 0.138103 0.070581
1.000000 0.137526 0.070004
1.000000 0.136949 0.069427
1.000000 0.136372 0.068850
1.000000 0.135795 0.068273
1.000000 0.135218 0.067696
0.085035 0.186318 0.085035
0.118543 0.185741 0.084458
0.152052 0.185164 0.083881
0.185561 0.184587 0.083304
0.219070 0.184010 0.082727
0.252578 0.183433 0.082150
0.286087 0.182856 0.081573
0.319596 0.182280 0.080997
0.353105 0.181703 0.080420
0.386613 0.181126 0.079843
0.420122 0.180549 0.079266
0.453631 0.179972 0.078689
0.487140 0.179395 0.078112
0.520648 0.178818 0.077535
0.554157 0.178241 0.076958
0.587666 0.177664 0.076381
0.621175 0.177088 0.075805
0.654683 0.176511 0.075228
0.688192 0.175934 0.074651
0.721701 0.175357 0.074074
0.755210 0.174780 0.073497
0.788718 0.174203 0.072920
0.822227 0.173626 0.072343
0.855736 0.173049 0.071766
0.889245 0.172473 0.071190
0.922753 0.171896 0.070613
0.956262 0.171319 0.070036
0.989771 0.170742 0.069459
1.000000 0.170165 0.068882
1.000000 0.169588 0.068305
1.000000 0.169011 0.067728
1.000000 0.168434 0.067151
1.000000 0.167857 0.066574
0.083913 0.218957 0.083913
0.117422 0.218380 0.083336
0.150930 0.217803 0.082759
0.184439 0.217226 0.082182
0.217948 0.216649 0.081605
0.251457 0.216073 0.081029
0.284965 0.215496 0.080452
0.318474 0.214919 0.079875
0.351983 0.214342 0.079298
0.385492 0.213765 0.078721
0.419000 0.213188 0.078144
0.452509 0.212611 0.077567
0.486018 0.212034 0.076990
0.519527 0.211457 0.076413
0.553035 0.210881 0.075837
0.586544 0.210304 0.075260
0.620053 0.209727 0.074683
0.653562 0.209150 0.074106
0.687070 0.208573 0.073529
0.720579 0.207996 0.072952
0.754088 0.207419 0.072375
0.787596 0.206842 0.071798
0.821105 0.206266 0.071222
0.854614 0.205689 0.070645
0.888123 0.205112 0.070068
0.921631 0.204535 0.069491
0.955140 0.203958 0.068914
0.988649 0.203381 0.068337
1.000000 0.202804 0.067760
1.000000 0.202227 0.067183
1.000000 0.201650 0.066606
1.000000 0.201074 0.066030
1.000000 0.200497 0.065453
0.082791 0.251596 0.082791
0.116300 0.251019 0.082214
0.149809 0.250442 0.081637
0.183317 0.249866 0.081061
0.216826 0.249289 0.080484
0.250335 0.248712 0.079907
0.283844 0.248135 0.079330
0.317352 0.247558 0.078753
0.350861 0.246981 0.078176
0.384370 0.246404 0.077599
0.417879 0.245827 0.077022
0.451387 0.245250 0.076445
0.484896 0.244674 0.075869
0.518405 0.244097 0.075292
0.551914 0.243520 0.074715
0.585422 0.242943 0.074138
0.618931 0.242366 0.073561
0.652440 0.241789 0.072984
0.685949 0.241212 0.072407
0.719457 0.240635 0.071830
0.752966 0.240059 0.071254
0.786475 0.239482 0.070677
0.819983 0.238905 0.070100
0.853492 0.238328 0.069523
0.887001 0.237751 0.068946
0.920510 0.237174 0.068369
0.954018 0.236597 0.067792
0.987527 0.236020 0.067215
1.000000 0.235443 0.066638
1.000000 0.234867 0.066062
1.000000 0.234290 0.065485
1.000000 0.233713 0.064908
1.000000 0.233136 0.064331
0.081669 0.284235 0.081669
0.115178 0.283659 0.081093
0.148687 0.283082 0.080516
0.182196 0.282505 0.079939
0.215704 0.281928 0.079362
0.249213 0.281351 0.078785
0.282722 0.280774 0.078208
0.316231 0.280197 0.077631
0.349739 0.279620 0.077054
0.383248 0.279043 0.076477
0.416757 0.278467 0.075901
0.450266 0.277890 0.075324
0.483774 0.277313 0.074747
0.517283 0.276736 0.074170
0.550792 0.276159 0.073593
0.584301 0.275582 0.073016
0.617809 0.275005 0.072439
0.651318 0.274428 0.071862
0.684827 0.273852 0.071286
0.718336 0.273275 0.070709
0.751844 0.272698 0.070132
0.785353 0.272121 0.069555
0.818862 0.271544 0.068978
0.852371 0.270967 0.068401
0.885879 0.270390 0.067824
0.919388 0.269813 0.067247
0.952897 0.269236 0.066670
0.986405 0.268660 0.066094
1.000000 0.268083 0.065517
1.000000 0.267506 0.064940
1.000000 0.266929 0.064363
1.000000 0.266352 0.063786
1.000000 0.265775 0.063209
0.080548 0.316875 0.080548
0.114056 0.316298 0.079971
0.147565 0.315721 0.079394
0.181074 0.315144 0.078817
0.214583 0.314567 0.078240
0.248091 0.313990 0.077663
0.281600 0.313413 0.077086
0.315109 0.312837 0.076509
0.348618 0.312260 0.075933
0.382126 0.311683 0.075356
0.415635 0.311106 0.074779
0.449144 0.310529 0.074202
0.482653 0.309952 0.073625
0.516161 0.309375 0.073048
0.549670 0.308798 0.072471
0.583179 0.308221 0.071894
0.616688 0.307645 0.071318
0.650196 0.307068 0.070741
0.683705 0.306491 0.070164
0.717214 0.305914 0.069587
0.750723 0.305337 0.069010
0.784231 0.304760 0.068433
0.817740 0.304183 0.067856
0.851249 0.303606 0.067279
0.884757 0.303029 0.066702
0.918266 0.302453 0.066126
0.951775 0.301876 0.065549
0.985284 0.301299 0.064972
1.000000 0.300722 0.064395
1.000000 0.300145 0.063818
1.000000 0.299568 0.063241
1.000000 0.298991 0.062664
1.000000 0.298414 0.062087
0.079426 0.349514 0.079426
0.112935 0.348937 0.078849
0.146443 0.348360 0.078272
0.179952 0.347783 0.077695
0.213461 0.347206 0.077118
0.246970 0.346629 0.076542
0.280478 0.346053 0.075965
0.313987 0.345476 0.075388
0.347496 0.344899 0.074811
0.381005 0.344322 0.074234
0.414513 0.343745 0.073657
0.448022 0.343168 0.073080
0.481531 0.342591 0.072503
0.515040 0.342014 0.071926
0.548548 0.341438 0.071350
0.582057 0.340861 0.070773
0.615566 0.340284 0.070196
0.649075 0.339707 0.069619
0.682583 0.339130 0.069042
0.716092 0.338553 0.068465
0.749601 0.337976 0.067888
0.783109 0.337399 0.067311
0.816618 0.336822 0.066734
0.850127 0.336246 0.066158
0.883636 0.335669 0.065581
0.917144 0.335092 0.065004
0.950653 0.334515 0.064427
0.984162 0.333938 0.063850
1.000000 0.333361 0.063273
1.000000 0.332784 0.062696
1.000000 0.332207 0.062119
1.000000 0.331631 0.061543
1.000000 0.331054 0.060966
0.078304 0.382153 0.078304
0.111813 0.381576 0.077727
0.145322 0.380999 0.077150
0.178830 0.380423 0.076574
0.212339 0.379846 0.075997
0.245848 0.379269 0.075420
0.279357 0.378692 0.074843
0.312865 0.378115 0.074266
0.346374 0.377538 0.073689
0.379883 0.376961 0.073112
0.413392 0.376384 0.072535
0.446900 0.375807 0.071958
0.480409 0.375231 0.071382
0.513918 0.374654 0.070805
0.547427 0.374077 0.070228
0.580935 0.373500 0.069651
0.614444 0.372923 0.069074
0.647953 0.372346 0.068497
0.681462 0.371769 0.067920
0.714970 0.371192 0.067343
0.748479 0.370616 0.066766
0.781988 0.370039 0.066190
0.815496 0.369462 0.065613
0.849005 0.368885 0.065036
0.882514 0.368308 0.064459
0.916023 0.367731 0.063882
0.949531 0.367154 0.063305
0.983040 0.366577 0.062728
1.000000 0.366000 0.062151
1.000000 0.365424 0.061575
1.000000 0.364847 0.060998
1.000000 0.364270 0.060421
1.000000 0.363693 0.059844
0.077182 0.414792 0.077182
0.110691 0.414216 0.076606
0.144200 0.413639 0.076029
0.177709 0.413062 0.075452
0.211217 0.412485 0.074875
0.244726 0.411908 0.074298
0.278235 0.411331 0.073721
0.311744 0.410754 0.073144
0.345252 0.410177 0.072567
0.378761 0.409600 0.071990
0.412270 0.409024 0.071414
0.445779 0.408447 0.070837
0.479287 0.407870 0.070260
0.512796 0.407293 0.069683
0.546305 0.406716 0.069106
0.579814 0.406139 0.068529
0.613322 0.405562 0.067952
0.646831 0.404985 0.067375
0.680340 0.404409 0.066799
0.713848 0.403832 0.066222
0.747357 0.403255 0.065645
0.780866 0.402678 0.065068
0.814375 0.402101 0.064491
0.847883 0.401524 0.063914
0.881392 0.400947 0.063337
0.914901 0.400370 0.062760
0.948410 0.399793 0.062183
0.981918 0.399217 0.061607
1.000000 0.398640 0.061030
1.000000 0.398063 0.060453
1.000000 0.397486 0.059876
1.000000 0.396909 0.059299
1.000000 0.396332 0.058722
0.076061 0.447432 0.076061
0.109569 0.446855 0.075484
0.143078 0.446278 0.074907
0.176587 0.445701 0.074330
0.210096 0.445124 0.073753
0.243604 0.444547 0.073176
0.277113 0.443970 0.072599
0.310622 0.443393 0.072022
0.344131 0.442817 0.071446
0.377639 0.442240 0.070869
0.411148 0.441663 0.070292
0.444657 0.441086 0.069715
0.478166 0.440509 0.069138
0.511674 0.439932 0.068561
0.545183 0.439355 0.067984
0.578692 0.438778 0.067407
0.612201 0.438202 0.066831
0.645709 0.437625 0.066254
0.679218 0.437048 0.065677
0.712727 0.436471 0.065100
0.746236 0.435894 0.064523
0.779744 0.435317 0.063946
0.813253 0.434740 0.063369
0.846762 0.434163 0.062792
0.880270 0.433586 0.062215
0.913779 0.433010 0.061639
0.947288 0.432433 0.061062
0.980797 0.431856 0.060485
1.000000 0.431279 0.059908
1.000000 0.430702 0.059331
1.000000 0.430125 0.058754
1.000000 0.429548 0.058177
1.000000 0.428971 0.057600
0.074939 0.480071 0.074939
0.108448 0.479494 0.074362
0.141956 0.478917 0.073785
0.175465 0.478340 0.073208
0.208974 0.477763 0.072631
0.242483 0.477186 0.072054
0.275991 0.476610 0.071478
0.309500 0.476033 0.070901
0.343009 0.475456 0.070324
0.376518 0.474879 0.069747
0.410026 0.474302 0.069170
0.443535 0.473725 0.068593
0.477044 0.473148 0.068016
0.510553 0.472571 0.067439
0.544061 0.471995 0.066863
0.577570 0.471418 0.066286
0.611079 0.470841 0.065709
0.644587 0.470264 0.065132
0.678096 0.469687 0.064555
0.711605 0.469110 0.063978
0.745114 0.468533 0.063401
0.778622 0.467956 0.062824
0.812131 0.467379 0.062247
0.845640 0.466803 0.061671
0.879149 0.466226 0.061094
0.912657 0.465649 0.060517
0.946166 0.465072 0.059940
0.979675 0.464495 0.059363
1.000000 0.463918 0.058786
1.000000 0.463341 0.058209
1.000000 0.462764 0.057632
1.000000 0.462188 0.057056
1.000000 0.461611 0.056479
0.073817 0.512710 0.073817
0.107326 0.512133 0.073240
0.140835 0.511556 0.072663
0.174343 0.510979 0.072086
0.207852 0.510403 0.071510
0.241361 0.509826 0.070933
0.274870 0.509249 0.070356
0.308378 0.508672 0.069779
0.341887 0.508095 0.069202
0.375396 0.507518 0.068625
0.408905 0.506941 0.068048
0.442413 0.506364 0.067471
0.475922 0.505788 0.066895
0.509431 0.505211 0.066318
0.542939 0.504634 0.065741
0.576448 0.504057 0.065164
0.609957 0.503480 0.064587
0.643466 0.502903 0.064010
0.676974 0.502326 0.063433
0.710483 0.501749 0.062856
0.743992 0.501172 0.062279
0.777501 0.500596 0.061703
0.811009 0.500019 0.061126
0.844518 0.499442 0.060549
0.878027 0.498865 0.059972
0.911536 0.498288 0.059395
0.945044 0.497711 0.058818
0.978553 0.497134 0.058241
1.000000 0.496557 0.057664
1.000000 0.495981 0.057088
1.000000 0.495404 0.056511
1.000000 0.494827 0.055934
1.000000 0.494250 0.055357
0.072695 0.545349 0.072695
0.106204 0.544772 0.072118
0.139713 0.544196 0.071542
0.173222 0.543619 0.070965
0.206730 0.543042 0.070388
0.240239 0.542465 0.069811
0.273748 0.541888 0.069234
0.307257 0.541311 0.068657
0.340765 0.540734 0.068080
0.374274 0.540157 0.067503
0.407783 0.539581 0.066927
0.441292 0.539004 0.066350
0.474800 0.538427 0.065773
0.508309 0.537850 0.065196
0.541818 0.537273 0.064619
0.575327 0.536696 0.064042
0.608835 0.536119 0.063465
0.642344 0.535542 0.062888
0.675853 0.534965 0.062311
0.709361 0.534389 0.061735
0.742870 0.533812 0.061158
0.776379 0.533235 0.060581
0.809888 0.532658 0.060004
0.843396 0.532081 0.059427
0.876905 0.531504 0.058850
0.910414 0.530927 0.058273
0.943923 0.530350 0.057696
0.977431 0.529774 0.057120
1.000000 0.529197 0.056543
1.000000 0.528620 0.055966
1.000000 0.528043 0.055389
1.000000 0.527466 0.054812
1.000000 0.526889 0.054235
0.071574 0.577989 0.071574
0.105082 0.577412 0.070997
0.138591 0.576835 0.070420
0.172100 0.576258 0.069843
0.205609 0.575681 0.069266
0.239117 0.575104 0.068689
0.272626 0.574527 0.068112
0.306135 0.573950 0.067535
0.339644 0.573374 0.066959
0.373152 0.572797 0.066382
0.406661 0.572220 0.065805
0.440170 0.571643 0.065228
0.473679 0.571066 0.064651
0.507187 0.570489 0.064074
0.540696 0.569912 0.063497
0.574205 0.569335 0.062920
0.607713 0.568759 0.062343
0.641222 0.568182 0.061767
0.674731 0.567605 0.061190
0.708240 0.567028 0.060613
0.741748 0.566451 0.060036
0.775257 0.565874 0.059459
0.808766 0.565297 0.058882
0.842275 0.564720 0.058305
0.875783 0.564143 0.057728
0.909292 0.563567 0.057152
0.942801 0.562990 0.056575
0.976310 0.562413 0.055998
1.000000 0.561836 0.055421
1.000000 0.561259 0.054844
1.000000 0.560682 0.054267
1.000000 0.560105 0.053690
1.000000 0.559528 0.053113
0.070452 0.610628 0.070452
0.103961 0.610051 0.069875
0.137469 0.609474 0.069298
0.170978 0.608897 0.068721
0.204487 0.608320 0.068144
0.237996 0.607743 0.067567
0.271504 0.607167 0.066991
0.305013 0.606590 0.066414
0.338522 0.606013 0.065837
0.372031 0.605436 0.065260
0.405539 0.604859 0.064683
0.439048 0.604282 0.064106
0.472557 0.603705 0.063529
0.506066 0.603128 0.062952
0.539574 0.602552 0.062376
0.573083 0.601975 0.061799
0.606592 0.601398 0.061222
0.640100 0.600821 0.060645
0.673609 0.600244 0.060068
0.707118 0.599667 0.059491
0.740627 0.599090 0.058914
0.774135 0.598513 0.058337
0.807644 0.597936 0.057760
0.841153 0.597360 0.057184
0.874662 0.596783 0.056607
0.908170 0.596206 0.056030
0.941679 0.595629 0.055453
0.975188 0.595052 0.054876
1.000000 0.594475 0.054299
1.000000 0.593898 0.053722
1.000000 0.593321 0.053145
1.000000 0.592745 0.052568
1.000000 0.592168 0.051992
0.069330 0.643267 0.069330
0.102839 0.642690 0.068753
0.136348 0.642113 0.068176
0.169856 0.641537 0.067599
0.203365 0.640960 0.067023
0.236874 0.640383 0.066446
0.270383 0.639806 0.065869
0.303891 0.639229 0.065292
0.337400 0.638652 0.064715
0.370909 0.638075 0.064138
0.404418 0.637498 0.063561
0.437926 0.636921 0.062984
0.471435 0.636345 0.062408
0.504944 0.635768 0.061831
0.538452 0.635191 0.061254
0.571961 0.634614 0.060677
0.605470 0.634037 0.060100
0.638979 0.633460 0.059523
0.672487 0.632883 0.058946
0.705996 0.632306 0.058369
0.739505 0.631729 0.057792
0.773014 0.631153 0.057216
0.806522 0.630576 0.056639
0.840031 0.629999 0.056062
0.873540 0.629422 0.055485
0.907049 0.628845 0.054908
0.940557 0.628268 0.054331
0.974066 0.627691 0.053754
1.000000 0.627114 0.053177
1.000000 0.626538 0.052600
1.000000 0.625961 0.052024
1.000000 0.625384 0.051447
1.000000 0.624807 0.050870
0.068208 0.675906 0.068208
0.101717 0.675329 0.067631
0.135226 0.674753 0.067055
0.168735 0.674176 0.066478
0.202243 0.673599 0.065901
0.235752 0.673022 0.065324
0.269261 0.672445 0.064747
0.302770 0.671868 0.064170
0.336278 0.671291 0.063593
0.369787 0.670714 0.063016
0.403296 0.670137 0.062440
0.436804 0.669561 0.061863
0.470313 0.668984 0.061286
0.503822 0.668407 0.060709
0.537331 0.667830 0.060132
0.570839 0.667253 0.059555
0.604348 0.666676 0.058978
0.637857 0.666099 0.058401
0.671366 0.665522 0.057824
0.704874 0.664946 0.057248
0.738383 0.664369 0.056671
0.771892 0.663792 0.056094
0.805401 0.663215 0.055517
0.838909 0.662638 0.054940
0.872418 0.662061 0.054363
0.905927 0.661484 0.053786
0.939436 0.660907 0.053209
0.972944 0.660330 0.052633
1.000000 0.659754 0.052056
1.000000 0.659177 0.051479
1.000000 0.658600 0.050902
1.000000 0.658023 0.050325
1.000000 0.657446 0.049748
0.067087 0.708546 0.067087
0.100595 0.707969 0.066510
0.134104 0.707392 0.065933
0.167613 0.706815 0.065356
0.201122 0.706238 0.064779
0.234630 0.705661 0.064202
0.268139 0.705084 0.063625
0.301648 0.704507 0.063048
0.335157 0.703930 0.062472
0.368665 0.703354 0.061895
0.402174 0.702777 0.061318
0.435683 0.702200 0.060741
0.469192 0.701623 0.060164
0.502700 0.701046 0.059587
0.536209 0.700469 0.059010
0.569718 0.699892 0.058433
0.603226 0.699315 0.057856
0.636735 0.698739 0.057280
0.670244 0.698162 0.056703
0.703753 0.697585 0.056126
0.737261 0.697008 0.055549
0.770770 0.696431 0.054972
0.804279 0.695854 0.054395
0.837788 0.695277 0.053818
0.871296 0.694700 0.053241
0.904805 0.694123 0.052665
0.938314 0.693547 0.052088
0.971823 0.692970 0.051511
1.000000 0.692393 0.050934
1.000000 0.691816 0.050357
1.000000 0.691239 0.049780
1.000000 0.690662 0.049203
1.000000 0.690085 0.048626
0.065965 0.741185 0.065965
0.099474 0.740608 0.065388
0.132982 0.740031 0.064811
0.166491 0.739454 0.064234
0.200000 0.738877 0.063657
0.233509 0.738300 0.063080
0.267017 0.737724 0.062504
0.300526 0.737147 0.061927
0.334035 0.736570 0.061350
0.367544 0.735993 0.060773
0.401052 0.735416 0.060196
0.434561 0.734839 0.059619
0.468070 0.734262 0.059042
0.501578 0.733685 0.058465
0.535087 0.733108 0.057888
0.568596 0.732532 0.057312
0.602105 0.731955 0.056735
0.635613 0.731378 0.056158
0.669122 0.730801 0.055581
0.702631 0.730224 0.055004
0.736140 0.729647 0.054427
0.769648 0.729070 0.053850
0.803157 0.728493 0.053273
0.836666 0.727917 0.052697
0.870175 0.727340 0.052120
0.903683 0.726763 0.051543
0.937192 0.726186 0.050966
0.970701 0.725609 0.050389
1.000000 0.725032 0.049812
1.000000 0.724455 0.049235
1.000000 0.723878 0.048658
1.000000 0.723301 0.048081
1.000000 0.722725 0.047505
0.064843 0.773824 0.064843
0.098352 0.773247 0.064266
0.131861 0.772670 0.063689
0.165369 0.772093 0.063112
0.198878 0.771517 0.062536
0.232387 0.770940 0.061959
0.265896 0.770363 0.061382
0.299404 0.769786 0.060805
0.332913 0.769209 0.060228
0.366422 0.768632 0.059651
0.399930 0.768055 0.059074
0.433439 0.767478 0.058497
0.466948 0.766901 0.057920
0.500457 0.766325 0.057344
0.533965 0.765748 0.056767
0.567474 0.765171 0.056190
0.600983 0.764594 0.055613
0.634492 0.764017 0.055036
0.668000 0.763440 0.054459
0.701509 0.762863 0.053882
0.735018 0.762286 0.053305
0.768527 0.761710 0.052729
0.802035 0.761133 0.052152
0.835544 0.760556 0.051575
0.869053 0.759979 0.050998
0.902562 0.759402 0.050421
0.936070 0.758825 0.049844
0.969579 0.758248 0.049267
1.000000 0.757671 0.048690
1.000000 0.757094 0.048113
1.000000 0.756518 0.047537
1.000000 0.755941 0.046960
1.000000 0.755364 0.046383
0.063721 0.806463 0.063721
0.097230 0.805886 0.063144
0.130739 0.805310 0.062568
0.164248 0.804733 0.061991
0.197756 0.804156 0.061414
0.231265 0.803579 0.060837
0.264774 0.803002 0.060260
0.298283 0.802425 0.059683
0.331791 0.801848 0.059106
0.365300 0.801271 0.058529
0.398809 0.800694 0.057952
0.432317 0.800118 0.057376
0.465826 0.799541 0.056799
0.499335 0.798964 0.056222
0.532844 0.798387 0.055645
0.566352 0.797810 0.055068
0.599861 0.797233 0.054491
0.633370 0.796656 0.053914
0.666879 0.796079 0.053337
0.700387 0.795502 0.052761
0.733896 0.794926 0.052184
0.767405 0.794349 0.051607
0.800914 0.793772 0.051030
0.834422 0.793195 0.050453
0.867931 0.792618 0.049876
0.901440 0.792041 0.049299
0.934949 0.791464 0.048722
0.968457 0.790887 0.048145
1.000000 0.790311 0.047569
1.000000 0.789734 0.046992
1.000000 0.789157 0.046415
1.000000 0.788580 0.045838
1.000000 0.788003 0.045261
0.062600 0.839102 0.062600
0.096108 0.838526 0.062023
0.129617 0.837949 0.061446
0.163126 0.837372 0.060869
0.196635 0.836795 0.060292
0.230143 0.836218 0.059715
0.263652 0.835641 0.059138
0.297161 0.835064 0.058561
0.330669 0.834487 0.057985
0.364178 0.833911 0.057408
0.397687 0.833334 0.056831
0.431196 0.832757 0.056254
0.464704 0.832180 0.055677
0.498213 0.831603 0.055100
0.531722 0.831026 0.054523
0.565231 0.830449 0.053946
0.598739 0.829872 0.053369
0.632248 0.829295 0.052793
0.665757 0.828719 0.052216
0.699266 0.828142 0.051639
0.732774 0.827565 0.051062
0.766283 0.826988 0.050485
0.799792 0.826411 0.049908
0.833301 0.825834 0.049331
0.866809 0.825257 0.048754
0.900318 0.824680 0.048177
0.933827 0.824104 0.047601
0.967336 0.823527 0.047024
1.000000 0.822950 0.046447
1.000000 0.822373 0.045870
1.000000 0.821796 0.045293
1.000000 0.821219 0.044716
1.000000 0.820642 0.044139
0.061478 0.871742 0.061478
0.094987 0.871165 0.060901
0.128495 0.870588 0.060324
0.162004 0.870011 0.059747
0.195513 0.869434 0.059170
0.229022 0.868857 0.058593
0.262530 0.868280 0.058017
0.296039 0.867704 0.057440
0.329548 0.867127 0.056863
0.363057 0.866550 0.056286
0.396565 0.865973 0.055709
0.430074 0.865396 0.055132
0.463583 0.864819 0.054555
0.497091 0.864242 0.053978
0.530600 0.863665 0.053401
0.564109 0.863089 0.052825
0.597618 0.862512 0.052248
0.631126 0.861935 0.051671
0.664635 0.861358 0.051094
0.698144 0.860781 0.050517
0.731653 0.860204 0.049940
0.765161 0.859627 0.049363
0.798670 0.859050 0.048786
0.832179 0.858473 0.048209
0.865688 0.857897 0.047633
0.899196 0.857320 0.047056
0.932705 0.856743 0.046479
0.966214 0.856166 0.045902
0.999722 0.855589 0.045325
1.000000 0.855012 0.044748
1.000000 0.854435 0.044171
1.000000 0.853858 0.043594
1.000000 0.853282 0.043018
0.060356 0.904381 0.060356
0.093865 0.903804 0.059779
0.127374 0.903227 0.059202
0.160882 0.902650 0.058625
0.194391 0.902074 0.058049
0.227900 0.901497 0.057472
0.261409 0.900920 0.056895
0.294917 0.900343 0.056318
0.328426 0.899766 0.055741
0.361935 0.899189 0.055164
0.395443 0.898612 0.054587
0.428952 0.898035 0.054010
0.462461 0.897458 0.053433
0.495970 0.896882 0.052857
0.529478 0.896305 0.052280
0.562987 0.895728 0.051703
0.596496 0.895151 0.051126
0.630005 0.894574 0.050549
0.663513 0.893997 0.049972
0.697022 0.893420 0.049395
0.730531 0.892843 0.048818
0.764040 0.892267 0.048242
0.797548 0.891690 0.047665
0.831057 0.891113 0.047088
0.864566 0.890536 0.046511
0.898075 0.889959 0.045934
0.931583 0.889382 0.045357
0.965092 0.888805 0.044780
0.998601 0.888228 0.044203
1.000000 0.887651 0.043626
1.000000 0.887075 0.043050
1.000000 0.886498 0.042473
1.000000 0.885921 0.041896
0.059234 0.937020 0.059234
0.092743 0.936443 0.058657
0.126252 0.935867 0.058081
0.159761 0.935290 0.057504
0.193269 0.934713 0.056927
0.226778 0.934136 0.056350
0.260287 0.933559 0.055773
0.293795 0.932982 0.055196
0.327304 0.932405 0.054619
0.360813 0.931828 0.054042
0.394322 0.931251 0.053465
0.427830 0.930675 0.052889
0.461339 0.930098 0.052312
0.494848 0.929521 0.051735
0.528357 0.928944 0.051158
0.561865 0.928367 0.050581
0.595374 0.927790 0.050004
0.628883 0.927213 0.049427
0.662392 0.926636 0.048850
0.695900 0.926060 0.048274
0.729409 0.925483 0.047697
0.762918 0.924906 0.047120
0.796427 0.924329 0.046543
0.829935 0.923752 0.045966
0.863444 0.923175 0.045389
0.896953 0.922598 0.044812
0.930462 0.922021 0.044235
0.963970 0.921444 0.043658
0.997479 0.920868 0.043082
