assets/luts/primelive_jiepai.cube
TITLE "primelive_jiepai"
LUT_3D_SIZE 5
0.000000 0.000000 0.000000
0.287388 0.000000 0.000000
0.672775 0.000000 0.000000
1.000000 0.000000 0.000000
1.000000 0.000000 0.000000
0.000000 0.260882 0.000000
0.248469 0.240670 0.000000
0.633857 0.220457 0.000000
1.000000 0.200245 0.000000
1.000000 0.180032 0.000000
0.000000 0.619764 0.000000
0.209551 0.599551 0.000000
0.594939 0.579339 0.000000
0.980327 0.559127 0.000000
1.000000 0.538914 0.000000
0.000000 0.978646 0.000000
0.170633 0.958433 0.000000
0.556021 0.938221 0.000000
0.941409 0.918008 0.000000
1.000000 0.897796 0.000000
0.000000 1.000000 0.000000
0.131715 1.000000 0.000000
0.517103 1.000000 0.000000
0.902490 1.000000 0.000000
1.000000 1.000000 0.000000
0.000000 0.000000 0.292242
0.279829 0.000000 0.272029
0.665217 0.000000 0.251817
1.000000 0.000000 0.231605
1.000000 0.000000 0.211392
0.000000 0.253324 0.253324
0.240911 0.233111 0.233111
0.626299 0.212899 0.212899
1.000000 0.192687 0.192687
1.000000 0.172474 0.172474
0.000000 0.612206 0.214406
0.201993 0.591993 0.194193
0.587381 0.571781 0.173981
0.972768 0.551568 0.153768
1.000000 0.531356 0.133556
0.000000 0.971087 0.175488
0.163075 0.950875 0.155275
0.548463 0.930663 0.135063
0.933850 0.910450 0.114850
1.000000 0.890238 0.094638
0.000000 1.000000 0.136569
0.124157 1.000000 0.116357
0.509545 1.000000 0.096145
0.894932 1.000000 0.075932
1.000000 1.000000 0.055720
0.000000 0.000000 0.682484
0.272271 0.000000 0.662271
0.657659 0.000000 0.642059
1.000000 0.000000 0.621846
1.000000 0.000000 0.601634
0.000000 0.245766 0.643565
0.233353 0.225553 0.623353
0.618741 0.205341 0.603141
1.000000 0.185128 0.582928
1.000000 0.164916 0.562716
0.000000 0.604647 0.604647
0.194435 0.584435 0.584435
0.579823 0.564223 0.564223
0.965210 0.544010 0.544010
1.000000 0.523798 0.523798
0.000000 0.963529 0.565729
0.155517 0.943317 0.545517
0.540905 0.923104 0.525304
0.926292 0.902892 0.505092
1.000000 0.882680 0.484880
0.000000 1.000000 0.526811
0.116599 1.000000 0.506599
0.501986 1.000000 0.486386
0.887374 1.000000 0.466174
1.000000 1.000000 0.445962
0.000000 0.000000 1.000000
0.264713 0.000000 1.000000
0.650101 0.000000 1.000000
1.000000 0.000000 1.000000
1.000000 0.000000 0.991876
0.000000 0.238207 1.000000
0.225795 0.217995 1.000000
0.611183 0.197783 0.993382
0.996570 0.177570 0.973170
1.000000 0.157358 0.952958
0.000000 0.597089 0.994889
0.186877 0.576877 0.974677
0.572264 0.556664 0.954464
0.957652 0.536452 0.934252
1.000000 0.516240 0.914040
0.000000 0.955971 0.955971
0.147959 0.935759 0.935759
0.533346 0.915546 0.915546
0.918734 0.895334 0.895334
1.000000 0.875121 0.875121
0.000000 1.000000 0.917053
0.109041 1.000000 0.896841
0.494428 1.000000 0.876628
0.879816 1.000000 0.856416
1.000000 1.000000 0.836203
0.000000 0.000000 1.000000
0.257155 0.000000 1.000000
0.642542 0.000000 1.000000
1.000000 0.000000 1.000000
1.000000 0.000000 1.000000
0.000000 0.230649 1.000000
0.218237 0.210437 1.000000
0.603624 0.190224 1.000000
0.989012 0.170012 1.000000
1.000000 0.149800 1.000000
0.000000 0.589531 1.000000
0.179319 0.569319 1.000000
0.564706 0.549106 1.000000
0.950094 0.528894 1.000000
1.000000 0.508681 1.000000
0.000000 0.948413 1.000000
0.140400 0.928200 1.000000
0.525788 0.907988 1.000000
0.911176 0.887776 1.000000
1.000000 0.867563 1.000000
0.000000 1.000000 1.000000
0.101482 1.000000 1.000000
0.486870 1.000000 1.000000
0.872258 1.000000 1.000000
1.000000 1.000000 1.000000
