assets/luts/primelive_shuiguang.cube
TITLE "primelive_shuiguang"
LUT_3D_SIZE 9
0.006629 0.006629 0.006701
0.150685 0.003422 0.003934
0.294741 0.000216 0.001168
0.438796 0.000000 0.000000
0.582852 0.000000 0.000000
0.726907 0.000000 0.000000
0.870963 0.000000 0.000000
1.000000 0.000000 0.000000
1.000000 0.000000 0.000000
0.000272 0.148978 0.001216
0.144327 0.145771 0.000000
0.288383 0.142564 0.000000
0.432439 0.139358 0.000000
0.576494 0.136151 0.000000
0.720550 0.132944 0.000000
0.864606 0.129737 0.000000
1.000000 0.126530 0.000000
1.000000 0.123323 0.000000
0.000000 0.291327 0.000000
0.137970 0.288120 0.000000
0.282026 0.284913 0.000000
0.426081 0.281706 0.000000
0.570137 0.278499 0.000000
0.714193 0.275293 0.000000
0.858248 0.272086 0.000000
1.000000 0.268879 0.000000
1.000000 0.265672 0.000000
0.000000 0.433676 0.000000
0.131613 0.430469 0.000000
0.275668 0.427262 0.000000
0.419724 0.424055 0.000000
0.563779 0.420848 0.000000
0.707835 0.417641 0.000000
0.851891 0.414435 0.000000
0.995946 0.411228 0.000000
1.000000 0.408021 0.000000
0.000000 0.576024 0.000000
0.125255 0.572818 0.000000
0.269311 0.569611 0.000000
0.413366 0.566404 0.000000
0.557422 0.563197 0.000000
0.701478 0.559990 0.000000
0.845533 0.556783 0.000000
0.989589 0.553576 0.000000
1.000000 0.550370 0.000000
0.000000 0.718373 0.000000
0.118898 0.715166 0.000000
0.262953 0.711959 0.000000
0.407009 0.708753 0.000000
0.551065 0.705546 0.000000
0.695120 0.702339 0.000000
0.839176 0.699132 0.000000
0.983232 0.695925 0.000000
1.000000 0.692718 0.000000
0.000000 0.860722 0.000000
0.112540 0.857515 0.000000
0.256596 0.854308 0.000000
0.400651 0.851101 0.000000
0.544707 0.847895 0.000000
0.688763 0.844688 0.000000
0.832818 0.841481 0.000000
0.976874 0.838274 0.000000
1.000000 0.835067 0.000000
0.000000 1.000000 0.000000
0.106183 0.999864 0.000000
0.250238 0.996657 0.000000
0.394294 0.993450 0.000000
0.538350 0.990243 0.000000
0.682405 0.987037 0.000000
0.826461 0.983830 0.000000
0.970517 0.980623 0.000000
1.000000 0.977416 0.000000
0.000000 1.000000 0.000000
0.099825 1.000000 0.000000
0.243881 1.000000 0.000000
0.387937 1.000000 0.000000
0.531992 1.000000 0.000000
0.676048 1.000000 0.000000
0.820103 1.000000 0.000000
0.964159 1.000000 0.000000
1.000000 1.000000 0.000000
0.005383 0.005383 0.155775
0.149438 0.002176 0.153009
0.293494 0.000000 0.150242
0.437550 0.000000 0.147476
0.581605 0.000000 0.144709
0.725661 0.000000 0.141943
0.869716 0.000000 0.139176
1.000000 0.000000 0.136410
1.000000 0.000000 0.133643
0.000000 0.147731 0.150291
0.143081 0.144525 0.147524
0.287136 0.141318 0.144758
0.431192 0.138111 0.141991
0.575248 0.134904 0.139225
0.719303 0.131697 0.136458
0.863359 0.128490 0.133692
1.000000 0.125283 0.130925
1.000000 0.122077 0.128158
0.000000 0.290080 0.144806
0.136723 0.286873 0.142040
0.280779 0.283667 0.139273
0.424835 0.280460 0.136507
0.568890 0.277253 0.133740
0.712946 0.274046 0.130973
0.857002 0.270839 0.128207
1.000000 0.267632 0.125440
1.000000 0.264425 0.122674
0.000000 0.432429 0.139322
0.130366 0.429222 0.136555
0.274422 0.426015 0.133789
0.418477 0.422808 0.131022
0.562533 0.419602 0.128255
0.706588 0.416395 0.125489
0.850644 0.413188 0.122722
0.994700 0.409981 0.119956
1.000000 0.406774 0.117189
0.000000 0.574778 0.133837
0.124008 0.571571 0.131071
0.268064 0.568364 0.128304
0.412120 0.565157 0.125537
0.556175 0.561950 0.122771
0.700231 0.558744 0.120004
0.844287 0.555537 0.117238
0.988342 0.552330 0.114471
1.000000 0.549123 0.111705
0.000000 0.717127 0.128353
0.117651 0.713920 0.125586
0.261707 0.710713 0.122819
0.405762 0.707506 0.120053
0.549818 0.704299 0.117286
0.693874 0.701092 0.114520
0.837929 0.697885 0.111753
0.981985 0.694679 0.108987
1.000000 0.691472 0.106220
0.000000 0.859475 0.122868
0.111294 0.856268 0.120101
0.255349 0.853062 0.117335
0.399405 0.849855 0.114568
0.543460 0.846648 0.111802
0.687516 0.843441 0.109035
0.831572 0.840234 0.106269
0.975627 0.837027 0.103502
1.000000 0.833820 0.100736
0.000000 1.000000 0.117383
0.104936 0.998617 0.114617
0.248992 0.995410 0.111850
0.393047 0.992204 0.109084
0.537103 0.988997 0.106317
0.681159 0.985790 0.103551
0.825214 0.982583 0.100784
0.969270 0.979376 0.098018
1.000000 0.976169 0.095251
0.000000 1.000000 0.111899
0.098579 1.000000 0.109132
0.242634 1.000000 0.106366
0.386690 1.000000 0.103599
0.530746 1.000000 0.100833
0.674801 1.000000 0.098066
0.818857 1.000000 0.095300
0.962912 1.000000 0.092533
1.000000 1.000000 0.089767
0.004136 0.004136 0.304850
0.148192 0.000929 0.302083
0.292247 0.000000 0.299317
0.436303 0.000000 0.296550
0.580358 0.000000 0.293784
0.724414 0.000000 0.291017
0.868470 0.000000 0.288251
1.000000 0.000000 0.285484
1.000000 0.000000 0.282717
0.000000 0.146485 0.299365
0.141834 0.143278 0.296599
0.285890 0.140071 0.293832
0.429945 0.136864 0.291066
0.574001 0.133657 0.288299
0.718057 0.130450 0.285533
0.862112 0.127244 0.282766
1.000000 0.124037 0.279999
1.000000 0.120830 0.277233
0.000000 0.288834 0.293881
0.135477 0.285627 0.291114
0.279532 0.282420 0.288348
0.423588 0.279213 0.285581
0.567644 0.276006 0.282815
0.711699 0.272799 0.280048
0.855755 0.269592 0.277281
0.999811 0.266386 0.274515
1.000000 0.263179 0.271748
0.000000 0.431182 0.288396
0.129119 0.427975 0.285630
0.273175 0.424769 0.282863
0.417231 0.421562 0.280097
0.561286 0.418355 0.277330
0.705342 0.415148 0.274563
0.849397 0.411941 0.271797
0.993453 0.408734 0.269030
1.000000 0.405528 0.266264
0.000000 0.573531 0.282912
0.122762 0.570324 0.280145
0.266817 0.567117 0.277379
0.410873 0.563911 0.274612
0.554929 0.560704 0.271845
0.698984 0.557497 0.269079
0.843040 0.554290 0.266312
0.987096 0.551083 0.263546
1.000000 0.547876 0.260779
0.000000 0.715880 0.277427
0.116404 0.712673 0.274661
0.260460 0.709466 0.271894
0.404516 0.706259 0.269127
0.548571 0.703052 0.266361
0.692627 0.699846 0.263594
0.836683 0.696639 0.260828
0.980738 0.693432 0.258061
1.000000 0.690225 0.255295
0.000000 0.858229 0.271943
0.110047 0.855022 0.269176
0.254103 0.851815 0.266409
0.398158 0.848608 0.263643
0.542214 0.845401 0.260876
0.686269 0.842194 0.258110
0.830325 0.838988 0.255343
0.974381 0.835781 0.252577
1.000000 0.832574 0.249810
0.000000 1.000000 0.266458
0.103689 0.997371 0.263691
0.247745 0.994164 0.260925
0.391801 0.990957 0.258158
0.535856 0.987750 0.255392
0.679912 0.984543 0.252625
0.823968 0.981336 0.249859
0.968023 0.978129 0.247092
1.000000 0.974923 0.244326
0.000000 1.000000 0.260973
0.097332 1.000000 0.258207
0.241388 1.000000 0.255440
0.385443 1.000000 0.252674
0.529499 1.000000 0.249907
0.673555 1.000000 0.247141
0.817610 1.000000 0.244374
0.961666 1.000000 0.241608
1.000000 1.000000 0.238841
0.002889 0.002889 0.453924
0.146945 0.000000 0.451158
0.291001 0.000000 0.448391
0.435056 0.000000 0.445625
0.579112 0.000000 0.442858
0.723167 0.000000 0.440092
0.867223 0.000000 0.437325
1.000000 0.000000 0.434559
1.000000 0.000000 0.431792
0.000000 0.145238 0.448440
0.140588 0.142031 0.445673
0.284643 0.138824 0.442907
0.428699 0.135618 0.440140
0.572754 0.132411 0.437374
0.716810 0.129204 0.434607
0.860866 0.125997 0.431841
1.000000 0.122790 0.429074
1.000000 0.119583 0.426307
0.000000 0.287587 0.442955
0.134230 0.284380 0.440189
0.278286 0.281173 0.437422
0.422341 0.277966 0.434656
0.566397 0.274760 0.431889
0.710453 0.271553 0.429123
0.854508 0.268346 0.426356
0.998564 0.265139 0.423589
1.000000 0.261932 0.420823
0.000000 0.429936 0.437471
0.127873 0.426729 0.434704
0.271928 0.423522 0.431938
0.415984 0.420315 0.429171
0.560039 0.417108 0.426405
0.704095 0.413901 0.423638
0.848151 0.410695 0.420871
0.992206 0.407488 0.418105
1.000000 0.404281 0.415338
0.000000 0.572284 0.431986
0.121515 0.569078 0.429220
0.265571 0.565871 0.426453
0.409626 0.562664 0.423687
0.553682 0.559457 0.420920
0.697738 0.556250 0.418153
0.841793 0.553043 0.415387
0.985849 0.549836 0.412620
1.000000 0.546630 0.409854
0.000000 0.714633 0.426502
0.115158 0.711426 0.423735
0.259213 0.708219 0.420969
0.403269 0.705013 0.418202
0.547325 0.701806 0.415435
0.691380 0.698599 0.412669
0.835436 0.695392 0.409902
0.979492 0.692185 0.407136
1.000000 0.688978 0.404369
0.000000 0.856982 0.421017
0.108800 0.853775 0.418251
0.252856 0.850568 0.415484
0.396912 0.847361 0.412717
0.540967 0.844155 0.409951
0.685023 0.840948 0.407184
0.829078 0.837741 0.404418
0.973134 0.834534 0.401651
1.000000 0.831327 0.398885
0.000000 0.999331 0.415533
0.102443 0.996124 0.412766
0.246498 0.992917 0.409999
0.390554 0.989710 0.407233
0.534610 0.986503 0.404466
0.678665 0.983297 0.401700
0.822721 0.980090 0.398933
0.966777 0.976883 0.396167
1.000000 0.973676 0.393400
0.000000 1.000000 0.410048
0.096085 1.000000 0.407281
0.240141 1.000000 0.404515
0.384197 1.000000 0.401748
0.528252 1.000000 0.398982
0.672308 1.000000 0.396215
0.816364 1.000000 0.393449
0.960419 1.000000 0.390682
1.000000 1.000000 0.387916
0.001643 0.001643 0.602999
0.145698 0.000000 0.600232
0.289754 0.000000 0.597466
0.433810 0.000000 0.594699
0.577865 0.000000 0.591933
0.721921 0.000000 0.589166
0.865976 0.000000 0.586400
1.000000 0.000000 0.583633
1.000000 0.000000 0.580866
0.000000 0.143991 0.597514
0.139341 0.140785 0.594748
0.283396 0.137578 0.591981
0.427452 0.134371 0.589215
0.571508 0.131164 0.586448
0.715563 0.127957 0.583682
0.859619 0.124750 0.580915
1.000000 0.121543 0.578148
1.000000 0.118337 0.575382
0.000000 0.286340 0.592030
0.132983 0.283133 0.589263
0.277039 0.279927 0.586497
0.421095 0.276720 0.583730
0.565150 0.273513 0.580964
0.709206 0.270306 0.578197
0.853262 0.267099 0.575430
0.997317 0.263892 0.572664
1.000000 0.260685 0.569897
0.000000 0.428689 0.586545
0.126626 0.425482 0.583779
0.270682 0.422275 0.581012
0.414737 0.419068 0.578246
0.558793 0.415862 0.575479
0.702848 0.412655 0.572712
0.846904 0.409448 0.569946
0.990960 0.406241 0.567179
1.000000 0.403034 0.564413
0.000000 0.571038 0.581061
0.120269 0.567831 0.578294
0.264324 0.564624 0.575528
0.408380 0.561417 0.572761
0.552435 0.558210 0.569994
0.696491 0.555004 0.567228
0.840547 0.551797 0.564461
0.984602 0.548590 0.561695
1.000000 0.545383 0.558928
0.000000 0.713387 0.575576
0.113911 0.710180 0.572810
0.257967 0.706973 0.570043
0.402022 0.703766 0.567276
0.546078 0.700559 0.564510
0.690134 0.697352 0.561743
0.834189 0.694145 0.558977
0.978245 0.690939 0.556210
1.000000 0.687732 0.553444
0.000000 0.855735 0.570091
0.107554 0.852529 0.567325
0.251609 0.849322 0.564558
0.395665 0.846115 0.561792
0.539720 0.842908 0.559025
0.683776 0.839701 0.556259
0.827832 0.836494 0.553492
0.971887 0.833287 0.550726
1.000000 0.830081 0.547959
0.000000 0.998084 0.564607
0.101196 0.994877 0.561840
0.245252 0.991670 0.559074
0.389307 0.988464 0.556307
0.533363 0.985257 0.553541
0.677419 0.982050 0.550774
0.821474 0.978843 0.548008
0.965530 0.975636 0.545241
1.000000 0.972429 0.542475
0.000000 1.000000 0.559122
0.094839 1.000000 0.556356
0.238894 1.000000 0.553589
0.382950 1.000000 0.550823
0.527006 1.000000 0.548056
0.671061 1.000000 0.545290
0.815117 1.000000 0.542523
0.959173 1.000000 0.539757
1.000000 1.000000 0.536990
0.000396 0.000396 0.752073
0.144452 0.000000 0.749307
0.288507 0.000000 0.746540
0.432563 0.000000 0.743774
0.576619 0.000000 0.741007
0.720674 0.000000 0.738241
0.864730 0.000000 0.735474
1.000000 0.000000 0.732708
1.000000 0.000000 0.729941
0.000000 0.142745 0.746589
0.138094 0.139538 0.743822
0.282150 0.136331 0.741056
0.426205 0.133124 0.738289
0.570261 0.129917 0.735523
0.714317 0.126711 0.732756
0.858372 0.123504 0.729990
1.000000 0.120297 0.727223
1.000000 0.117090 0.724456
0.000000 0.285094 0.741104
0.131737 0.281887 0.738338
0.275792 0.278680 0.735571
0.419848 0.275473 0.732805
0.563904 0.272266 0.730038
0.707959 0.269059 0.727272
0.852015 0.265852 0.724505
0.996071 0.262646 0.721738
1.000000 0.259439 0.718972
0.000000 0.427442 0.735620
0.125379 0.424236 0.732853
0.269435 0.421029 0.730087
0.413491 0.417822 0.727320
0.557546 0.414615 0.724554
0.701602 0.411408 0.721787
0.845657 0.408201 0.719020
0.989713 0.404994 0.716254
1.000000 0.401788 0.713487
0.000000 0.569791 0.730135
0.119022 0.566584 0.727369
0.263077 0.563377 0.724602
0.407133 0.560171 0.721835
0.551189 0.556964 0.719069
0.695244 0.553757 0.716302
0.839300 0.550550 0.713536
0.983356 0.547343 0.710769
1.000000 0.544136 0.708003
0.000000 0.712140 0.724651
0.112664 0.708933 0.721884
0.256720 0.705726 0.719117
0.400776 0.702519 0.716351
0.544831 0.699312 0.713584
0.688887 0.696106 0.710818
0.832943 0.692899 0.708051
0.976998 0.689692 0.705285
1.000000 0.686485 0.702518
0.000000 0.854489 0.719166
0.106307 0.851282 0.716399
0.250363 0.848075 0.713633
0.394418 0.844868 0.710866
0.538474 0.841661 0.708100
0.682529 0.838454 0.705333
0.826585 0.835248 0.702567
0.970641 0.832041 0.699800
1.000000 0.828834 0.697034
0.000000 0.996838 0.713681
0.099949 0.993631 0.710915
0.244005 0.990424 0.708148
0.388061 0.987217 0.705382
0.532116 0.984010 0.702615
0.676172 0.980803 0.699849
0.820228 0.977596 0.697082
0.964283 0.974390 0.694316
1.000000 0.971183 0.691549
0.000000 1.000000 0.708197
0.093592 1.000000 0.705430
0.237648 1.000000 0.702664
0.381703 1.000000 0.699897
0.525759 1.000000 0.697131
0.669815 1.000000 0.694364
0.813870 1.000000 0.691598
0.957926 1.000000 0.688831
1.000000 1.000000 0.686065
0.000000 0.000000 0.901148
0.143205 0.000000 0.898381
0.287261 0.000000 0.895615
0.431316 0.000000 0.892848
0.575372 0.000000 0.890082
0.719428 0.000000 0.887315
0.863483 0.000000 0.884549
1.000000 0.000000 0.881782
1.000000 0.000000 0.879015
0.000000 0.141498 0.895663
0.136848 0.138291 0.892897
0.280903 0.135084 0.890130
0.424959 0.131878 0.887364
0.569014 0.128671 0.884597
0.713070 0.125464 0.881831
0.857126 0.122257 0.879064
1.000000 0.119050 0.876297
1.000000 0.115843 0.873531
0.000000 0.283847 0.890179
0.130490 0.280640 0.887412
0.274546 0.277433 0.884646
0.418601 0.274226 0.881879
0.562657 0.271020 0.879112
0.706713 0.267813 0.876346
0.850768 0.264606 0.873579
0.994824 0.261399 0.870813
1.000000 0.258192 0.868046
0.000000 0.426196 0.884694
0.124133 0.422989 0.881928
0.268188 0.419782 0.879161
0.412244 0.416575 0.876394
0.556299 0.413368 0.873628
0.700355 0.410161 0.870861
0.844411 0.406955 0.868095
0.988466 0.403748 0.865328
1.000000 0.400541 0.862562
0.000000 0.568545 0.879210
0.117775 0.565338 0.876443
0.261831 0.562131 0.873676
0.405886 0.558924 0.870910
0.549942 0.555717 0.868143
0.693998 0.552510 0.865377
0.838053 0.549303 0.862610
0.982109 0.546097 0.859844
1.000000 0.542890 0.857077
0.000000 0.710893 0.873725
0.111418 0.707686 0.870958
0.255473 0.704480 0.868192
0.399529 0.701273 0.865425
0.543585 0.698066 0.862659
0.687640 0.694859 0.859892
0.831696 0.691652 0.857126
0.975752 0.688445 0.854359
1.000000 0.685238 0.851593
0.000000 0.853242 0.868240
0.105060 0.850035 0.865474
0.249116 0.846828 0.862707
0.393172 0.843621 0.859941
0.537227 0.840415 0.857174
0.681283 0.837208 0.854408
0.825338 0.834001 0.851641
0.969394 0.830794 0.848875
1.000000 0.827587 0.846108
0.000000 0.995591 0.862756
0.098703 0.992384 0.859989
0.242758 0.989177 0.857223
0.386814 0.985970 0.854456
0.530870 0.982763 0.851690
0.674925 0.979557 0.848923
0.818981 0.976350 0.846157
0.963037 0.973143 0.843390
1.000000 0.969936 0.840624
0.000000 1.000000 0.857271
0.092345 1.000000 0.854505
0.236401 1.000000 0.851738
0.380457 1.000000 0.848972
0.524512 1.000000 0.846205
0.668568 1.000000 0.843439
0.812624 1.000000 0.840672
0.956679 1.000000 0.837906
1.000000 1.000000 0.835139
0.000000 0.000000 1.000000
0.141958 0.000000 1.000000
0.286014 0.000000 1.000000
0.430070 0.000000 1.000000
0.574125 0.000000 1.000000
0.718181 0.000000 1.000000
0.862237 0.000000 1.000000
1.000000 0.000000 1.000000
1.000000 0.000000 1.000000
0.000000 0.140251 1.000000
0.135601 0.137045 1.000000
0.279657 0.133838 1.000000
0.423712 0.130631 1.000000
0.567768 0.127424 1.000000
0.711823 0.124217 1.000000
0.855879 0.121010 1.000000
0.999935 0.117804 1.000000
1.000000 0.114597 1.000000
0.000000 0.282600 1.000000
0.129243 0.279393 1.000000
0.273299 0.276187 1.000000
0.417355 0.272980 1.000000
0.561410 0.269773 1.000000
0.705466 0.266566 1.000000
0.849522 0.263359 1.000000
0.993577 0.260152 1.000000
1.000000 0.256945 1.000000
0.000000 0.424949 1.000000
0.122886 0.421742 1.000000
0.266942 0.418535 1.000000
0.410997 0.415329 1.000000
0.555053 0.412122 1.000000
0.699109 0.408915 1.000000
0.843164 0.405708 1.000000
0.987220 0.402501 1.000000
1.000000 0.399294 1.000000
0.000000 0.567298 1.000000
0.116529 0.564091 1.000000
0.260584 0.560884 1.000000
0.404640 0.557677 1.000000
0.548695 0.554470 1.000000
0.692751 0.551264 1.000000
0.836807 0.548057 1.000000
0.980862 0.544850 1.000000
1.000000 0.541643 1.000000
0.000000 0.709647 1.000000
0.110171 0.706440 1.000000
0.254227 0.703233 1.000000
0.398282 0.700026 1.000000
0.542338 0.696819 1.000000
0.686394 0.693612 1.000000
0.830449 0.690405 1.000000
0.974505 0.687199 1.000000
1.000000 0.683992 1.000000
0.000000 0.851995 1.000000
0.103814 0.848789 1.000000
0.247869 0.845582 1.000000
0.391925 0.842375 1.000000
0.535980 0.839168 1.000000
0.680036 0.835961 1.000000
0.824092 0.832754 1.000000
0.968147 0.829547 0.997949
1.000000 0.826341 0.995183
0.000000 0.994344 1.000000
0.097456 0.991137 1.000000
0.241512 0.987930 1.000000
0.385567 0.984724 1.000000
0.529623 0.981517 1.000000
0.673679 0.978310 0.997998
0.817734 0.975103 0.995231
0.961790 0.971896 0.992465
1.000000 0.968689 0.989698
0.000000 1.000000 1.000000
0.091099 1.000000 1.000000
0.235154 1.000000 1.000000
0.379210 1.000000 0.998046
0.523266 1.000000 0.995280
0.667321 1.000000 0.992513
0.811377 1.000000 0.989747
0.955433 1.000000 0.986980
1.000000 1.000000 0.984214
0.000000 0.000000 1.000000
0.140712 0.000000 1.000000
0.284767 0.000000 1.000000
0.428823 0.000000 1.000000
0.572879 0.000000 1.000000
0.716934 0.000000 1.000000
0.860990 0.000000 1.000000
1.000000 0.000000 1.000000
1.000000 0.000000 1.000000
0.000000 0.139005 1.000000
0.134354 0.135798 1.000000
0.278410 0.132591 1.000000
0.422465 0.129384 1.000000
0.566521 0.126177 1.000000
0.710577 0.122971 1.000000
0.854632 0.119764 1.000000
0.998688 0.116557 1.000000
1.000000 0.113350 1.000000
0.000000 0.281354 1.000000
0.127997 0.278147 1.000000
0.272052 0.274940 1.000000
0.416108 0.271733 1.000000
0.560164 0.268526 1.000000
0.704219 0.265319 1.000000
0.848275 0.262113 1.000000
0.992331 0.258906 1.000000
1.000000 0.255699 1.000000
0.000000 0.423702 1.000000
0.121639 0.420496 1.000000
0.265695 0.417289 1.000000
0.409751 0.414082 1.000000
0.553806 0.410875 1.000000
0.697862 0.407668 1.000000
0.841918 0.404461 1.000000
0.985973 0.401254 1.000000
1.000000 0.398048 1.000000
0.000000 0.566051 1.000000
0.115282 0.562844 1.000000
0.259338 0.559637 1.000000
0.403393 0.556431 1.000000
0.547449 0.553224 1.000000
0.691504 0.550017 1.000000
0.835560 0.546810 1.000000
0.979616 0.543603 1.000000
1.000000 0.540396 1.000000
0.000000 0.708400 1.000000
0.108924 0.705193 1.000000
0.252980 0.701986 1.000000
0.397036 0.698779 1.000000
0.541091 0.695573 1.000000
0.685147 0.692366 1.000000
0.829203 0.689159 1.000000
0.973258 0.685952 1.000000
1.000000 0.682745 1.000000
0.000000 0.850749 1.000000
0.102567 0.847542 1.000000
0.246623 0.844335 1.000000
0.390678 0.841128 1.000000
0.534734 0.837921 1.000000
0.678790 0.834714 1.000000
0.822845 0.831508 1.000000
0.966901 0.828301 1.000000
1.000000 0.825094 1.000000
0.000000 0.993098 1.000000
0.096210 0.989891 1.000000
0.240265 0.986684 1.000000
0.384321 0.983477 1.000000
0.528376 0.980270 1.000000
0.672432 0.977063 1.000000
0.816488 0.973856 1.000000
0.960543 0.970650 1.000000
1.000000 0.967443 1.000000
0.000000 1.000000 1.000000
0.089852 1.000000 1.000000
0.233908 1.000000 1.000000
0.377963 1.000000 1.000000
0.522019 1.000000 1.000000
0.666075 1.000000 1.000000
0.810130 1.000000 1.000000
0.954186 1.000000 1.000000
1.000000 1.000000 1.000000
