assets/luts/primelive_qingtou.cube
TITLE "primelive_qingtou"
LUT_3D_SIZE 5
0.095200 0.095200 0.095200
0.331649 0.092449 0.092449
0.568098 0.089698 0.089698
0.804548 0.086948 0.086948
1.000000 0.084197 0.084197
0.089530 0.340690 0.089530
0.325979 0.337939 0.086779
0.562428 0.335188 0.084028
0.798877 0.332437 0.081277
1.000000 0.329686 0.078526
0.083859 0.586179 0.083859
0.320308 0.583428 0.081108
0.556758 0.580678 0.078358
0.793207 0.577927 0.075607
1.000000 0.575176 0.072856
0.078189 0.831669 0.078189
0.314638 0.828918 0.075438
0.551087 0.826167 0.072687
0.787536 0.823416 0.069936
1.000000 0.820666 0.067186
0.072518 1.000000 0.072518
0.308968 1.000000 0.069768
0.545417 1.000000 0.067017
0.781866 1.000000 0.064266
1.000000 1.000000 0.061515
0.094057 0.094057 0.354785
0.330506 0.091306 0.352034
0.566955 0.088555 0.349283
0.803404 0.085804 0.346532
1.000000 0.083054 0.343782
0.088386 0.339546 0.349114
0.324836 0.336796 0.346364
0.561285 0.334045 0.343613
0.797734 0.331294 0.340862
1.000000 0.328543 0.338111
0.082716 0.585036 0.343444
0.319165 0.582285 0.340693
0.555614 0.579534 0.337942
0.792064 0.576784 0.335192
1.000000 0.574033 0.332441
0.077046 0.830526 0.337774
0.313495 0.827775 0.335023
0.549944 0.825024 0.332272
0.786393 0.822273 0.329521
1.000000 0.819522 0.326770
0.071375 1.000000 0.332103
0.307824 1.000000 0.329352
0.544274 1.000000 0.326602
0.780723 1.000000 0.323851
1.000000 1.000000 0.321100
0.092914 0.092914 0.614370
0.329363 0.090163 0.611619
0.565812 0.087412 0.608868
0.802261 0.084661 0.606117
1.000000 0.081910 0.603366
0.087243 0.338403 0.608699
0.323692 0.335652 0.605948
0.560142 0.332902 0.603198
0.796591 0.330151 0.600447
1.000000 0.327400 0.597696
0.081573 0.583893 0.603029
0.318022 0.581142 0.600278
0.554471 0.578391 0.597527
0.790920 0.575640 0.594776
1.000000 0.572890 0.592026
0.075902 0.829382 0.597358
0.312352 0.826632 0.594608
0.548801 0.823881 0.591857
0.785250 0.821130 0.589106
1.000000 0.818379 0.586355
0.070232 1.000000 0.591688
0.306681 1.000000 0.588937
0.543130 1.000000 0.586186
0.779580 1.000000 0.583436
1.000000 1.000000 0.580685
0.091770 0.091770 0.873954
0.328220 0.089020 0.871204
0.564669 0.086269 0.868453
0.801118 0.083518 0.865702
1.000000 0.080767 0.862951
0.086100 0.337260 0.868284
0.322549 0.334509 0.865533
0.558998 0.331758 0.862782
0.795448 0.329008 0.860032
1.000000 0.326257 0.857281
0.080430 0.582750 0.862614
0.316879 0.579999 0.859863
0.553328 0.577248 0.857112
0.789777 0.574497 0.854361
1.000000 0.571746 0.851610
0.074759 0.828239 0.856943
0.311208 0.825488 0.854192
0.547658 0.822738 0.851442
0.784107 0.819987 0.848691
1.000000 0.817236 0.845940
0.069089 1.000000 0.851273
0.305538 1.000000 0.848522
0.541987 1.000000 0.845771
0.778436 1.000000 0.843020
1.000000 1.000000 0.840270
0.090627 0.090627 1.000000
0.327076 0.087876 1.000000
0.563526 0.085126 1.000000
0.799975 0.082375 1.000000
1.000000 0.079624 1.000000
0.084957 0.336117 1.000000
0.321406 0.333366 1.000000
0.557855 0.330615 1.000000
0.794304 0.327864 1.000000
1.000000 0.325114 1.000000
0.079286 0.581606 1.000000
0.315736 0.578856 1.000000
0.552185 0.576105 1.000000
0.788634 0.573354 1.000000
1.000000 0.570603 1.000000
0.073616 0.827096 1.000000
0.310065 0.824345 1.000000
0.546514 0.821594 1.000000
0.782964 0.818844 1.000000
1.000000 0.816093 1.000000
0.067946 1.000000 1.000000
0.304395 1.000000 1.000000
0.540844 1.000000 1.000000
0.777293 1.000000 1.000000
1.000000 1.000000 1.000000
