assets/luts/primelive_amb_night_lamp.cube
TITLE "primelive Night Lamp"
LUT_3D_SIZE 9
DOMAIN_MIN 0.0 0.0 0.0
DOMAIN_MAX 1.0 1.0 1.0
0.000000 0.000000 0.020000
0.099357 0.000440 0.019560
0.237805 0.001024 0.018976
0.377738 0.001614 0.018386
0.518645 0.002208 0.017792
0.660281 0.002805 0.017195
0.802499 0.003405 0.016595
0.945205 0.004006 0.015994
1.000000 0.004252 0.015748
0.000000 0.098382 0.018613
0.102132 0.098822 0.018173
0.240580 0.099406 0.017589
0.380513 0.099996 0.016999
0.521420 0.100590 0.016405
0.663056 0.101187 0.015808
0.805274 0.101787 0.015208
0.947979 0.102388 0.014606
1.000000 0.102634 0.014361
0.001511 0.230863 0.016744
0.105869 0.231303 0.016304
0.244316 0.231887 0.015721
0.384250 0.232477 0.015131
0.525157 0.233071 0.014537
0.666792 0.233668 0.013939
0.809011 0.234268 0.013340
0.951716 0.234870 0.012738
1.000000 0.235115 0.012492
0.005288 0.364766 0.014856
0.109645 0.365206 0.014416
0.248093 0.365790 0.013832
0.388026 0.366380 0.013242
0.528933 0.366974 0.012648
0.670569 0.367571 0.012051
0.812787 0.368171 0.011451
0.955493 0.368773 0.010850
1.000000 0.369018 0.010604
0.009091 0.499601 0.012954
0.113448 0.500041 0.012515
0.251896 0.500625 0.011931
0.391829 0.501215 0.011341
0.532736 0.501809 0.010747
0.674372 0.502406 0.010150
0.816590 0.503006 0.009550
0.959296 0.503607 0.008948
1.000000 0.503853 0.008702
0.012914 0.635133 0.011043
0.117271 0.635573 0.010603
0.255719 0.636156 0.010019
0.395652 0.636746 0.009430
0.536559 0.637340 0.008835
0.678194 0.637937 0.008238
0.820413 0.638537 0.007639
0.963118 0.639139 0.007037
1.000000 0.639385 0.006791
0.016752 0.771222 0.009124
0.121109 0.771662 0.008684
0.259557 0.772246 0.008100
0.399490 0.772836 0.007510
0.540397 0.773430 0.006916
0.682033 0.774027 0.006319
0.824251 0.774627 0.005719
0.966957 0.775228 0.005118
1.000000 0.775474 0.004872
0.020603 0.907778 0.007198
0.124961 0.908218 0.006758
0.263408 0.908801 0.006175
0.403342 0.909391 0.005585
0.544249 0.909985 0.004990
0.685884 0.910583 0.004393
0.828103 0.911182 0.003794
0.970808 0.911784 0.003192
1.000000 0.912030 0.002946
0.023608 1.000000 0.005696
0.127965 1.000000 0.005256
0.266413 1.000000 0.004672
0.406346 1.000000 0.004082
0.547253 1.000000 0.003488
0.688889 1.000000 0.002891
0.831107 1.000000 0.002291
0.973813 1.000000 0.001690
1.000000 1.000000 0.001444
0.000000 0.000127 0.107803
0.099611 0.000567 0.107363
0.238059 0.001151 0.106780
0.377992 0.001741 0.106190
0.518899 0.002335 0.105596
0.660535 0.002932 0.104998
0.802753 0.003532 0.104399
0.945459 0.004133 0.103797
1.000000 0.004379 0.103551
0.000000 0.098509 0.106416
0.102386 0.098949 0.105976
0.240834 0.099533 0.105392
0.380767 0.100123 0.104802
0.521674 0.100717 0.104208
0.663310 0.101314 0.103611
0.805528 0.101914 0.103011
0.948233 0.102515 0.102410
1.000000 0.102761 0.102164
0.001765 0.230990 0.104548
0.106123 0.231430 0.104108
0.244570 0.232014 0.103524
0.384504 0.232604 0.102934
0.525411 0.233198 0.102340
0.667046 0.233795 0.101743
0.809265 0.234395 0.101143
0.951970 0.234997 0.100541
1.000000 0.235242 0.100296
0.005542 0.364893 0.102659
0.109899 0.365333 0.102219
0.248347 0.365917 0.101636
0.388280 0.366507 0.101046
0.529187 0.367101 0.100451
0.670823 0.367698 0.099854
0.813041 0.368298 0.099255
0.955747 0.368900 0.098653
1.000000 0.369145 0.098407
0.009345 0.499728 0.100758
0.113702 0.500168 0.100318
0.252150 0.500752 0.099734
0.392083 0.501342 0.099144
0.532990 0.501936 0.098550
0.674626 0.502533 0.097953
0.816844 0.503132 0.097353
0.959550 0.503734 0.096752
1.000000 0.503980 0.096506
0.013168 0.635260 0.098846
0.117525 0.635700 0.098406
0.255973 0.636283 0.097823
0.395906 0.636873 0.097233
0.536813 0.637467 0.096639
0.678448 0.638064 0.096042
0.820667 0.638664 0.095442
0.963372 0.639266 0.094840
1.000000 0.639512 0.094594
0.017006 0.771349 0.096927
0.121363 0.771789 0.096487
0.259811 0.772373 0.095904
0.399744 0.772963 0.095314
0.540651 0.773557 0.094720
0.682287 0.774154 0.094122
0.824505 0.774754 0.093523
0.967211 0.775355 0.092921
1.000000 0.775601 0.092675
0.020857 0.907905 0.095002
0.125215 0.908345 0.094562
0.263662 0.908928 0.093978
0.403596 0.909518 0.093388
0.544503 0.910112 0.092794
0.686138 0.910710 0.092197
0.828357 0.911309 0.091597
0.971062 0.911911 0.090995
1.000000 0.912157 0.090750
0.023862 1.000000 0.093499
0.128219 1.000000 0.093059
0.266667 1.000000 0.092476
0.406600 1.000000 0.091886
0.547507 1.000000 0.091292
0.689143 1.000000 0.090694
0.831361 1.000000 0.090095
0.974067 1.000000 0.089493
1.000000 1.000000 0.089247
0.000000 0.000302 0.228919
0.099961 0.000742 0.228479
0.238409 0.001326 0.227895
0.378343 0.001916 0.227305
0.519250 0.002510 0.226711
0.660885 0.003107 0.226114
0.803104 0.003707 0.225514
0.945809 0.004308 0.224912
1.000000 0.004554 0.224667
0.000000 0.098684 0.227531
0.102736 0.099124 0.227091
0.241184 0.099708 0.226507
0.381117 0.100298 0.225917
0.522024 0.100892 0.225323
0.663660 0.101489 0.224726
0.805878 0.102089 0.224127
0.948584 0.102690 0.223525
1.000000 0.102936 0.223279
0.002116 0.231166 0.225663
0.106473 0.231606 0.225223
0.244921 0.232189 0.224639
0.384854 0.232779 0.224049
0.525761 0.233373 0.223455
0.667396 0.233970 0.222858
0.809615 0.234570 0.222258
0.952320 0.235172 0.221657
1.000000 0.235418 0.221411
0.005892 0.365069 0.223775
0.110250 0.365509 0.223335
0.248697 0.366092 0.222751
0.388631 0.366682 0.222161
0.529538 0.367276 0.221567
0.671173 0.367873 0.220970
0.813392 0.368473 0.220370
0.956097 0.369075 0.219768
1.000000 0.369321 0.219523
0.009695 0.499903 0.221873
0.114052 0.500343 0.221433
0.252500 0.500927 0.220849
0.392434 0.501517 0.220259
0.533341 0.502111 0.219665
0.674976 0.502708 0.219068
0.817195 0.503308 0.218468
0.959900 0.503909 0.217867
1.000000 0.504155 0.217621
0.013518 0.635435 0.219962
0.117875 0.635875 0.219522
0.256323 0.636458 0.218938
0.396256 0.637048 0.218348
0.537163 0.637642 0.217754
0.678799 0.638240 0.217157
0.821017 0.638839 0.216557
0.963722 0.639441 0.215956
1.000000 0.639687 0.215710
0.017356 0.771524 0.218043
0.121713 0.771964 0.217603
0.260161 0.772548 0.217019
0.400095 0.773138 0.216429
0.541002 0.773732 0.215835
0.682637 0.774329 0.215238
0.824855 0.774929 0.214638
0.967561 0.775530 0.214036
1.000000 0.775776 0.213791
0.021208 0.908080 0.216117
0.125565 0.908520 0.215677
0.264013 0.909103 0.215093
0.403946 0.909693 0.214503
0.544853 0.910287 0.213909
0.686488 0.910885 0.213312
0.828707 0.911484 0.212712
0.971412 0.912086 0.212111
1.000000 0.912332 0.211865
0.024212 1.000000 0.214615
0.128569 1.000000 0.214175
0.267017 1.000000 0.213591
0.406951 1.000000 0.213001
0.547858 1.000000 0.212407
0.689493 1.000000 0.211810
0.831712 1.000000 0.211210
0.974417 1.000000 0.210608
1.000000 1.000000 0.210363
0.000000 0.000479 0.351333
0.100315 0.000919 0.350893
0.238763 0.001503 0.350310
0.378697 0.002093 0.349720
0.519604 0.002687 0.349126
0.661239 0.003284 0.348529
0.803458 0.003884 0.347929
0.946163 0.004485 0.347327
1.000000 0.004731 0.347081
0.000000 0.098861 0.349946
0.103090 0.099301 0.349506
0.241538 0.099885 0.348922
0.381472 0.100475 0.348332
0.522378 0.101069 0.347738
0.664014 0.101666 0.347141
0.806232 0.102266 0.346541
0.948938 0.102867 0.345940
1.000000 0.103113 0.345694
0.002470 0.231343 0.348078
0.106827 0.231783 0.347638
0.245275 0.232366 0.347054
0.385208 0.232956 0.346464
0.526115 0.233550 0.345870
0.667750 0.234148 0.345273
0.809969 0.234747 0.344673
0.952674 0.235349 0.344072
1.000000 0.235595 0.343826
0.006246 0.365246 0.346189
0.110604 0.365686 0.345749
0.249051 0.366269 0.345166
0.388985 0.366859 0.344576
0.529892 0.367453 0.343982
0.671527 0.368050 0.343384
0.813746 0.368650 0.342785
0.956451 0.369252 0.342183
1.000000 0.369498 0.341937
0.010049 0.500080 0.344288
0.114407 0.500520 0.343848
0.252854 0.501104 0.343264
0.392788 0.501694 0.342674
0.533695 0.502288 0.342080
0.675330 0.502885 0.341483
0.817549 0.503485 0.340883
0.960254 0.504086 0.340282
1.000000 0.504332 0.340036
0.013872 0.635612 0.342377
0.118229 0.636052 0.341937
0.256677 0.636635 0.341353
0.396610 0.637225 0.340763
0.537517 0.637819 0.340169
0.679153 0.638417 0.339572
0.821371 0.639016 0.338972
0.964077 0.639618 0.338370
1.000000 0.639864 0.338125
0.017710 0.771701 0.340457
0.122067 0.772141 0.340017
0.260515 0.772725 0.339434
0.400449 0.773315 0.338844
0.541356 0.773909 0.338250
0.682991 0.774506 0.337653
0.825210 0.775106 0.337053
0.967915 0.775708 0.336451
1.000000 0.775953 0.336205
0.021562 0.908257 0.338532
0.125919 0.908697 0.338092
0.264367 0.909280 0.337508
0.404300 0.909870 0.336918
0.545207 0.910465 0.336324
0.686842 0.911062 0.335727
0.829061 0.911661 0.335127
0.971766 0.912263 0.334525
1.000000 0.912509 0.334280
0.024566 1.000000 0.337029
0.128923 1.000000 0.336589
0.267371 1.000000 0.336006
0.407305 1.000000 0.335416
0.548212 1.000000 0.334822
0.689847 1.000000 0.334225
0.832066 1.000000 0.333625
0.974771 1.000000 0.333023
1.000000 1.000000 0.332777
0.000000 0.000657 0.474600
0.100672 0.001097 0.474160
0.239120 0.001681 0.473576
0.379053 0.002271 0.472986
0.519960 0.002865 0.472392
0.661596 0.003462 0.471795
0.803814 0.004062 0.471195
0.946519 0.004664 0.470594
1.000000 0.004909 0.470348
0.000000 0.099039 0.473213
0.103447 0.099479 0.472773
0.241895 0.100063 0.472189
0.381828 0.100653 0.471599
0.522735 0.101247 0.471005
0.664370 0.101844 0.470408
0.806589 0.102444 0.469808
0.949294 0.103046 0.469206
1.000000 0.103291 0.468961
0.002826 0.231521 0.471344
0.107183 0.231961 0.470904
0.245631 0.232545 0.470321
0.385565 0.233135 0.469731
0.526472 0.233729 0.469137
0.668107 0.234326 0.468539
0.810325 0.234925 0.467940
0.953031 0.235527 0.467338
1.000000 0.235773 0.467092
0.006603 0.365424 0.469456
0.110960 0.365864 0.469016
0.249408 0.366448 0.468432
0.389341 0.367037 0.467842
0.530248 0.367632 0.467248
0.671884 0.368229 0.466651
0.814102 0.368828 0.466051
0.956807 0.369430 0.465450
1.000000 0.369676 0.465204
0.010406 0.500258 0.467554
0.114763 0.500698 0.467114
0.253211 0.501282 0.466531
0.393144 0.501872 0.465941
0.534051 0.502466 0.465347
0.675687 0.503063 0.464750
0.817905 0.503663 0.464150
0.960610 0.504265 0.463548
1.000000 0.504510 0.463302
0.014228 0.635790 0.465643
0.118586 0.636230 0.465203
0.257033 0.636814 0.464619
0.396967 0.637404 0.464029
0.537874 0.637998 0.463435
0.679509 0.638595 0.462838
0.821728 0.639194 0.462239
0.964433 0.639796 0.461637
1.000000 0.640042 0.461391
0.018067 0.771880 0.463724
0.122424 0.772320 0.463284
0.260872 0.772903 0.462700
0.400805 0.773493 0.462110
0.541712 0.774087 0.461516
0.683348 0.774684 0.460919
0.825566 0.775284 0.460319
0.968271 0.775886 0.459718
1.000000 0.776132 0.459472
0.021918 0.908435 0.461798
0.126275 0.908875 0.461358
0.264723 0.909459 0.460775
0.404657 0.910049 0.460185
0.545564 0.910643 0.459590
0.687199 0.911240 0.458993
0.829418 0.911840 0.458394
0.972123 0.912441 0.457792
1.000000 0.912687 0.457546
0.024923 1.000000 0.460296
0.129280 1.000000 0.459856
0.267728 1.000000 0.459272
0.407661 1.000000 0.458682
0.548568 1.000000 0.458088
0.690204 1.000000 0.457491
0.832422 1.000000 0.456891
0.975127 1.000000 0.456290
1.000000 1.000000 0.456044
0.000000 0.000837 0.598504
0.101030 0.001277 0.598064
0.239478 0.001860 0.597480
0.379412 0.002450 0.596890
0.520319 0.003044 0.596296
0.661954 0.003641 0.595699
0.804172 0.004241 0.595099
0.946878 0.004843 0.594498
1.000000 0.005089 0.594252
0.000000 0.099219 0.597116
0.103805 0.099659 0.596676
0.242253 0.100242 0.596093
0.382186 0.100832 0.595503
0.523093 0.101426 0.594909
0.664729 0.102024 0.594311
0.806947 0.102623 0.593712
0.949653 0.103225 0.593110
1.000000 0.103471 0.592864
0.003185 0.231700 0.595248
0.107542 0.232140 0.594808
0.245990 0.232724 0.594224
0.385923 0.233314 0.593634
0.526830 0.233908 0.593040
0.668465 0.234505 0.592443
0.810684 0.235105 0.591844
0.953389 0.235706 0.591242
1.000000 0.235952 0.590996
0.006961 0.365603 0.593360
0.111318 0.366043 0.592920
0.249766 0.366627 0.592336
0.389700 0.367217 0.591746
0.530607 0.367811 0.591152
0.672242 0.368408 0.590555
0.814460 0.369008 0.589955
0.957166 0.369609 0.589354
1.000000 0.369855 0.589108
0.010764 0.500438 0.591458
0.115121 0.500878 0.591018
0.253569 0.501461 0.590435
0.393503 0.502051 0.589845
0.534410 0.502645 0.589250
0.676045 0.503242 0.588653
0.818263 0.503842 0.588054
0.960969 0.504444 0.587452
1.000000 0.504690 0.587206
0.014587 0.635969 0.589547
0.118944 0.636409 0.589107
0.257392 0.636993 0.588523
0.397325 0.637583 0.587933
0.538232 0.638177 0.587339
0.679868 0.638774 0.586742
0.822086 0.639374 0.586142
0.964791 0.639975 0.585541
1.000000 0.640221 0.585295
0.018425 0.772059 0.587628
0.122782 0.772499 0.587188
0.261230 0.773082 0.586604
0.401164 0.773672 0.586014
0.542071 0.774267 0.585420
0.683706 0.774864 0.584823
0.825924 0.775463 0.584223
0.968630 0.776065 0.583622
1.000000 0.776311 0.583376
0.022277 0.908614 0.585702
0.126634 0.909054 0.585262
0.265082 0.909638 0.584678
0.405015 0.910228 0.584088
0.545922 0.910822 0.583494
0.687557 0.911419 0.582897
0.829776 0.912019 0.582297
0.972481 0.912620 0.581696
1.000000 0.912866 0.581450
0.025281 1.000000 0.584200
0.129638 1.000000 0.583760
0.268086 1.000000 0.583176
0.408020 1.000000 0.582586
0.548927 1.000000 0.581992
0.690562 1.000000 0.581395
0.832780 1.000000 0.580795
0.975486 1.000000 0.580194
1.000000 1.000000 0.579948
0.000000 0.001016 0.722918
0.101390 0.001456 0.722478
0.239838 0.002040 0.721894
0.379771 0.002630 0.721304
0.520678 0.003224 0.720710
0.662314 0.003821 0.720113
0.804532 0.004421 0.719513
0.947238 0.005023 0.718911
1.000000 0.005268 0.718666
0.000000 0.099399 0.721530
0.104165 0.099839 0.721090
0.242613 0.100422 0.720507
0.382546 0.101012 0.719917
0.523453 0.101606 0.719323
0.665089 0.102203 0.718725
0.807307 0.102803 0.718126
0.950012 0.103405 0.717524
1.000000 0.103651 0.717278
0.003544 0.231880 0.719662
0.107902 0.232320 0.719222
0.246349 0.232904 0.718638
0.386283 0.233494 0.718048
0.527190 0.234088 0.717454
0.668825 0.234685 0.716857
0.811044 0.235284 0.716257
0.953749 0.235886 0.715656
1.000000 0.236132 0.715410
0.007321 0.365783 0.717774
0.111678 0.366223 0.717334
0.250126 0.366807 0.716750
0.390059 0.367397 0.716160
0.530966 0.367991 0.715566
0.672602 0.368588 0.714969
0.814820 0.369187 0.714369
0.957526 0.369789 0.713767
1.000000 0.370035 0.713522
0.011124 0.500617 0.715872
0.115481 0.501057 0.715432
0.253929 0.501641 0.714848
0.393862 0.502231 0.714258
0.534769 0.502825 0.713664
0.676405 0.503422 0.713067
0.818623 0.504022 0.712468
0.961329 0.504624 0.711866
1.000000 0.504869 0.711620
0.014947 0.636149 0.713961
0.119304 0.636589 0.713521
0.257752 0.637173 0.712937
0.397685 0.637763 0.712347
0.538592 0.638357 0.711753
0.680227 0.638954 0.711156
0.822446 0.639554 0.710556
0.965151 0.640155 0.709955
1.000000 0.640401 0.709709
0.018785 0.772239 0.712042
0.123142 0.772679 0.711602
0.261590 0.773262 0.711018
0.401523 0.773852 0.710428
0.542430 0.774446 0.709834
0.684066 0.775044 0.709237
0.826284 0.775643 0.708637
0.968990 0.776245 0.708035
1.000000 0.776491 0.707790
0.022636 0.908794 0.710116
0.126994 0.909234 0.709676
0.265441 0.909818 0.709092
0.405375 0.910408 0.708502
0.546282 0.911002 0.707908
0.687917 0.911599 0.707311
0.830136 0.912199 0.706711
0.972841 0.912800 0.706110
1.000000 0.913046 0.705864
0.025641 1.000000 0.708614
0.129998 1.000000 0.708174
0.268446 1.000000 0.707590
0.408379 1.000000 0.707000
0.549286 1.000000 0.706406
0.690922 1.000000 0.705809
0.833140 1.000000 0.705209
0.975846 1.000000 0.704607
1.000000 1.000000 0.704362
0.000000 0.001197 0.847757
0.101751 0.001637 0.847317
0.240199 0.002221 0.846734
0.380132 0.002811 0.846144
0.521039 0.003405 0.845550
0.662675 0.004002 0.844953
0.804893 0.004602 0.844353
0.947599 0.005203 0.843751
1.000000 0.005449 0.843505
0.000169 0.099579 0.846370
0.104526 0.100019 0.845930
0.242974 0.100603 0.845346
0.382907 0.101193 0.844756
0.523814 0.101787 0.844162
0.665450 0.102384 0.843565
0.807668 0.102984 0.842966
0.950373 0.103585 0.842364
1.000000 0.103831 0.842118
0.003905 0.232060 0.844502
0.108263 0.232500 0.844062
0.246710 0.233084 0.843478
0.386644 0.233674 0.842888
0.527551 0.234268 0.842294
0.669186 0.234865 0.841697
0.811405 0.235465 0.841097
0.954110 0.236067 0.840496
1.000000 0.236312 0.840250
0.007682 0.365963 0.842613
0.112039 0.366403 0.842173
0.250487 0.366987 0.841590
0.390421 0.367577 0.841000
0.531327 0.368171 0.840406
0.672963 0.368768 0.839809
0.815181 0.369368 0.839209
0.957887 0.369970 0.838607
1.000000 0.370215 0.838361
0.011485 0.500798 0.840712
0.115842 0.501238 0.840272
0.254290 0.501822 0.839688
0.394223 0.502412 0.839098
0.535130 0.503006 0.838504
0.676766 0.503603 0.837907
0.818984 0.504203 0.837307
0.961690 0.504804 0.836706
1.000000 0.505050 0.836460
0.015308 0.636330 0.838801
0.119665 0.636770 0.838361
0.258113 0.637353 0.837777
0.398046 0.637943 0.837187
0.538953 0.638537 0.836593
0.680588 0.639134 0.835996
0.822807 0.639734 0.835396
0.965512 0.640336 0.834794
1.000000 0.640582 0.834549
0.019146 0.772419 0.836881
0.123503 0.772859 0.836441
0.261951 0.773443 0.835858
0.401884 0.774033 0.835268
0.542791 0.774627 0.834674
0.684427 0.775224 0.834077
0.826645 0.775824 0.833477
0.969351 0.776425 0.832875
1.000000 0.776671 0.832629
0.022997 0.908975 0.834956
0.127355 0.909415 0.834516
0.265803 0.909998 0.833932
0.405736 0.910588 0.833342
0.546643 0.911182 0.832748
0.688278 0.911780 0.832151
0.830497 0.912379 0.831551
0.973202 0.912981 0.830950
1.000000 0.913227 0.830704
0.026002 1.000000 0.833453
0.130359 1.000000 0.833013
0.268807 1.000000 0.832430
0.408740 1.000000 0.831840
0.549647 1.000000 0.831246
0.691283 1.000000 0.830649
0.833501 1.000000 0.830049
0.976207 1.000000 0.829447
1.000000 1.000000 0.829201
0.000000 0.001378 0.972963
0.102113 0.001818 0.972523
0.240561 0.002402 0.971939
0.380495 0.002992 0.971349
0.521402 0.003586 0.970755
0.663037 0.004183 0.970158
0.805255 0.004783 0.969558
0.947961 0.005384 0.968957
1.000000 0.005630 0.968711
0.000531 0.099760 0.971576
0.104888 0.100200 0.971136
0.243336 0.100784 0.970552
0.383269 0.101374 0.969962
0.524176 0.101968 0.969368
0.665812 0.102565 0.968771
0.808030 0.103165 0.968171
0.950736 0.103766 0.967569
1.000000 0.104012 0.967324
0.004268 0.232242 0.969707
0.108625 0.232682 0.969267
0.247073 0.233265 0.968684
0.387006 0.233855 0.968094
0.527913 0.234449 0.967500
0.669548 0.235046 0.966902
0.811767 0.235646 0.966303
0.954472 0.236248 0.965701
1.000000 0.236494 0.965455
0.008044 0.366144 0.967819
0.112401 0.366584 0.967379
0.250849 0.367168 0.966795
0.390783 0.367758 0.966205
0.531690 0.368352 0.965611
0.673325 0.368949 0.965014
0.815543 0.369549 0.964414
0.958249 0.370151 0.963813
1.000000 0.370396 0.963567
0.011847 0.500979 0.965917
0.116204 0.501419 0.965478
0.254652 0.502003 0.964894
0.394586 0.502593 0.964304
0.535493 0.503187 0.963710
0.677128 0.503784 0.963113
0.819346 0.504384 0.962513
0.962052 0.504985 0.961911
1.000000 0.505231 0.961665
0.015670 0.636511 0.964006
0.120027 0.636951 0.963566
0.258475 0.637534 0.962982
0.398408 0.638124 0.962393
0.539315 0.638718 0.961798
0.680951 0.639316 0.961201
0.823169 0.639915 0.960602
0.965874 0.640517 0.960000
1.000000 0.640763 0.959754
0.019508 0.772600 0.962087
0.123865 0.773040 0.961647
0.262313 0.773624 0.961063
0.402247 0.774214 0.960473
0.543154 0.774808 0.959879
0.684789 0.775405 0.959282
0.827007 0.776005 0.958682
0.969713 0.776606 0.958081
1.000000 0.776852 0.957835
0.023360 0.909156 0.960161
0.127717 0.909596 0.959721
0.266165 0.910179 0.959138
0.406098 0.910769 0.958548
0.547005 0.911363 0.957954
0.688640 0.911961 0.957356
0.830859 0.912560 0.956757
0.973564 0.913162 0.956155
1.000000 0.913408 0.955909
0.026364 1.000000 0.958659
0.130721 1.000000 0.958219
0.269169 1.000000 0.957635
0.409103 1.000000 0.957045
0.550010 1.000000 0.956451
0.691645 1.000000 0.955854
0.833863 1.000000 0.955254
0.976569 1.000000 0.954653
1.000000 1.000000 0.954407
