assets/luts/primelive_meihuo.cube
TITLE "primelive_meihuo"
LUT_3D_SIZE 9
0.000000 0.000000 0.000000
0.122773 0.000000 0.000000
0.283147 0.000000 0.000000
0.443520 0.000000 0.000000
0.603894 0.000000 0.000000
0.764267 0.000000 0.000000
0.924641 0.000000 0.000000
1.000000 0.000000 0.000000
1.000000 0.000000 0.000000
0.000000 0.111651 0.000000
0.109625 0.104753 0.000000
0.269998 0.097854 0.000000
0.430372 0.090956 0.000000
0.590745 0.084057 0.000000
0.751118 0.077159 0.000000
0.911492 0.070260 0.000000
1.000000 0.063361 0.000000
1.000000 0.056463 0.000000
0.000000 0.260902 0.000000
0.096476 0.254004 0.000000
0.256849 0.247105 0.000000
0.417223 0.240207 0.000000
0.577596 0.233308 0.000000
0.737970 0.226410 0.000000
0.898343 0.219511 0.000000
1.000000 0.212613 0.000000
1.000000 0.205714 0.000000
0.000000 0.410154 0.000000
0.083327 0.403255 0.000000
0.243701 0.396357 0.000000
0.404074 0.389458 0.000000
0.564447 0.382559 0.000000
0.724821 0.375661 0.000000
0.885194 0.368762 0.000000
1.000000 0.361864 0.000000
1.000000 0.354965 0.000000
0.000000 0.559405 0.000000
0.070178 0.552506 0.000000
0.230552 0.545608 0.000000
0.390925 0.538709 0.000000
0.551299 0.531811 0.000000
0.711672 0.524912 0.000000
0.872046 0.518014 0.000000
1.000000 0.511115 0.000000
1.000000 0.504217 0.000000
0.000000 0.708656 0.000000
0.057029 0.701757 0.000000
0.217403 0.694859 0.000000
0.377776 0.687960 0.000000
0.538150 0.681062 0.000000
0.698523 0.674163 0.000000
0.858897 0.667265 0.000000
1.000000 0.660366 0.000000
1.000000 0.653468 0.000000
0.000000 0.857907 0.000000
0.043881 0.851009 0.000000
0.204254 0.844110 0.000000
0.364628 0.837212 0.000000
0.525001 0.830313 0.000000
0.685374 0.823415 0.000000
0.845748 0.816516 0.000000
1.000000 0.809617 0.000000
1.000000 0.802719 0.000000
0.000000 1.000000 0.000000
0.030732 1.000000 0.000000
0.191105 0.993361 0.000000
0.351479 0.986463 0.000000
0.511852 0.979564 0.000000
0.672226 0.972666 0.000000
0.832599 0.965767 0.000000
0.992973 0.958869 0.000000
1.000000 0.951970 0.000000
0.000000 1.000000 0.000000
0.017583 1.000000 0.000000
0.177957 1.000000 0.000000
0.338330 1.000000 0.000000
0.498703 1.000000 0.000000
0.659077 1.000000 0.000000
0.819450 1.000000 0.000000
0.979824 1.000000 0.000000
1.000000 1.000000 0.000000
0.000000 0.000000 0.125443
0.120169 0.000000 0.118545
0.280542 0.000000 0.111646
0.440916 0.000000 0.104748
0.601289 0.000000 0.097849
0.761663 0.000000 0.090951
0.922036 0.000000 0.084052
1.000000 0.000000 0.077154
1.000000 0.000000 0.070255
0.000000 0.109047 0.112294
0.107020 0.102148 0.105396
0.267393 0.095249 0.098497
0.427767 0.088351 0.091599
0.588140 0.081452 0.084700
0.748514 0.074554 0.077802
0.908887 0.067655 0.070903
1.000000 0.060757 0.064005
1.000000 0.053858 0.057106
0.000000 0.258298 0.099146
0.093871 0.251399 0.092247
0.254245 0.244501 0.085349
0.414618 0.237602 0.078450
0.574992 0.230704 0.071552
0.735365 0.223805 0.064653
0.895738 0.216907 0.057755
1.000000 0.210008 0.050856
1.000000 0.203110 0.043957
0.000000 0.407549 0.085997
0.080722 0.400650 0.079098
0.241096 0.393752 0.072200
0.401469 0.386853 0.065301
0.561843 0.379955 0.058403
0.722216 0.373056 0.051504
0.882590 0.366158 0.044606
1.000000 0.359259 0.037707
1.000000 0.352361 0.030809
0.000000 0.556800 0.072848
0.067574 0.549902 0.065950
0.227947 0.543003 0.059051
0.388321 0.536105 0.052153
0.548694 0.529206 0.045254
0.709067 0.522307 0.038355
0.869441 0.515409 0.031457
1.000000 0.508510 0.024558
1.000000 0.501612 0.017660
0.000000 0.706051 0.059699
0.054425 0.699153 0.052801
0.214798 0.692254 0.045902
0.375172 0.685356 0.039004
0.535545 0.678457 0.032105
0.695919 0.671559 0.025207
0.856292 0.664660 0.018308
1.000000 0.657762 0.011410
1.000000 0.650863 0.004511
0.000000 0.855303 0.046550
0.041276 0.848404 0.039652
0.201649 0.841505 0.032753
0.362023 0.834607 0.025855
0.522396 0.827708 0.018956
0.682770 0.820810 0.012058
0.843143 0.813911 0.005159
1.000000 0.807013 0.000000
1.000000 0.800114 0.000000
0.000000 1.000000 0.033402
0.028127 0.997655 0.026503
0.188501 0.990757 0.019605
0.348874 0.983858 0.012706
0.509248 0.976960 0.005808
0.669621 0.970061 0.000000
0.829994 0.963163 0.000000
0.990368 0.956264 0.000000
1.000000 0.949365 0.000000
0.000000 1.000000 0.020253
0.014978 1.000000 0.013354
0.175352 1.000000 0.006456
0.335725 1.000000 0.000000
0.496099 1.000000 0.000000
0.656472 1.000000 0.000000
0.816846 1.000000 0.000000
0.977219 1.000000 0.000000
1.000000 1.000000 0.000000
0.000000 0.000000 0.288487
0.117564 0.000000 0.281588
0.277938 0.000000 0.274690
0.438311 0.000000 0.267791
0.598684 0.000000 0.260893
0.759058 0.000000 0.253994
0.919431 0.000000 0.247095
1.000000 0.000000 0.240197
1.000000 0.000000 0.233298
0.000000 0.106442 0.275338
0.104415 0.099543 0.268439
0.264789 0.092645 0.261541
0.425162 0.085746 0.254642
0.585536 0.078848 0.247744
0.745909 0.071949 0.240845
0.906283 0.065051 0.233947
1.000000 0.058152 0.227048
1.000000 0.051254 0.220150
0.000000 0.255693 0.262189
0.091267 0.248795 0.255291
0.251640 0.241896 0.248392
0.412013 0.234997 0.241493
0.572387 0.228099 0.234595
0.732760 0.221200 0.227696
0.893134 0.214302 0.220798
1.000000 0.207403 0.213899
1.000000 0.200505 0.207001
0.000000 0.404944 0.249040
0.078118 0.398046 0.242142
0.238491 0.391147 0.235243
0.398865 0.384249 0.228345
0.559238 0.377350 0.221446
0.719612 0.370452 0.214548
0.879985 0.363553 0.207649
1.000000 0.356655 0.200751
1.000000 0.349756 0.193852
0.000000 0.554195 0.235891
0.064969 0.547297 0.228993
0.225342 0.540398 0.222094
0.385716 0.533500 0.215196
0.546089 0.526601 0.208297
0.706463 0.519703 0.201399
0.866836 0.512804 0.194500
1.000000 0.505906 0.187602
1.000000 0.499007 0.180703
0.000000 0.703447 0.222743
0.051820 0.696548 0.215844
0.212194 0.689650 0.208946
0.372567 0.682751 0.202047
0.532940 0.675853 0.195149
0.693314 0.668954 0.188250
0.853687 0.662055 0.181351
1.000000 0.655157 0.174453
1.000000 0.648258 0.167554
0.000000 0.852698 0.209594
0.038671 0.845799 0.202695
0.199045 0.838901 0.195797
0.359418 0.832002 0.188898
0.519792 0.825104 0.182000
0.680165 0.818205 0.175101
0.840539 0.811307 0.168203
1.000000 0.804408 0.161304
1.000000 0.797510 0.154406
0.000000 1.000000 0.196445
0.025523 0.995051 0.189547
0.185896 0.988152 0.182648
0.346269 0.981253 0.175749
0.506643 0.974355 0.168851
0.667016 0.967456 0.161952
0.827390 0.960558 0.155054
0.987763 0.953659 0.148155
1.000000 0.946761 0.141257
0.000000 1.000000 0.183296
0.012374 1.000000 0.176398
0.172747 1.000000 0.169499
0.333121 1.000000 0.162601
0.493494 1.000000 0.155702
0.653868 1.000000 0.148804
0.814241 1.000000 0.141905
0.974615 1.000000 0.135007
1.000000 1.000000 0.128108
0.000000 0.000000 0.451530
0.114959 0.000000 0.444631
0.275333 0.000000 0.437733
0.435706 0.000000 0.430834
0.596080 0.000000 0.423936
0.756453 0.000000 0.417037
0.916827 0.000000 0.410139
1.000000 0.000000 0.403240
1.000000 0.000000 0.396342
0.000000 0.103837 0.438381
0.101811 0.096939 0.431483
0.262184 0.090040 0.424584
0.422558 0.083142 0.417686
0.582931 0.076243 0.410787
0.743304 0.069345 0.403889
0.903678 0.062446 0.396990
1.000000 0.055547 0.390091
1.000000 0.048649 0.383193
0.000000 0.253088 0.425232
0.088662 0.246190 0.418334
0.249035 0.239291 0.411435
0.409409 0.232393 0.404537
0.569782 0.225494 0.397638
0.730156 0.218596 0.390740
0.890529 0.211697 0.383841
1.000000 0.204799 0.376943
1.000000 0.197900 0.370044
0.000000 0.402340 0.412084
0.075513 0.395441 0.405185
0.235887 0.388543 0.398287
0.396260 0.381644 0.391388
0.556633 0.374745 0.384489
0.717007 0.367847 0.377591
0.877380 0.360948 0.370692
1.000000 0.354050 0.363794
1.000000 0.347151 0.356895
0.000000 0.551591 0.398935
0.062364 0.544692 0.392036
0.222738 0.537794 0.385138
0.383111 0.530895 0.378239
0.543485 0.523997 0.371341
0.703858 0.517098 0.364442
0.864232 0.510200 0.357544
1.000000 0.503301 0.350645
1.000000 0.496403 0.343747
0.000000 0.700842 0.385786
0.049215 0.693943 0.378887
0.209589 0.687045 0.371989
0.369962 0.680146 0.365090
0.530336 0.673248 0.358192
0.690709 0.666349 0.351293
0.851083 0.659451 0.344395
1.000000 0.652552 0.337496
1.000000 0.645654 0.330598
0.000000 0.850093 0.372637
0.036067 0.843195 0.365739
0.196440 0.836296 0.358840
0.356814 0.829398 0.351942
0.517187 0.822499 0.345043
0.677560 0.815601 0.338145
0.837934 0.808702 0.331246
0.998307 0.801803 0.324347
1.000000 0.794905 0.317449
0.000000 0.999344 0.359488
0.022918 0.992446 0.352590
0.183291 0.985547 0.345691
0.343665 0.978649 0.338793
0.504038 0.971750 0.331894
0.664412 0.964852 0.324996
0.824785 0.957953 0.318097
0.985159 0.951055 0.311199
1.000000 0.944156 0.304300
0.000000 1.000000 0.346340
0.009769 1.000000 0.339441
0.170143 1.000000 0.332543
0.330516 1.000000 0.325644
0.490889 1.000000 0.318745
0.651263 1.000000 0.311847
0.811636 1.000000 0.304948
0.972010 1.000000 0.298050
1.000000 1.000000 0.291151
0.000000 0.000000 0.614573
0.112355 0.000000 0.607675
0.272728 0.000000 0.600776
0.433102 0.000000 0.593878
0.593475 0.000000 0.586979
0.753849 0.000000 0.580081
0.914222 0.000000 0.573182
1.000000 0.000000 0.566284
1.000000 0.000000 0.559385
0.000000 0.101232 0.601424
0.099206 0.094334 0.594526
0.259579 0.087435 0.587627
0.419953 0.080537 0.580729
0.580326 0.073638 0.573830
0.740700 0.066740 0.566932
0.901073 0.059841 0.560033
1.000000 0.052943 0.553135
1.000000 0.046044 0.546236
0.000000 0.250484 0.588276
0.086057 0.243585 0.581377
0.246431 0.236687 0.574479
0.406804 0.229788 0.567580
0.567178 0.222890 0.560682
0.727551 0.215991 0.553783
0.887924 0.209093 0.546885
1.000000 0.202194 0.539986
1.000000 0.195296 0.533087
0.000000 0.399735 0.575127
0.072908 0.392836 0.568228
0.233282 0.385938 0.561330
0.393655 0.379039 0.554431
0.554029 0.372141 0.547533
0.714402 0.365242 0.540634
0.874776 0.358344 0.533736
1.000000 0.351445 0.526837
1.000000 0.344547 0.519939
0.000000 0.548986 0.561978
0.059760 0.542088 0.555080
0.220133 0.535189 0.548181
0.380507 0.528290 0.541283
0.540880 0.521392 0.534384
0.701253 0.514493 0.527485
0.861627 0.507595 0.520587
1.000000 0.500696 0.513688
1.000000 0.493798 0.506790
0.000000 0.698237 0.548829
0.046611 0.691339 0.541931
0.206984 0.684440 0.535032
0.367358 0.677542 0.528134
0.527731 0.670643 0.521235
0.688105 0.663745 0.514337
0.848478 0.656846 0.507438
1.000000 0.649948 0.500540
1.000000 0.643049 0.493641
0.000000 0.847489 0.535680
0.033462 0.840590 0.528782
0.193835 0.833691 0.521883
0.354209 0.826793 0.514985
0.514582 0.819894 0.508086
0.674956 0.812996 0.501188
0.835329 0.806097 0.494289
0.995703 0.799199 0.487391
1.000000 0.792300 0.480492
0.000000 0.996740 0.522532
0.020313 0.989841 0.515633
0.180687 0.982943 0.508735
0.341060 0.976044 0.501836
0.501434 0.969146 0.494938
0.661807 0.962247 0.488039
0.822180 0.955349 0.481141
0.982554 0.948450 0.474242
1.000000 0.941551 0.467343
0.000000 1.000000 0.509383
0.007164 1.000000 0.502484
0.167538 1.000000 0.495586
0.327911 1.000000 0.488687
0.488285 1.000000 0.481789
0.648658 1.000000 0.474890
0.809032 1.000000 0.467992
0.969405 1.000000 0.461093
1.000000 1.000000 0.454195
0.000000 0.000000 0.777617
0.109750 0.000000 0.770718
0.270124 0.000000 0.763820
0.430497 0.000000 0.756921
0.590870 0.000000 0.750022
0.751244 0.000000 0.743124
0.911617 0.000000 0.736225
1.000000 0.000000 0.729327
1.000000 0.000000 0.722428
0.000000 0.098628 0.764468
0.096601 0.091729 0.757569
0.256975 0.084831 0.750671
0.417348 0.077932 0.743772
0.577722 0.071034 0.736874
0.738095 0.064135 0.729975
0.898469 0.057237 0.723077
1.000000 0.050338 0.716178
1.000000 0.043440 0.709280
0.000000 0.247879 0.751319
0.083453 0.240981 0.744420
0.243826 0.234082 0.737522
0.404199 0.227183 0.730623
0.564573 0.220285 0.723725
0.724946 0.213386 0.716826
0.885320 0.206488 0.709928
1.000000 0.199589 0.703029
1.000000 0.192691 0.696131
0.000000 0.397130 0.738170
0.070304 0.390232 0.731272
0.230677 0.383333 0.724373
0.391051 0.376435 0.717475
0.551424 0.369536 0.710576
0.711798 0.362638 0.703678
0.872171 0.355739 0.696779
1.000000 0.348841 0.689880
1.000000 0.341942 0.682982
0.000000 0.546381 0.725021
0.057155 0.539483 0.718123
0.217528 0.532584 0.711224
0.377902 0.525686 0.704326
0.538275 0.518787 0.697427
0.698649 0.511889 0.690529
0.859022 0.504990 0.683630
1.000000 0.498092 0.676732
1.000000 0.491193 0.669833
0.000000 0.695633 0.711873
0.044006 0.688734 0.704974
0.204380 0.681836 0.698076
0.364753 0.674937 0.691177
0.525126 0.668039 0.684278
0.685500 0.661140 0.677380
0.845873 0.654241 0.670481
1.000000 0.647343 0.663583
1.000000 0.640444 0.656684
0.000000 0.844884 0.698724
0.030857 0.837985 0.691825
0.191231 0.831087 0.684927
0.351604 0.824188 0.678028
0.511978 0.817290 0.671130
0.672351 0.810391 0.664231
0.832725 0.803493 0.657333
0.993098 0.796594 0.650434
1.000000 0.789696 0.643536
0.000000 0.994135 0.685575
0.017709 0.987236 0.678676
0.178082 0.980338 0.671778
0.338455 0.973439 0.664879
0.498829 0.966541 0.657981
0.659202 0.959642 0.651082
0.819576 0.952744 0.644184
0.979949 0.945845 0.637285
1.000000 0.938947 0.630387
0.000000 1.000000 0.672426
0.004560 1.000000 0.665528
0.164933 1.000000 0.658629
0.325307 1.000000 0.651731
0.485680 1.000000 0.644832
0.646054 1.000000 0.637934
0.806427 1.000000 0.631035
0.966801 1.000000 0.624136
1.000000 1.000000 0.617238
0.000000 0.000000 0.940660
0.107145 0.000000 0.933761
0.267519 0.000000 0.926863
0.427892 0.000000 0.919964
0.588266 0.000000 0.913066
0.748639 0.000000 0.906167
0.909013 0.000000 0.899269
1.000000 0.000000 0.892370
1.000000 0.000000 0.885472
0.000000 0.096023 0.927511
0.093997 0.089125 0.920613
0.254370 0.082226 0.913714
0.414744 0.075328 0.906815
0.575117 0.068429 0.899917
0.735490 0.061531 0.893018
0.895864 0.054632 0.886120
1.000000 0.047733 0.879221
1.000000 0.040835 0.872323
0.000000 0.245274 0.914362
0.080848 0.238376 0.907464
0.241221 0.231477 0.900565
0.401595 0.224579 0.893667
0.561968 0.217680 0.886768
0.722342 0.210782 0.879870
0.882715 0.203883 0.872971
1.000000 0.196985 0.866073
1.000000 0.190086 0.859174
0.000000 0.394526 0.901213
0.067699 0.387627 0.894315
0.228073 0.380729 0.887416
0.388446 0.373830 0.880518
0.548819 0.366931 0.873619
0.709193 0.360033 0.866721
0.869566 0.353134 0.859822
1.000000 0.346236 0.852924
1.000000 0.339337 0.846025
0.000000 0.543777 0.888065
0.054550 0.536878 0.881166
0.214924 0.529980 0.874268
0.375297 0.523081 0.867369
0.535671 0.516183 0.860471
0.696044 0.509284 0.853572
0.856418 0.502386 0.846674
1.000000 0.495487 0.839775
1.000000 0.488589 0.832876
0.000000 0.693028 0.874916
0.041401 0.686129 0.868017
0.201775 0.679231 0.861119
0.362148 0.672332 0.854220
0.522522 0.665434 0.847322
0.682895 0.658535 0.840423
0.843269 0.651637 0.833525
1.000000 0.644738 0.826626
1.000000 0.637840 0.819728
0.000000 0.842279 0.861767
0.028253 0.835381 0.854869
0.188626 0.828482 0.847970
0.349000 0.821584 0.841071
0.509373 0.814685 0.834173
0.669746 0.807787 0.827274
0.830120 0.800888 0.820376
0.990493 0.793989 0.813477
1.000000 0.787091 0.806579
0.000000 0.991530 0.848618
0.015104 0.984632 0.841720
0.175477 0.977733 0.834821
0.335851 0.970835 0.827923
0.496224 0.963936 0.821024
0.656598 0.957038 0.814126
0.816971 0.950139 0.807227
0.977345 0.943241 0.800329
1.000000 0.936342 0.793430
0.000000 1.000000 0.835469
0.001955 1.000000 0.828571
0.162329 1.000000 0.821672
0.322702 1.000000 0.814774
0.483075 1.000000 0.807875
0.643449 1.000000 0.800977
0.803822 1.000000 0.794078
0.964196 1.000000 0.787180
1.000000 1.000000 0.780281
0.000000 0.000000 1.000000
0.104541 0.000000 1.000000
0.264914 0.000000 1.000000
0.425288 0.000000 1.000000
0.585661 0.000000 1.000000
0.746035 0.000000 1.000000
0.906408 0.000000 1.000000
1.000000 0.000000 1.000000
1.000000 0.000000 1.000000
0.000000 0.093418 1.000000
0.091392 0.086520 1.000000
0.251765 0.079621 1.000000
0.412139 0.072723 1.000000
0.572512 0.065824 1.000000
0.732886 0.058926 1.000000
0.893259 0.052027 1.000000
1.000000 0.045129 1.000000
1.000000 0.038230 1.000000
0.000000 0.242670 1.000000
0.078243 0.235771 1.000000
0.238617 0.228873 1.000000
0.398990 0.221974 1.000000
0.559364 0.215076 1.000000
0.719737 0.208177 1.000000
0.880110 0.201279 1.000000
1.000000 0.194380 1.000000
1.000000 0.187481 1.000000
0.000000 0.391921 1.000000
0.065094 0.385022 1.000000
0.225468 0.378124 1.000000
0.385841 0.371225 1.000000
0.546215 0.364327 1.000000
0.706588 0.357428 1.000000
0.866962 0.350530 1.000000
1.000000 0.343631 1.000000
1.000000 0.336733 1.000000
0.000000 0.541172 1.000000
0.051946 0.534274 1.000000
0.212319 0.527375 1.000000
0.372692 0.520476 1.000000
0.533066 0.513578 1.000000
0.693439 0.506679 1.000000
0.853813 0.499781 1.000000
1.000000 0.492882 1.000000
1.000000 0.485984 0.995920
0.000000 0.690423 1.000000
0.038797 0.683525 1.000000
0.199170 0.676626 1.000000
0.359544 0.669728 1.000000
0.519917 0.662829 1.000000
0.680291 0.655931 1.000000
0.840664 0.649032 0.996568
1.000000 0.642134 0.989670
1.000000 0.635235 0.982771
0.000000 0.839674 1.000000
0.025648 0.832776 1.000000
0.186021 0.825877 1.000000
0.346395 0.818979 1.000000
0.506768 0.812080 0.997216
0.667142 0.805182 0.990318
0.827515 0.798283 0.983419
0.987889 0.791385 0.976521
1.000000 0.784486 0.969622
0.000000 0.988926 1.000000
0.012499 0.982027 1.000000
0.172873 0.975129 0.997865
0.333246 0.968230 0.990966
0.493620 0.961332 0.984068
0.653993 0.954433 0.977169
0.814366 0.947535 0.970270
0.974740 0.940636 0.963372
1.000000 0.933737 0.956473
0.000000 1.000000 0.998513
0.000000 1.000000 0.991614
0.159724 1.000000 0.984716
0.320097 1.000000 0.977817
0.480471 1.000000 0.970919
0.640844 1.000000 0.964020
0.801218 1.000000 0.957122
0.961591 1.000000 0.950223
1.000000 1.000000 0.943325
0.000000 0.000000 1.000000
0.101936 0.000000 1.000000
0.262310 0.000000 1.000000
0.422683 0.000000 1.000000
0.583056 0.000000 1.000000
0.743430 0.000000 1.000000
0.903803 0.000000 1.000000
1.000000 0.000000 1.000000
1.000000 0.000000 1.000000
0.000000 0.090814 1.000000
0.088787 0.083915 1.000000
0.249161 0.077017 1.000000
0.409534 0.070118 1.000000
0.569908 0.063220 1.000000
0.730281 0.056321 1.000000
0.890655 0.049423 1.000000
1.000000 0.042524 1.000000
1.000000 0.035626 1.000000
0.000000 0.240065 1.000000
0.075639 0.233167 1.000000
0.236012 0.226268 1.000000
0.396385 0.219369 1.000000
0.556759 0.212471 1.000000
0.717132 0.205572 1.000000
0.877506 0.198674 1.000000
1.000000 0.191775 1.000000
1.000000 0.184877 1.000000
0.000000 0.389316 1.000000
0.062490 0.382418 1.000000
0.222863 0.375519 1.000000
0.383237 0.368621 1.000000
0.543610 0.361722 1.000000
0.703983 0.354824 1.000000
0.864357 0.347925 1.000000
1.000000 0.341027 1.000000
1.000000 0.334128 1.000000
0.000000 0.538567 1.000000
0.049341 0.531669 1.000000
0.209714 0.524770 1.000000
0.370088 0.517872 1.000000
0.530461 0.510973 1.000000
0.690835 0.504075 1.000000
0.851208 0.497176 1.000000
1.000000 0.490278 1.000000
1.000000 0.483379 1.000000
0.000000 0.687819 1.000000
0.036192 0.680920 1.000000
0.196566 0.674022 1.000000
0.356939 0.667123 1.000000
0.517312 0.660225 1.000000
0.677686 0.653326 1.000000
0.838059 0.646427 1.000000
0.998433 0.639529 1.000000
1.000000 0.632630 1.000000
0.000000 0.837070 1.000000
0.023043 0.830171 1.000000
0.183417 0.823273 1.000000
0.343790 0.816374 1.000000
0.504164 0.809476 1.000000
0.664537 0.802577 1.000000
0.824911 0.795679 1.000000
0.985284 0.788780 1.000000
1.000000 0.781882 1.000000
0.000000 0.986321 1.000000
0.009895 0.979422 1.000000
0.170268 0.972524 1.000000
0.330641 0.965625 1.000000
0.491015 0.958727 1.000000
0.651388 0.951828 1.000000
0.811762 0.944930 1.000000
0.972135 0.938031 1.000000
1.000000 0.931133 1.000000
0.000000 1.000000 1.000000
0.000000 1.000000 1.000000
0.157119 1.000000 1.000000
0.317493 1.000000 1.000000
0.477866 1.000000 1.000000
0.638239 1.000000 1.000000
0.798613 1.000000 1.000000
0.958986 1.000000 1.000000
1.000000 1.000000 1.000000
