assets/luts/primelive_amb_milktea_warm.cube
TITLE "primelive Milktea Warm"
LUT_3D_SIZE 33
DOMAIN_MIN 0.0 0.0 0.0
DOMAIN_MAX 1.0 1.0 1.0
0.068359 0.055065 0.045859
0.105574 0.054902 0.045662
0.141008 0.054748 0.045475
0.175430 0.054598 0.045293
0.209148 0.054451 0.045114
0.242326 0.054307 0.044939
0.275068 0.054164 0.044765
0.307444 0.054023 0.044594
0.339507 0.053883 0.044424
0.371295 0.053745 0.044256
0.402839 0.053607 0.044089
0.434163 0.053471 0.043924
0.465288 0.053335 0.043759
0.496231 0.053200 0.043595
0.527006 0.053066 0.043432
0.557626 0.052933 0.043270
0.588100 0.052800 0.043109
0.618439 0.052668 0.042949
0.648651 0.052536 0.042789
0.678743 0.052405 0.042629
0.708721 0.052274 0.042471
0.738592 0.052144 0.042313
0.768361 0.052014 0.042155
0.798033 0.051885 0.041998
0.827611 0.051756 0.041842
0.857101 0.051628 0.041686
0.886505 0.051500 0.041530
0.915828 0.051372 0.041375
0.945072 0.051244 0.041220
0.974241 0.051117 0.041066
1.000000 0.050990 0.040912
1.000000 0.050889 0.040792
1.000000 0.050889 0.040792
0.067718 0.090726 0.045218
0.104933 0.090564 0.045021
0.140367 0.090409 0.044834
0.174790 0.090259 0.044652
0.208507 0.090113 0.044473
0.241685 0.089968 0.044298
0.274427 0.089825 0.044125
0.306803 0.089684 0.043953
0.338866 0.089545 0.043784
0.370654 0.089406 0.043616
0.402198 0.089269 0.043449
0.433522 0.089132 0.043283
0.464647 0.088996 0.043118
0.495590 0.088862 0.042954
0.526365 0.088727 0.042792
0.556985 0.088594 0.042630
0.587460 0.088461 0.042468
0.617799 0.088329 0.042308
0.648010 0.088197 0.042148
0.678102 0.088066 0.041989
0.708081 0.087936 0.041830
0.737952 0.087806 0.041672
0.767720 0.087676 0.041515
0.797392 0.087547 0.041358
0.826970 0.087418 0.041201
0.856460 0.087289 0.041045
0.885864 0.087161 0.040889
0.915187 0.087033 0.040734
0.944432 0.086906 0.040580
0.973600 0.086779 0.040425
1.000000 0.086652 0.040271
1.000000 0.086552 0.040152
1.000000 0.086552 0.040152
0.067108 0.124706 0.044608
0.104323 0.124544 0.044411
0.139756 0.124390 0.044223
0.174179 0.124240 0.044041
0.207897 0.124093 0.043863
0.241075 0.123948 0.043687
0.273816 0.123805 0.043514
0.306193 0.123664 0.043343
0.338255 0.123525 0.043173
0.370043 0.123386 0.043005
0.401587 0.123249 0.042838
0.432912 0.123112 0.042672
0.464037 0.122976 0.042508
0.494980 0.122842 0.042344
0.525755 0.122708 0.042181
0.556374 0.122574 0.042019
0.586849 0.122441 0.041858
0.617188 0.122309 0.041697
0.647400 0.122177 0.041537
0.677492 0.122046 0.041378
0.707470 0.121916 0.041220
0.737341 0.121786 0.041061
0.767110 0.121656 0.040904
0.796781 0.121527 0.040747
0.826360 0.121398 0.040590
0.855849 0.121269 0.040434
0.885254 0.121141 0.040279
0.914577 0.121013 0.040124
0.943821 0.120886 0.039969
0.972990 0.120759 0.039815
1.000000 0.120632 0.039661
1.000000 0.120533 0.039542
1.000000 0.120533 0.039542
0.066515 0.157725 0.044015
0.103730 0.157563 0.043818
0.139163 0.157409 0.043630
0.173586 0.157259 0.043448
0.207303 0.157112 0.043270
0.240481 0.156967 0.043094
0.273223 0.156825 0.042921
0.305600 0.156683 0.042749
0.337662 0.156544 0.042580
0.369450 0.156405 0.042412
0.400994 0.156268 0.042245
0.432318 0.156131 0.042079
0.463443 0.155996 0.041914
0.494386 0.155861 0.041751
0.525162 0.155727 0.041588
0.555781 0.155593 0.041426
0.586256 0.155460 0.041264
0.616595 0.155328 0.041104
0.646807 0.155197 0.040944
0.676898 0.155066 0.040785
0.706877 0.154935 0.040626
0.736748 0.154805 0.040468
0.766516 0.154675 0.040311
0.796188 0.154546 0.040154
0.825766 0.154417 0.039997
0.855256 0.154288 0.039841
0.884661 0.154160 0.039686
0.913983 0.154032 0.039530
0.943228 0.153905 0.039376
0.972396 0.153778 0.039221
1.000000 0.153651 0.039067
1.000000 0.153554 0.038949
1.000000 0.153554 0.038949
0.065933 0.190072 0.043433
0.103148 0.189910 0.043236
0.138582 0.189756 0.043049
0.173005 0.189606 0.042867
0.206722 0.189459 0.042688
0.239900 0.189314 0.042513
0.272642 0.189171 0.042340
0.305018 0.189030 0.042168
0.337081 0.188891 0.041999
0.368869 0.188752 0.041830
0.400413 0.188615 0.041664
0.431737 0.188478 0.041498
0.462862 0.188343 0.041333
0.493805 0.188208 0.041169
0.524580 0.188074 0.041007
0.555200 0.187940 0.040844
0.585674 0.187807 0.040683
0.616013 0.187675 0.040523
0.646225 0.187544 0.040363
0.676317 0.187412 0.040204
0.706296 0.187282 0.040045
0.736166 0.187152 0.039887
0.765935 0.187022 0.039729
0.795607 0.186893 0.039572
0.825185 0.186764 0.039416
0.854675 0.186635 0.039260
0.884079 0.186507 0.039104
0.913402 0.186379 0.038949
0.942647 0.186252 0.038794
0.971815 0.186125 0.038640
1.000000 0.185998 0.038486
1.000000 0.185901 0.038368
1.000000 0.185901 0.038368
0.065361 0.221904 0.042861
0.102576 0.221742 0.042664
0.138010 0.221587 0.042477
0.172433 0.221437 0.042295
0.206150 0.221290 0.042116
0.239328 0.221146 0.041941
0.272070 0.221003 0.041768
0.304446 0.220862 0.041596
0.336509 0.220722 0.041427
0.368297 0.220584 0.041258
0.399841 0.220446 0.041092
0.431165 0.220310 0.040926
0.462290 0.220174 0.040761
0.493233 0.220039 0.040597
0.524008 0.219905 0.040435
0.554628 0.219772 0.040273
0.585102 0.219639 0.040111
0.615442 0.219507 0.039951
0.645653 0.219375 0.039791
0.675745 0.219244 0.039632
0.705724 0.219113 0.039473
0.735594 0.218983 0.039315
0.765363 0.218854 0.039157
0.795035 0.218724 0.039000
0.824613 0.218595 0.038844
0.854103 0.218467 0.038688
0.883507 0.218339 0.038532
0.912830 0.218211 0.038377
0.942075 0.218084 0.038222
0.971243 0.217956 0.038068
1.000000 0.217830 0.037914
1.000000 0.217732 0.037796
1.000000 0.217732 0.037796
0.064797 0.253319 0.042297
0.102012 0.253156 0.042100
0.137445 0.253002 0.041912
0.171868 0.252852 0.041730
0.205586 0.252705 0.041552
0.238764 0.252561 0.041376
0.271506 0.252418 0.041203
0.303882 0.252277 0.041032
0.335945 0.252137 0.040862
0.367732 0.251999 0.040694
0.399276 0.251861 0.040527
0.430601 0.251725 0.040361
0.461726 0.251589 0.040197
0.492669 0.251454 0.040033
0.523444 0.251320 0.039870
0.554063 0.251187 0.039708
0.584538 0.251054 0.039547
0.614877 0.250922 0.039386
0.645089 0.250790 0.039226
0.675181 0.250659 0.039067
0.705159 0.250528 0.038909
0.735030 0.250398 0.038751
0.764799 0.250268 0.038593
0.794470 0.250139 0.038436
0.824049 0.250010 0.038279
0.853538 0.249882 0.038123
0.882943 0.249754 0.037968
0.912266 0.249626 0.037813
0.941510 0.249498 0.037658
0.970679 0.249371 0.037504
0.999775 0.249244 0.037350
1.000000 0.249147 0.037232
1.000000 0.249147 0.037232
0.064239 0.284384 0.041739
0.101454 0.284222 0.041542
0.136887 0.284067 0.041354
0.171310 0.283917 0.041172
0.205028 0.283770 0.040994
0.238206 0.283626 0.040818
0.270947 0.283483 0.040645
0.303324 0.283342 0.040474
0.335386 0.283202 0.040304
0.367174 0.283064 0.040136
0.398718 0.282926 0.039969
0.430042 0.282790 0.039803
0.461168 0.282654 0.039638
0.492111 0.282520 0.039475
0.522886 0.282385 0.039312
0.553505 0.282252 0.039150
0.583980 0.282119 0.038989
0.614319 0.281987 0.038828
0.644531 0.281855 0.038668
0.674622 0.281724 0.038509
0.704601 0.281594 0.038350
0.734472 0.281463 0.038192
0.764241 0.281334 0.038035
0.793912 0.281204 0.037878
0.823491 0.281076 0.037721
0.852980 0.280947 0.037565
0.882385 0.280819 0.037410
0.911708 0.280691 0.037255
0.940952 0.280564 0.037100
0.970121 0.280437 0.036945
0.999216 0.280310 0.036791
1.000000 0.280212 0.036673
1.000000 0.280212 0.036673
0.063686 0.315149 0.041186
0.100901 0.314987 0.040989
0.136334 0.314833 0.040801
0.170757 0.314683 0.040619
0.204475 0.314536 0.040441
0.237653 0.314391 0.040265
0.270395 0.314248 0.040092
0.302771 0.314107 0.039921
0.334834 0.313968 0.039751
0.366621 0.313829 0.039583
0.398165 0.313692 0.039416
0.429490 0.313555 0.039250
0.460615 0.313419 0.039086
0.491558 0.313285 0.038922
0.522333 0.313151 0.038759
0.552952 0.313017 0.038597
0.583427 0.312884 0.038436
0.613766 0.312752 0.038275
0.643978 0.312620 0.038115
0.674070 0.312489 0.037956
0.704048 0.312359 0.037798
0.733919 0.312229 0.037640
0.763688 0.312099 0.037482
0.793359 0.311970 0.037325
0.822938 0.311841 0.037168
0.852427 0.311712 0.037012
0.881832 0.311584 0.036857
0.911155 0.311456 0.036702
0.940399 0.311329 0.036547
0.969568 0.311202 0.036393
0.998664 0.311075 0.036239
1.000000 0.310978 0.036121
1.000000 0.310978 0.036121
0.063138 0.345651 0.040638
0.100353 0.345489 0.040441
0.135786 0.345335 0.040253
0.170209 0.345185 0.040071
0.203927 0.345038 0.039893
0.237105 0.344893 0.039717
0.269846 0.344751 0.039544
0.302223 0.344609 0.039373
0.334285 0.344470 0.039203
0.366073 0.344331 0.039035
0.397617 0.344194 0.038868
0.428942 0.344057 0.038702
0.460067 0.343922 0.038538
0.491010 0.343787 0.038374
0.521785 0.343653 0.038211
0.552404 0.343519 0.038049
0.582879 0.343387 0.037888
0.613218 0.343254 0.037727
0.643430 0.343123 0.037567
0.673522 0.342992 0.037408
0.703500 0.342861 0.037249
0.733371 0.342731 0.037091
0.763140 0.342601 0.036934
0.792811 0.342472 0.036777
0.822390 0.342343 0.036620
0.851879 0.342214 0.036464
0.881284 0.342086 0.036309
0.910607 0.341958 0.036154
0.939851 0.341831 0.035999
0.969020 0.341704 0.035845
0.998116 0.341577 0.035691
1.000000 0.341480 0.035572
1.000000 0.341480 0.035572
0.062594 0.375920 0.040094
0.099809 0.375758 0.039897
0.135242 0.375603 0.039710
0.169665 0.375453 0.039527
0.203383 0.375306 0.039349
0.236561 0.375162 0.039173
0.269303 0.375019 0.039000
0.301679 0.374878 0.038829
0.333742 0.374738 0.038659
0.365529 0.374600 0.038491
0.397073 0.374462 0.038324
0.428398 0.374326 0.038158
0.459523 0.374190 0.037994
0.490466 0.374055 0.037830
0.521241 0.373921 0.037667
0.551860 0.373788 0.037505
0.582335 0.373655 0.037344
0.612674 0.373523 0.037183
0.642886 0.373391 0.037023
0.672978 0.373260 0.036864
0.702956 0.373129 0.036706
0.732827 0.372999 0.036548
0.762596 0.372870 0.036390
0.792267 0.372740 0.036233
0.821846 0.372611 0.036077
0.851335 0.372483 0.035921
0.880740 0.372355 0.035765
0.910063 0.372227 0.035610
0.939307 0.372100 0.035455
0.968476 0.371972 0.035301
0.997572 0.371846 0.035147
1.000000 0.371748 0.035029
1.000000 0.371748 0.035029
0.062054 0.405978 0.039554
0.099269 0.405816 0.039357
0.134702 0.405662 0.039169
0.169125 0.405512 0.038987
0.202843 0.405365 0.038809
0.236021 0.405220 0.038633
0.268762 0.405077 0.038460
0.301139 0.404936 0.038289
0.333201 0.404797 0.038119
0.364989 0.404658 0.037951
0.396533 0.404521 0.037784
0.427858 0.404384 0.037618
0.458983 0.404249 0.037454
0.489926 0.404114 0.037290
0.520701 0.403980 0.037127
0.551320 0.403846 0.036965
0.581795 0.403713 0.036804
0.612134 0.403581 0.036643
0.642346 0.403450 0.036483
0.672438 0.403318 0.036324
0.702416 0.403188 0.036166
0.732287 0.403058 0.036007
0.762056 0.402928 0.035850
0.791727 0.402799 0.035693
0.821306 0.402670 0.035536
0.850795 0.402541 0.035380
0.880200 0.402413 0.035225
0.909523 0.402285 0.035070
0.938767 0.402158 0.034915
0.967936 0.402031 0.034761
0.997032 0.401904 0.034607
1.000000 0.401807 0.034488
1.000000 0.401807 0.034488
0.061517 0.435846 0.039017
0.098732 0.435684 0.038820
0.134166 0.435529 0.038633
0.168588 0.435379 0.038451
0.202306 0.435232 0.038272
0.235484 0.435088 0.038097
0.268226 0.434945 0.037923
0.300602 0.434804 0.037752
0.332665 0.434664 0.037582
0.364453 0.434526 0.037414
0.395996 0.434388 0.037247
0.427321 0.434252 0.037082
0.458446 0.434116 0.036917
0.489389 0.433981 0.036753
0.520164 0.433847 0.036590
0.550784 0.433714 0.036428
0.581258 0.433581 0.036267
0.611597 0.433449 0.036107
0.641809 0.433317 0.035947
0.671901 0.433186 0.035787
0.701879 0.433055 0.035629
0.731750 0.432925 0.035471
0.761519 0.432796 0.035313
0.791190 0.432666 0.035156
0.820769 0.432537 0.035000
0.850259 0.432409 0.034844
0.879663 0.432281 0.034688
0.908986 0.432153 0.034533
0.938230 0.432026 0.034378
0.967399 0.431898 0.034224
0.996495 0.431772 0.034070
1.000000 0.431674 0.033952
1.000000 0.431674 0.033952
0.060984 0.465539 0.038484
0.098199 0.465377 0.038287
0.133632 0.465222 0.038099
0.168055 0.465072 0.037917
0.201773 0.464925 0.037739
0.234950 0.464781 0.037563
0.267692 0.464638 0.037390
0.300069 0.464497 0.037219
0.332131 0.464357 0.037049
0.363919 0.464219 0.036881
0.395463 0.464081 0.036714
0.426787 0.463945 0.036548
0.457913 0.463809 0.036383
0.488856 0.463674 0.036220
0.519631 0.463540 0.036057
0.550250 0.463407 0.035895
0.580725 0.463274 0.035734
0.611064 0.463142 0.035573
0.641276 0.463010 0.035413
0.671367 0.462879 0.035254
0.701346 0.462749 0.035095
0.731217 0.462618 0.034937
0.760986 0.462489 0.034780
0.790657 0.462359 0.034623
0.820235 0.462230 0.034466
0.849725 0.462102 0.034310
0.879130 0.461974 0.034155
0.908453 0.461846 0.033999
0.937697 0.461719 0.033845
0.966866 0.461592 0.033690
0.995961 0.461465 0.033536
1.000000 0.461367 0.033418
1.000000 0.461367 0.033418
0.060453 0.495071 0.037953
0.097668 0.494909 0.037756
0.133101 0.494755 0.037569
0.167524 0.494605 0.037386
0.201242 0.494458 0.037208
0.234420 0.494313 0.037032
0.267162 0.494170 0.036859
0.299538 0.494029 0.036688
0.331601 0.493890 0.036518
0.363389 0.493751 0.036350
0.394932 0.493614 0.036183
0.426257 0.493477 0.036017
0.457382 0.493341 0.035853
0.488325 0.493207 0.035689
0.519100 0.493073 0.035526
0.549719 0.492939 0.035364
0.580194 0.492806 0.035203
0.610533 0.492674 0.035042
0.640745 0.492542 0.034883
0.670837 0.492411 0.034723
0.700815 0.492281 0.034565
0.730686 0.492151 0.034407
0.760455 0.492021 0.034249
0.790126 0.491892 0.034092
0.819705 0.491763 0.033936
0.849195 0.491634 0.033780
0.878599 0.491506 0.033624
0.907922 0.491378 0.033469
0.937166 0.491251 0.033314
0.966335 0.491124 0.033160
0.995431 0.490997 0.033006
1.000000 0.490900 0.032888
1.000000 0.490900 0.032888
0.059925 0.524454 0.037425
0.097140 0.524292 0.037228
0.132573 0.524138 0.037041
0.166996 0.523988 0.036858
0.200714 0.523841 0.036680
0.233892 0.523696 0.036505
0.266634 0.523554 0.036331
0.299010 0.523412 0.036160
0.331073 0.523273 0.035990
0.362861 0.523134 0.035822
0.394404 0.522997 0.035655
0.425729 0.522860 0.035489
0.456854 0.522725 0.035325
0.487797 0.522590 0.035161
0.518572 0.522456 0.034998
0.549191 0.522322 0.034836
0.579666 0.522189 0.034675
0.610005 0.522057 0.034514
0.640217 0.521926 0.034355
0.670309 0.521794 0.034195
0.700287 0.521664 0.034037
0.730158 0.521534 0.033879
0.759927 0.521404 0.033721
0.789598 0.521275 0.033564
0.819177 0.521146 0.033408
0.848667 0.521017 0.033252
0.878071 0.520889 0.033096
0.907394 0.520761 0.032941
0.936638 0.520634 0.032786
0.965807 0.520507 0.032632
0.994903 0.520380 0.032478
1.000000 0.520283 0.032360
1.000000 0.520283 0.032360
0.059400 0.553699 0.036900
0.096615 0.553536 0.036703
0.132048 0.553382 0.036515
0.166471 0.553232 0.036333
0.200188 0.553085 0.036155
0.233366 0.552940 0.035979
0.266108 0.552798 0.035806
0.298485 0.552657 0.035634
0.330547 0.552517 0.035465
0.362335 0.552378 0.035297
0.393879 0.552241 0.035130
0.425203 0.552105 0.034964
0.456328 0.551969 0.034799
0.487271 0.551834 0.034636
0.518046 0.551700 0.034473
0.548666 0.551567 0.034311
0.579141 0.551434 0.034149
0.609480 0.551302 0.033989
0.639691 0.551170 0.033829
0.669783 0.551039 0.033670
0.699762 0.550908 0.033511
0.729633 0.550778 0.033353
0.759401 0.550648 0.033196
0.789073 0.550519 0.033039
0.818651 0.550390 0.032882
0.848141 0.550262 0.032726
0.877546 0.550133 0.032571
0.906868 0.550006 0.032415
0.936113 0.549878 0.032261
0.965281 0.549751 0.032106
0.994377 0.549624 0.031952
1.000000 0.549527 0.031834
1.000000 0.549527 0.031834
0.058876 0.582813 0.036376
0.096091 0.582651 0.036179
0.131525 0.582496 0.035992
0.165948 0.582346 0.035810
0.199665 0.582199 0.035631
0.232843 0.582055 0.035456
0.265585 0.581912 0.035283
0.297961 0.581771 0.035111
0.330024 0.581631 0.034942
0.361812 0.581493 0.034773
0.393356 0.581355 0.034607
0.424680 0.581219 0.034441
0.455805 0.581083 0.034276
0.486748 0.580948 0.034112
0.517523 0.580814 0.033950
0.548143 0.580681 0.033788
0.578617 0.580548 0.033626
0.608957 0.580416 0.033466
0.639168 0.580284 0.033306
0.669260 0.580153 0.033147
0.699239 0.580023 0.032988
0.729110 0.579892 0.032830
0.758878 0.579763 0.032673
0.788550 0.579633 0.032516
0.818128 0.579504 0.032359
0.847618 0.579376 0.032203
0.877022 0.579248 0.032047
0.906345 0.579120 0.031892
0.935590 0.578993 0.031737
0.964758 0.578866 0.031583
0.993854 0.578739 0.031429
1.000000 0.578641 0.031311
1.000000 0.578641 0.031311
0.058355 0.611805 0.035855
0.095570 0.611643 0.035659
0.131004 0.611489 0.035471
0.165427 0.611339 0.035289
0.199144 0.611192 0.035110
0.232322 0.611047 0.034935
0.265064 0.610905 0.034762
0.297440 0.610764 0.034590
0.329503 0.610624 0.034421
0.361291 0.610485 0.034253
0.392835 0.610348 0.034086
0.424159 0.610211 0.033920
0.455284 0.610076 0.033755
0.486227 0.609941 0.033591
0.517002 0.609807 0.033429
0.547622 0.609673 0.033267
0.578097 0.609541 0.033105
0.608436 0.609408 0.032945
0.638647 0.609277 0.032785
0.668739 0.609146 0.032626
0.698718 0.609015 0.032467
0.728589 0.608885 0.032309
0.758357 0.608755 0.032152
0.788029 0.608626 0.031995
0.817607 0.608497 0.031838
0.847097 0.608368 0.031682
0.876502 0.608240 0.031526
0.905824 0.608112 0.031371
0.935069 0.607985 0.031217
0.964237 0.607858 0.031062
0.993333 0.607731 0.030908
1.000000 0.607634 0.030790
1.000000 0.607634 0.030790
0.057837 0.640683 0.035337
0.095052 0.640521 0.035140
0.130485 0.640366 0.034952
0.164908 0.640216 0.034770
0.198625 0.640069 0.034592
0.231803 0.639925 0.034416
0.264545 0.639782 0.034243
0.296922 0.639641 0.034072
0.328984 0.639501 0.033902
0.360772 0.639363 0.033734
0.392316 0.639225 0.033567
0.423640 0.639089 0.033401
0.454765 0.638953 0.033236
0.485708 0.638818 0.033073
0.516484 0.638684 0.032910
0.547103 0.638551 0.032748
0.577578 0.638418 0.032586
0.607917 0.638286 0.032426
0.638129 0.638154 0.032266
0.668220 0.638023 0.032107
0.698199 0.637892 0.031948
0.728070 0.637762 0.031790
0.757838 0.637632 0.031633
0.787510 0.637503 0.031476
0.817088 0.637374 0.031319
0.846578 0.637246 0.031163
0.875983 0.637118 0.031008
0.905305 0.636990 0.030852
0.934550 0.636862 0.030698
0.963718 0.636735 0.030543
0.992814 0.636609 0.030389
1.000000 0.636511 0.030271
1.000000 0.636511 0.030271
0.057320 0.669451 0.034820
0.094535 0.669289 0.034623
0.129968 0.669135 0.034435
0.164391 0.668985 0.034253
0.198109 0.668838 0.034075
0.231287 0.668693 0.033899
0.264028 0.668551 0.033726
0.296405 0.668410 0.033555
0.328467 0.668270 0.033385
0.360255 0.668131 0.033217
0.391799 0.667994 0.033050
0.423123 0.667857 0.032884
0.454249 0.667722 0.032719
0.485192 0.667587 0.032556
0.515967 0.667453 0.032393
0.546586 0.667319 0.032231
0.577061 0.667187 0.032070
0.607400 0.667054 0.031909
0.637612 0.666923 0.031749
0.667703 0.666792 0.031590
0.697682 0.666661 0.031431
0.727553 0.666531 0.031273
0.757322 0.666401 0.031116
0.786993 0.666272 0.030959
0.816571 0.666143 0.030802
0.846061 0.666015 0.030646
0.875466 0.665886 0.030491
0.904789 0.665759 0.030335
0.934033 0.665631 0.030181
0.963202 0.665504 0.030026
0.992297 0.665377 0.029872
1.000000 0.665280 0.029754
1.000000 0.665280 0.029754
0.056805 0.698117 0.034305
0.094020 0.697955 0.034108
0.129453 0.697801 0.033920
0.163876 0.697651 0.033738
0.197593 0.697504 0.033560
0.230771 0.697359 0.033384
0.263513 0.697216 0.033211
0.295890 0.697075 0.033039
0.327952 0.696936 0.032870
0.359740 0.696797 0.032702
0.391284 0.696660 0.032535
0.422608 0.696523 0.032369
0.453733 0.696387 0.032204
0.484676 0.696253 0.032041
0.515452 0.696119 0.031878
0.546071 0.695985 0.031716
0.576546 0.695852 0.031554
0.606885 0.695720 0.031394
0.637097 0.695588 0.031234
0.667188 0.695457 0.031075
0.697167 0.695327 0.030916
0.727038 0.695197 0.030758
0.756806 0.695067 0.030601
0.786478 0.694938 0.030444
0.816056 0.694809 0.030287
0.845546 0.694680 0.030131
0.874951 0.694552 0.029976
0.904273 0.694424 0.029820
0.933518 0.694297 0.029666
0.962686 0.694170 0.029511
0.991782 0.694043 0.029357
1.000000 0.693946 0.029239
1.000000 0.693946 0.029239
0.056291 0.726685 0.033791
0.093506 0.726523 0.033594
0.128940 0.726368 0.033407
0.163362 0.726218 0.033225
0.197080 0.726071 0.033046
0.230258 0.725927 0.032871
0.263000 0.725784 0.032697
0.295376 0.725643 0.032526
0.327439 0.725503 0.032357
0.359227 0.725365 0.032188
0.390771 0.725227 0.032021
0.422095 0.725091 0.031856
0.453220 0.724955 0.031691
0.484163 0.724820 0.031527
0.514938 0.724686 0.031364
0.545558 0.724553 0.031202
0.576032 0.724420 0.031041
0.606371 0.724288 0.030881
0.636583 0.724156 0.030721
0.666675 0.724025 0.030562
0.696653 0.723894 0.030403
0.726524 0.723764 0.030245
0.756293 0.723635 0.030087
0.785965 0.723505 0.029930
0.815543 0.723376 0.029774
0.845033 0.723248 0.029618
0.874437 0.723120 0.029462
0.903760 0.722992 0.029307
0.933004 0.722865 0.029152
0.962173 0.722737 0.028998
0.991269 0.722611 0.028844
1.000000 0.722513 0.028726
1.000000 0.722513 0.028726
0.055780 0.755159 0.033280
0.092995 0.754997 0.033083
0.128428 0.754843 0.032895
0.162851 0.754693 0.032713
0.196569 0.754546 0.032535
0.229746 0.754401 0.032359
0.262488 0.754258 0.032186
0.294865 0.754117 0.032015
0.326927 0.753978 0.031845
0.358715 0.753839 0.031677
0.390259 0.753702 0.031510
0.421583 0.753565 0.031344
0.452709 0.753430 0.031179
0.483651 0.753295 0.031016
0.514427 0.753161 0.030853
0.545046 0.753027 0.030691
0.575521 0.752894 0.030530
0.605860 0.752762 0.030369
0.636072 0.752631 0.030209
0.666163 0.752499 0.030050
0.696142 0.752369 0.029891
0.726013 0.752239 0.029733
0.755781 0.752109 0.029576
0.785453 0.751980 0.029419
0.815031 0.751851 0.029262
0.844521 0.751722 0.029106
0.873926 0.751594 0.028951
0.903249 0.751466 0.028795
0.932493 0.751339 0.028641
0.961662 0.751212 0.028486
0.990757 0.751085 0.028332
1.000000 0.750988 0.028214
1.000000 0.750988 0.028214
0.055270 0.783545 0.032770
0.092485 0.783382 0.032573
0.127918 0.783228 0.032385
0.162341 0.783078 0.032203
0.196058 0.782931 0.032025
0.229236 0.782786 0.031849
0.261978 0.782644 0.031676
0.294355 0.782503 0.031505
0.326417 0.782363 0.031335
0.358205 0.782225 0.031167
0.389749 0.782087 0.031000
0.421073 0.781951 0.030834
0.452198 0.781815 0.030669
0.483141 0.781680 0.030506
0.513917 0.781546 0.030343
0.544536 0.781413 0.030181
0.575011 0.781280 0.030019
0.605350 0.781148 0.029859
0.635562 0.781016 0.029699
0.665653 0.780885 0.029540
0.695632 0.780754 0.029381
0.725503 0.780624 0.029223
0.755271 0.780494 0.029066
0.784943 0.780365 0.028909
0.814521 0.780236 0.028752
0.844011 0.780108 0.028596
0.873416 0.779979 0.028441
0.902738 0.779852 0.028285
0.931983 0.779724 0.028131
0.961151 0.779597 0.027976
0.990247 0.779470 0.027822
1.000000 0.779373 0.027704
1.000000 0.779373 0.027704
0.054761 0.811845 0.032261
0.091976 0.811683 0.032064
0.127410 0.811528 0.031877
0.161832 0.811378 0.031695
0.195550 0.811231 0.031516
0.228728 0.811087 0.031341
0.261470 0.810944 0.031167
0.293846 0.810803 0.030996
0.325909 0.810663 0.030826
0.357697 0.810525 0.030658
0.389240 0.810387 0.030491
0.420565 0.810251 0.030325
0.451690 0.810115 0.030161
0.482633 0.809980 0.029997
0.513408 0.809846 0.029834
0.544028 0.809713 0.029672
0.574502 0.809580 0.029511
0.604841 0.809448 0.029350
0.635053 0.809316 0.029191
0.665145 0.809185 0.029031
0.695123 0.809054 0.028873
0.724994 0.808924 0.028715
0.754763 0.808794 0.028557
0.784434 0.808665 0.028400
0.814013 0.808536 0.028244
0.843503 0.808408 0.028088
0.872907 0.808280 0.027932
0.902230 0.808152 0.027777
0.931474 0.808024 0.027622
0.960643 0.807897 0.027468
0.989739 0.807771 0.027314
1.000000 0.807673 0.027196
1.000000 0.807673 0.027196
0.054254 0.840063 0.031754
0.091469 0.839901 0.031557
0.126902 0.839747 0.031370
0.161325 0.839597 0.031187
0.195043 0.839450 0.031009
0.228221 0.839305 0.030834
0.260963 0.839162 0.030660
0.293339 0.839021 0.030489
0.325402 0.838882 0.030319
0.357190 0.838743 0.030151
0.388733 0.838606 0.029984
0.420058 0.838469 0.029818
0.451183 0.838334 0.029654
0.482126 0.838199 0.029490
0.512901 0.838065 0.029327
0.543520 0.837931 0.029165
0.573995 0.837798 0.029004
0.604334 0.837666 0.028843
0.634546 0.837535 0.028684
0.664638 0.837403 0.028524
0.694616 0.837273 0.028366
0.724487 0.837143 0.028208
0.754256 0.837013 0.028050
0.783927 0.836884 0.027893
0.813506 0.836755 0.027737
0.842996 0.836626 0.027581
0.872400 0.836498 0.027425
