assets/luts/primelive_dongjing.cube
TITLE "primelive_dongjing"
LUT_3D_SIZE 5
0.000000 0.017232 0.037691
0.262624 0.014091 0.032951
0.528475 0.010950 0.028211
0.794326 0.007809 0.023471
1.000000 0.004668 0.018731
0.000000 0.286455 0.028101
0.259504 0.283314 0.023361
0.525355 0.280173 0.018620
0.791206 0.277032 0.013880
1.000000 0.273891 0.009140
0.000000 0.555678 0.018510
0.256384 0.552537 0.013770
0.522235 0.549396 0.009030
0.788085 0.546255 0.004290
1.000000 0.543114 0.000000
0.000000 0.824901 0.008919
0.253263 0.821760 0.004179
0.519114 0.818619 0.000000
0.784965 0.815478 0.000000
1.000000 0.812337 0.000000
0.000000 1.000000 0.000000
0.250143 1.000000 0.000000
0.515994 1.000000 0.000000
0.781845 1.000000 0.000000
1.000000 1.000000 0.000000
0.000000 0.015937 0.324958
0.261988 0.012796 0.320217
0.527839 0.009655 0.315477
0.793690 0.006513 0.310737
1.000000 0.003372 0.305997
0.000000 0.285160 0.315367
0.258868 0.282019 0.310627
0.524719 0.278878 0.305887
0.790570 0.275737 0.301146
1.000000 0.272595 0.296406
0.000000 0.554383 0.305776
0.255748 0.551242 0.301036
0.521599 0.548101 0.296296
0.787450 0.544960 0.291556
1.000000 0.541818 0.286816
0.000000 0.823606 0.296185
0.252628 0.820465 0.291445
0.518478 0.817324 0.286705
0.784329 0.814183 0.281965
1.000000 0.811041 0.277225
0.000000 1.000000 0.286595
0.249507 1.000000 0.281854
0.515358 1.000000 0.277114
0.781209 1.000000 0.272374
1.000000 1.000000 0.267634
0.000000 0.014641 0.612224
0.261352 0.011500 0.607484
0.527203 0.008359 0.602743
0.793054 0.005218 0.598003
1.000000 0.002077 0.593263
0.000000 0.283864 0.602633
0.258232 0.280723 0.597893
0.524083 0.277582 0.593153
0.789934 0.274441 0.588413
1.000000 0.271300 0.583672
0.000000 0.553088 0.593042
0.255112 0.549946 0.588302
0.520963 0.546805 0.583562
0.786814 0.543664 0.578822
1.000000 0.540523 0.574082
0.000000 0.822311 0.583451
0.251992 0.819169 0.578711
0.517842 0.816028 0.573971
0.783693 0.812887 0.569231
1.000000 0.809746 0.564491
0.000000 1.000000 0.573861
0.248871 1.000000 0.569121
0.514722 1.000000 0.564380
0.780573 1.000000 0.559640
1.000000 1.000000 0.554900
0.000000 0.013346 0.899490
0.260716 0.010205 0.894750
0.526567 0.007064 0.890010
0.792418 0.003923 0.885270
1.000000 0.000782 0.880529
0.000000 0.282569 0.889899
0.257596 0.279428 0.885159
0.523447 0.276287 0.880419
0.789298 0.273146 0.875679
1.000000 0.270005 0.870939
0.000000 0.551792 0.880308
0.254476 0.548651 0.875568
0.520327 0.545510 0.870828
0.786178 0.542369 0.866088
1.000000 0.539228 0.861348
0.000000 0.821015 0.870718
0.251356 0.817874 0.865978
0.517206 0.814733 0.861237
0.783057 0.811592 0.856497
1.000000 0.808451 0.851757
0.000000 1.000000 0.861127
0.248235 1.000000 0.856387
0.514086 1.000000 0.851647
0.779937 1.000000 0.846907
1.000000 1.000000 0.842166
0.000000 0.012051 1.000000
0.260080 0.008910 1.000000
0.525931 0.005768 1.000000
0.791782 0.002627 1.000000
1.000000 0.000000 1.000000
0.000000 0.281274 1.000000
0.256960 0.278133 1.000000
0.522811 0.274991 1.000000
0.788662 0.271850 1.000000
1.000000 0.268709 1.000000
0.000000 0.550497 1.000000
0.253840 0.547356 1.000000
0.519691 0.544215 1.000000
0.785542 0.541073 1.000000
1.000000 0.537932 1.000000
0.000000 0.819720 1.000000
0.250720 0.816579 1.000000
0.516571 0.813438 1.000000
0.782421 0.810296 1.000000
1.000000 0.807155 1.000000
0.000000 1.000000 1.000000
0.247599 1.000000 1.000000
0.513450 1.000000 1.000000
0.779301 1.000000 1.000000
1.000000 1.000000 1.000000
