assets/luts/primelive_weifeng.cube
TITLE "primelive_weifeng"
LUT_3D_SIZE 9
0.117500 0.117500 0.117500
0.224356 0.118148 0.118148
0.331211 0.118796 0.118796
0.438067 0.119444 0.119444
0.544922 0.120092 0.120092
0.651778 0.120740 0.120740
0.758634 0.121389 0.121389
0.865489 0.122037 0.122037
0.972345 0.122685 0.122685
0.118810 0.228141 0.118810
0.225665 0.228789 0.119458
0.332521 0.229437 0.120106
0.439376 0.230085 0.120754
0.546232 0.230733 0.121402
0.653088 0.231381 0.122050
0.759943 0.232029 0.122698
0.866799 0.232678 0.123346
0.973654 0.233326 0.123994
0.120119 0.338782 0.120119
0.226975 0.339430 0.120768
0.333831 0.340078 0.121416
0.440686 0.340726 0.122064
0.547542 0.341374 0.122712
0.654397 0.342022 0.123360
0.761253 0.342670 0.124008
0.868109 0.343319 0.124656
0.974964 0.343967 0.125304
0.121429 0.449423 0.121429
0.228285 0.450071 0.122077
0.335140 0.450719 0.122725
0.441996 0.451367 0.123373
0.548852 0.452015 0.124022
0.655707 0.452663 0.124670
0.762563 0.453311 0.125318
0.869418 0.453960 0.125966
0.976274 0.454608 0.126614
0.122739 0.560064 0.122739
0.229595 0.560712 0.123387
0.336450 0.561360 0.124035
0.443306 0.562008 0.124683
0.550161 0.562656 0.125331
0.657017 0.563304 0.125979
0.763872 0.563952 0.126627
0.870728 0.564601 0.127276
0.977584 0.565249 0.127924
0.124049 0.670705 0.124049
0.230904 0.671353 0.124697
0.337760 0.672001 0.125345
0.444615 0.672649 0.125993
0.551471 0.673297 0.126641
0.658327 0.673945 0.127289
0.765182 0.674593 0.127937
0.872038 0.675242 0.128585
0.978893 0.675890 0.129233
0.125358 0.781346 0.125358
0.232214 0.781994 0.126007
0.339070 0.782642 0.126655
0.445925 0.783290 0.127303
0.552781 0.783938 0.127951
0.659636 0.784586 0.128599
0.766492 0.785234 0.129247
0.873348 0.785883 0.129895
0.980203 0.786531 0.130543
0.126668 0.891987 0.126668
0.233524 0.892635 0.127316
0.340379 0.893283 0.127964
0.447235 0.893931 0.128612
0.554091 0.894579 0.129261
0.660946 0.895227 0.129909
0.767802 0.895875 0.130557
0.874657 0.896524 0.131205
0.981513 0.897172 0.131853
0.127978 1.000000 0.127978
0.234834 1.000000 0.128626
0.341689 1.000000 0.129274
0.448545 1.000000 0.129922
0.555400 1.000000 0.130570
0.662256 1.000000 0.131218
0.769111 1.000000 0.131866
0.875967 1.000000 0.132515
0.982823 1.000000 0.133163
0.117762 0.117762 0.230217
0.224617 0.118410 0.230865
0.331473 0.119058 0.231513
0.438328 0.119706 0.232161
0.545184 0.120354 0.232809
0.652040 0.121002 0.233457
0.758895 0.121650 0.234105
0.865751 0.122298 0.234753
0.972606 0.122946 0.235401
0.119071 0.228403 0.231526
0.225927 0.229051 0.232174
0.332783 0.229699 0.232823
0.439638 0.230347 0.233471
0.546494 0.230995 0.234119
0.653349 0.231643 0.234767
0.760205 0.232291 0.235415
0.867060 0.232939 0.236063
0.973916 0.233587 0.236711
0.120381 0.339044 0.232836
0.227237 0.339692 0.233484
0.334092 0.340340 0.234132
0.440948 0.340988 0.234780
0.547803 0.341636 0.235428
0.654659 0.342284 0.236077
0.761515 0.342932 0.236725
0.868370 0.343580 0.237373
0.975226 0.344228 0.238021
0.121691 0.449685 0.234146
0.228546 0.450333 0.234794
0.335402 0.450981 0.235442
0.442258 0.451629 0.236090
0.549113 0.452277 0.236738
0.655969 0.452925 0.237386
0.762824 0.453573 0.238034
0.869680 0.454221 0.238682
0.976535 0.454869 0.239331
0.123001 0.560326 0.235456
0.229856 0.560974 0.236104
0.336712 0.561622 0.236752
0.443567 0.562270 0.237400
0.550423 0.562918 0.238048
0.657279 0.563566 0.238696
0.764134 0.564214 0.239344
0.870990 0.564862 0.239992
0.977845 0.565510 0.240640
0.124310 0.670967 0.236765
0.231166 0.671615 0.237413
0.338022 0.672263 0.238062
0.444877 0.672911 0.238710
0.551733 0.673559 0.239358
0.658588 0.674207 0.240006
0.765444 0.674855 0.240654
0.872299 0.675503 0.241302
0.979155 0.676151 0.241950
0.125620 0.781608 0.238075
0.232476 0.782256 0.238723
0.339331 0.782904 0.239371
0.446187 0.783552 0.240019
0.553042 0.784200 0.240667
0.659898 0.784848 0.241316
0.766754 0.785496 0.241964
0.873609 0.786144 0.242612
0.980465 0.786792 0.243260
0.126930 0.892249 0.239385
0.233785 0.892897 0.240033
0.340641 0.893545 0.240681
0.447497 0.894193 0.241329
0.554352 0.894841 0.241977
0.661208 0.895489 0.242625
0.768063 0.896137 0.243273
0.874919 0.896785 0.243921
0.981774 0.897433 0.244570
0.128240 1.000000 0.240695
0.235095 1.000000 0.241343
0.341951 1.000000 0.241991
0.448806 1.000000 0.242639
0.555662 1.000000 0.243287
0.662518 1.000000 0.243935
0.769373 1.000000 0.244583
0.876229 1.000000 0.245231
0.983084 1.000000 0.245879
0.118023 0.118023 0.342933
0.224879 0.118671 0.343581
0.331734 0.119319 0.344229
0.438590 0.119968 0.344878
0.545446 0.120616 0.345526
0.652301 0.121264 0.346174
0.759157 0.121912 0.346822
0.866012 0.122560 0.347470
0.972868 0.123208 0.348118
0.119333 0.228664 0.344243
0.226189 0.229312 0.344891
0.333044 0.229960 0.345539
0.439900 0.230608 0.346187
0.546755 0.231257 0.346835
0.653611 0.231905 0.347483
0.760467 0.232553 0.348132
0.867322 0.233201 0.348780
0.974178 0.233849 0.349428
0.120643 0.339305 0.345553
0.227498 0.339953 0.346201
0.334354 0.340601 0.346849
0.441209 0.341249 0.347497
0.548065 0.341898 0.348145
0.654921 0.342546 0.348793
0.761776 0.343194 0.349441
0.868632 0.343842 0.350089
0.975487 0.344490 0.350737
0.121952 0.449946 0.346862
0.228808 0.450594 0.347511
0.335664 0.451242 0.348159
0.442519 0.451890 0.348807
0.549375 0.452539 0.349455
0.656230 0.453187 0.350103
0.763086 0.453835 0.350751
0.869942 0.454483 0.351399
0.976797 0.455131 0.352047
0.123262 0.560587 0.348172
0.230118 0.561235 0.348820
0.336973 0.561883 0.349468
0.443829 0.562531 0.350116
0.550685 0.563180 0.350765
0.657540 0.563828 0.351413
0.764396 0.564476 0.352061
0.871251 0.565124 0.352709
0.978107 0.565772 0.353357
0.124572 0.671228 0.349482
0.231428 0.671876 0.350130
0.338283 0.672524 0.350778
0.445139 0.673172 0.351426
0.551994 0.673821 0.352074
0.658850 0.674469 0.352722
0.765705 0.675117 0.353370
0.872561 0.675765 0.354019
0.979417 0.676413 0.354667
0.125882 0.781869 0.350792
0.232737 0.782517 0.351440
0.339593 0.783165 0.352088
0.446448 0.783813 0.352736
0.553304 0.784462 0.353384
0.660160 0.785110 0.354032
0.767015 0.785758 0.354680
0.873871 0.786406 0.355328
0.980726 0.787054 0.355976
0.127191 0.892510 0.352101
0.234047 0.893158 0.352750
0.340903 0.893806 0.353398
0.447758 0.894454 0.354046
0.554614 0.895103 0.354694
0.661469 0.895751 0.355342
0.768325 0.896399 0.355990
0.875181 0.897047 0.356638
0.982036 0.897695 0.357286
0.128501 1.000000 0.353411
0.235357 1.000000 0.354059
0.342212 1.000000 0.354707
0.449068 1.000000 0.355355
0.555924 1.000000 0.356004
0.662779 1.000000 0.356652
0.769635 1.000000 0.357300
0.876490 1.000000 0.357948
0.983346 1.000000 0.358596
0.118285 0.118285 0.455650
0.225140 0.118933 0.456298
0.331996 0.119581 0.456946
0.438852 0.120229 0.457594
0.545707 0.120877 0.458242
0.652563 0.121525 0.458890
0.759418 0.122173 0.459538
0.866274 0.122821 0.460186
0.973129 0.123470 0.460835
0.119595 0.228926 0.456960
0.226450 0.229574 0.457608
0.333306 0.230222 0.458256
0.440161 0.230870 0.458904
0.547017 0.231518 0.459552
0.653873 0.232166 0.460200
0.760728 0.232814 0.460848
0.867584 0.233462 0.461496
0.974439 0.234111 0.462144
0.120904 0.339567 0.458269
0.227760 0.340215 0.458917
0.334616 0.340863 0.459566
0.441471 0.341511 0.460214
0.548327 0.342159 0.460862
0.655182 0.342807 0.461510
0.762038 0.343455 0.462158
0.868893 0.344103 0.462806
0.975749 0.344752 0.463454
0.122214 0.450208 0.459579
0.229070 0.450856 0.460227
0.335925 0.451504 0.460875
0.442781 0.452152 0.461523
0.549636 0.452800 0.462171
0.656492 0.453448 0.462820
0.763348 0.454096 0.463468
0.870203 0.454744 0.464116
0.977059 0.455393 0.464764
0.123524 0.560849 0.460889
0.230379 0.561497 0.461537
0.337235 0.562145 0.462185
0.444091 0.562793 0.462833
0.550946 0.563441 0.463481
0.657802 0.564089 0.464129
0.764657 0.564737 0.464777
0.871513 0.565385 0.465425
0.978368 0.566033 0.466074
0.124834 0.671490 0.462199
0.231689 0.672138 0.462847
0.338545 0.672786 0.463495
0.445400 0.673434 0.464143
0.552256 0.674082 0.464791
0.659112 0.674730 0.465439
0.765967 0.675378 0.466087
0.872823 0.676026 0.466735
0.979678 0.676675 0.467383
0.126143 0.782131 0.463508
0.232999 0.782779 0.464156
0.339855 0.783427 0.464805
0.446710 0.784075 0.465453
0.553566 0.784723 0.466101
0.660421 0.785371 0.466749
0.767277 0.786019 0.467397
0.874132 0.786667 0.468045
0.980988 0.787316 0.468693
0.127453 0.892772 0.464818
0.234309 0.893420 0.465466
0.341164 0.894068 0.466114
0.448020 0.894716 0.466762
0.554875 0.895364 0.467410
0.661731 0.896012 0.468059
0.768587 0.896660 0.468707
0.875442 0.897308 0.469355
0.982298 0.897957 0.470003
0.128763 1.000000 0.466128
0.235618 1.000000 0.466776
0.342474 1.000000 0.467424
0.449330 1.000000 0.468072
0.556185 1.000000 0.468720
0.663041 1.000000 0.469368
0.769896 1.000000 0.470016
0.876752 1.000000 0.470664
0.983607 1.000000 0.471313
0.118547 0.118547 0.568367
0.225402 0.119195 0.569015
0.332258 0.119843 0.569663
0.439113 0.120491 0.570311
0.545969 0.121139 0.570959
0.652824 0.121787 0.571607
0.759680 0.122435 0.572255
0.866536 0.123083 0.572903
0.973391 0.123731 0.573551
0.119856 0.229187 0.569676
0.226712 0.229836 0.570324
0.333567 0.230484 0.570972
0.440423 0.231132 0.571621
0.547279 0.231780 0.572269
0.654134 0.232428 0.572917
0.760990 0.233076 0.573565
0.867845 0.233724 0.574213
0.974701 0.234372 0.574861
0.121166 0.339828 0.570986
0.228022 0.340477 0.571634
0.334877 0.341125 0.572282
0.441733 0.341773 0.572930
0.548588 0.342421 0.573578
0.655444 0.343069 0.574226
0.762300 0.343717 0.574875
0.869155 0.344365 0.575523
0.976011 0.345013 0.576171
0.122476 0.450469 0.572296
0.229331 0.451118 0.572944
0.336187 0.451766 0.573592
0.443042 0.452414 0.574240
0.549898 0.453062 0.574888
0.656754 0.453710 0.575536
0.763609 0.454358 0.576184
0.870465 0.455006 0.576832
0.977320 0.455654 0.577480
0.123786 0.561110 0.573606
0.230641 0.561759 0.574254
0.337497 0.562407 0.574902
0.444352 0.563055 0.575550
0.551208 0.563703 0.576198
0.658063 0.564351 0.576846
0.764919 0.564999 0.577494
0.871775 0.565647 0.578142
0.978630 0.566295 0.578790
0.125095 0.671752 0.574915
0.231951 0.672400 0.575563
0.338806 0.673048 0.576211
0.445662 0.673696 0.576860
0.552518 0.674344 0.577508
0.659373 0.674992 0.578156
0.766229 0.675640 0.578804
0.873084 0.676288 0.579452
0.979940 0.676936 0.580100
0.126405 0.782392 0.576225
0.233261 0.783041 0.576873
0.340116 0.783689 0.577521
0.446972 0.784337 0.578169
0.553827 0.784985 0.578817
0.660683 0.785633 0.579465
0.767539 0.786281 0.580114
0.874394 0.786929 0.580762
0.981250 0.787577 0.581410
0.127715 0.893033 0.577535
0.234570 0.893682 0.578183
0.341426 0.894330 0.578831
0.448281 0.894978 0.579479
0.555137 0.895626 0.580127
0.661993 0.896274 0.580775
0.768848 0.896922 0.581423
0.875704 0.897570 0.582071
0.982559 0.898218 0.582719
0.129024 1.000000 0.578845
0.235880 1.000000 0.579493
0.342736 1.000000 0.580141
0.449591 1.000000 0.580789
0.556447 1.000000 0.581437
0.663302 1.000000 0.582085
0.770158 1.000000 0.582733
0.877014 1.000000 0.583381
0.983869 1.000000 0.584029
0.118808 0.118808 0.681083
0.225664 0.119456 0.681731
0.332519 0.120104 0.682379
0.439375 0.120752 0.683027
0.546230 0.121400 0.683676
0.653086 0.122049 0.684324
0.759942 0.122697 0.684972
0.866797 0.123345 0.685620
0.973653 0.123993 0.686268
0.120118 0.229449 0.682393
0.226973 0.230097 0.683041
0.333829 0.230745 0.683689
0.440685 0.231393 0.684337
0.547540 0.232041 0.684985
0.654396 0.232690 0.685633
0.761251 0.233338 0.686281
0.868107 0.233986 0.686929
0.974962 0.234634 0.687578
0.121428 0.340090 0.683703
0.228283 0.340738 0.684351
0.335139 0.341386 0.684999
0.441994 0.342034 0.685647
0.548850 0.342682 0.686295
0.655706 0.343331 0.686943
0.762561 0.343979 0.687591
0.869417 0.344627 0.688239
0.976272 0.345275 0.688887
0.122737 0.450731 0.685012
0.229593 0.451379 0.685660
0.336449 0.452027 0.686309
0.443304 0.452675 0.686957
0.550160 0.453323 0.687605
0.657015 0.453972 0.688253
0.763871 0.454620 0.688901
0.870726 0.455268 0.689549
0.977582 0.455916 0.690197
0.124047 0.561372 0.686322
0.230903 0.562020 0.686970
0.337758 0.562668 0.687618
0.444614 0.563316 0.688266
0.551469 0.563964 0.688914
0.658325 0.564613 0.689563
0.765181 0.565261 0.690211
0.872036 0.565909 0.690859
0.978892 0.566557 0.691507
0.125357 0.672013 0.687632
0.232212 0.672661 0.688280
0.339068 0.673309 0.688928
0.445924 0.673957 0.689576
0.552779 0.674605 0.690224
0.659635 0.675254 0.690872
0.766490 0.675902 0.691520
0.873346 0.676550 0.692168
0.980201 0.677198 0.692817
0.126667 0.782654 0.688942
0.233522 0.783302 0.689590
0.340378 0.783950 0.690238
0.447233 0.784598 0.690886
0.554089 0.785246 0.691534
0.660945 0.785895 0.692182
0.767800 0.786543 0.692830
0.874656 0.787191 0.693478
0.981511 0.787839 0.694126
0.127976 0.893295 0.690251
0.234832 0.893943 0.690899
0.341688 0.894591 0.691548
0.448543 0.895239 0.692196
0.555399 0.895887 0.692844
0.662254 0.896536 0.693492
0.769110 0.897184 0.694140
0.875965 0.897832 0.694788
0.982821 0.898480 0.695436
0.129286 1.000000 0.691561
0.236142 1.000000 0.692209
0.342997 1.000000 0.692857
0.449853 1.000000 0.693505
0.556708 1.000000 0.694153
0.663564 1.000000 0.694802
0.770420 1.000000 0.695450
0.877275 1.000000 0.696098
0.984131 1.000000 0.696746
0.119070 0.119070 0.793800
0.225925 0.119718 0.794448
0.332781 0.120366 0.795096
0.439637 0.121014 0.795744
0.546492 0.121662 0.796392
0.653348 0.122310 0.797040
0.760203 0.122958 0.797688
0.867059 0.123606 0.798336
0.973914 0.124254 0.798985
0.120380 0.229711 0.795110
0.227235 0.230359 0.795758
0.334091 0.231007 0.796406
0.440946 0.231655 0.797054
0.547802 0.232303 0.797702
0.654657 0.232951 0.798350
0.761513 0.233599 0.798998
0.868369 0.234247 0.799646
0.975224 0.234895 0.800294
0.121689 0.340352 0.796419
0.228545 0.341000 0.797067
0.335400 0.341648 0.797716
0.442256 0.342296 0.798364
0.549112 0.342944 0.799012
0.655967 0.343592 0.799660
0.762823 0.344240 0.800308
0.869678 0.344888 0.800956
0.976534 0.345536 0.801604
0.122999 0.450993 0.797729
0.229855 0.451641 0.798377
0.336710 0.452289 0.799025
0.443566 0.452937 0.799673
0.550421 0.453585 0.800321
0.657277 0.454233 0.800970
0.764133 0.454881 0.801618
0.870988 0.455529 0.802266
0.977844 0.456177 0.802914
0.124309 0.561634 0.799039
0.231164 0.562282 0.799687
0.338020 0.562930 0.800335
0.444875 0.563578 0.800983
0.551731 0.564226 0.801631
0.658587 0.564874 0.802279
0.765442 0.565522 0.802927
0.872298 0.566170 0.803575
0.979153 0.566818 0.804224
0.125619 0.672275 0.800349
0.232474 0.672923 0.800997
0.339330 0.673571 0.801645
0.446185 0.674219 0.802293
0.553041 0.674867 0.802941
0.659896 0.675515 0.803589
0.766752 0.676163 0.804237
0.873608 0.676811 0.804885
0.980463 0.677459 0.805533
0.126928 0.782916 0.801658
0.233784 0.783564 0.802306
0.340639 0.784212 0.802955
0.447495 0.784860 0.803603
0.554351 0.785508 0.804251
0.661206 0.786156 0.804899
0.768062 0.786804 0.805547
0.874917 0.787452 0.806195
0.981773 0.788100 0.806843
0.128238 0.893557 0.802968
0.235094 0.894205 0.803616
0.341949 0.894853 0.804264
0.448805 0.895501 0.804912
0.555660 0.896149 0.805560
0.662516 0.896797 0.806209
0.769372 0.897445 0.806857
0.876227 0.898093 0.807505
0.983083 0.898741 0.808153
0.129548 1.000000 0.804278
0.236403 1.000000 0.804926
0.343259 1.000000 0.805574
0.450114 1.000000 0.806222
0.556970 1.000000 0.806870
0.663826 1.000000 0.807518
0.770681 1.000000 0.808166
0.877537 1.000000 0.808814
0.984392 1.000000 0.809463
0.119331 0.119331 0.906516
0.226187 0.119979 0.907165
0.333043 0.120628 0.907813
0.439898 0.121276 0.908461
0.546754 0.121924 0.909109
0.653609 0.122572 0.909757
0.760465 0.123220 0.910405
0.867320 0.123868 0.911053
0.974176 0.124516 0.911701
0.120641 0.229972 0.907826
0.227497 0.230620 0.908474
0.334352 0.231269 0.909122
0.441208 0.231917 0.909770
0.548063 0.232565 0.910419
0.654919 0.233213 0.911067
0.761775 0.233861 0.911715
0.868630 0.234509 0.912363
0.975486 0.235157 0.913011
0.121951 0.340613 0.909136
0.228806 0.341261 0.909784
0.335662 0.341910 0.910432
0.442518 0.342558 0.911080
0.549373 0.343206 0.911728
0.656229 0.343854 0.912376
0.763084 0.344502 0.913024
0.869940 0.345150 0.913672
0.976795 0.345798 0.914321
0.123261 0.451254 0.910446
0.230116 0.451902 0.911094
0.336972 0.452551 0.911742
0.443827 0.453199 0.912390
0.550683 0.453847 0.913038
0.657539 0.454495 0.913686
0.764394 0.455143 0.914334
0.871250 0.455791 0.914982
0.978105 0.456439 0.915630
0.124570 0.561895 0.911755
0.231426 0.562543 0.912403
0.338282 0.563192 0.913052
0.445137 0.563840 0.913700
0.551993 0.564488 0.914348
0.658848 0.565136 0.914996
0.765704 0.565784 0.915644
0.872559 0.566432 0.916292
0.979415 0.567080 0.916940
0.125880 0.672536 0.913065
0.232736 0.673184 0.913713
0.339591 0.673833 0.914361
0.446447 0.674481 0.915009
0.553302 0.675129 0.915657
0.660158 0.675777 0.916306
0.767014 0.676425 0.916954
0.873869 0.677073 0.917602
0.980725 0.677721 0.918250
0.127190 0.783177 0.914375
0.234045 0.783825 0.915023
0.340901 0.784474 0.915671
0.447757 0.785122 0.916319
0.554612 0.785770 0.916967
0.661468 0.786418 0.917615
0.768323 0.787066 0.918263
0.875179 0.787714 0.918911
0.982034 0.788362 0.919560
0.128500 0.893818 0.915685
0.235355 0.894466 0.916333
0.342211 0.895115 0.916981
0.449066 0.895763 0.917629
0.555922 0.896411 0.918277
0.662778 0.897059 0.918925
0.769633 0.897707 0.919573
0.876489 0.898355 0.920221
0.983344 0.899003 0.920869
0.129809 1.000000 0.916994
0.236665 1.000000 0.917642
0.343521 1.000000 0.918291
0.450376 1.000000 0.918939
0.557232 1.000000 0.919587
0.664087 1.000000 0.920235
0.770943 1.000000 0.920883
0.877798 1.000000 0.921531
0.984654 1.000000 0.922179
0.119593 0.119593 1.000000
0.226449 0.120241 1.000000
0.333304 0.120889 1.000000
0.440160 0.121537 1.000000
0.547015 0.122185 1.000000
0.653871 0.122833 1.000000
0.760727 0.123482 1.000000
0.867582 0.124130 1.000000
0.974438 0.124778 1.000000
0.120903 0.230234 1.000000
0.227758 0.230882 1.000000
0.334614 0.231530 1.000000
0.441470 0.232178 1.000000
0.548325 0.232826 1.000000
0.655181 0.233474 1.000000
0.762036 0.234122 1.000000
0.868892 0.234771 1.000000
0.975747 0.235419 1.000000
0.122213 0.340875 1.000000
0.229068 0.341523 1.000000
0.335924 0.342171 1.000000
0.442779 0.342819 1.000000
0.549635 0.343467 1.000000
0.656490 0.344115 1.000000
0.763346 0.344764 1.000000
0.870202 0.345412 1.000000
0.977057 0.346060 1.000000
0.123522 0.451516 1.000000
0.230378 0.452164 1.000000
0.337233 0.452812 1.000000
0.444089 0.453460 1.000000
0.550945 0.454108 1.000000
0.657800 0.454756 1.000000
0.764656 0.455404 1.000000
0.871511 0.456053 1.000000
0.978367 0.456701 1.000000
0.124832 0.562157 1.000000
0.231688 0.562805 1.000000
0.338543 0.563453 1.000000
0.445399 0.564101 1.000000
0.552254 0.564749 1.000000
0.659110 0.565397 1.000000
0.765966 0.566045 1.000000
0.872821 0.566694 1.000000
0.979677 0.567342 1.000000
0.126142 0.672798 1.000000
0.232997 0.673446 1.000000
0.339853 0.674094 1.000000
0.446708 0.674742 1.000000
0.553564 0.675390 1.000000
0.660420 0.676038 1.000000
0.767275 0.676687 1.000000
0.874131 0.677335 1.000000
0.980986 0.677983 1.000000
0.127452 0.783439 1.000000
0.234307 0.784087 1.000000
0.341163 0.784735 1.000000
0.448018 0.785383 1.000000
0.554874 0.786031 1.000000
0.661729 0.786679 1.000000
0.768585 0.787328 1.000000
0.875441 0.787976 1.000000
0.982296 0.788624 1.000000
0.128761 0.894080 1.000000
0.235617 0.894728 1.000000
0.342472 0.895376 1.000000
0.449328 0.896024 1.000000
0.556184 0.896672 1.000000
0.663039 0.897320 1.000000
0.769895 0.897968 1.000000
0.876750 0.898617 1.000000
0.983606 0.899265 1.000000
0.130071 1.000000 1.000000
0.236927 1.000000 1.000000
0.343782 1.000000 1.000000
0.450638 1.000000 1.000000
0.557493 1.000000 1.000000
0.664349 1.000000 1.000000
0.771205 1.000000 1.000000
0.878060 1.000000 1.000000
0.984916 1.000000 1.000000
