assets/luts/primelive_jiepai.cube
TITLE "primelive_jiepai"
LUT_3D_SIZE 33
0.000000 0.000000 0.000000
0.000000 0.000000 0.000000
0.000000 0.000000 0.000000
0.046520 0.000000 0.000000
0.094694 0.000000 0.000000
0.142867 0.000000 0.000000
0.191041 0.000000 0.000000
0.239214 0.000000 0.000000
0.287388 0.000000 0.000000
0.335561 0.000000 0.000000
0.383734 0.000000 0.000000
0.431908 0.000000 0.000000
0.480081 0.000000 0.000000
0.528255 0.000000 0.000000
0.576428 0.000000 0.000000
0.624602 0.000000 0.000000
0.672775 0.000000 0.000000
0.720949 0.000000 0.000000
0.769122 0.000000 0.000000
0.817295 0.000000 0.000000
0.865469 0.000000 0.000000
0.913642 0.000000 0.000000
0.961816 0.000000 0.000000
1.000000 0.000000 0.000000
1.000000 0.000000 0.000000
1.000000 0.000000 0.000000
1.000000 0.000000 0.000000
1.000000 0.000000 0.000000
1.000000 0.000000 0.000000
1.000000 0.000000 0.000000
1.000000 0.000000 0.000000
1.000000 0.000000 0.000000
1.000000 0.000000 0.000000
0.000000 0.000000 0.000000
0.000000 0.000000 0.000000
0.000000 0.000000 0.000000
0.041656 0.000000 0.000000
0.089829 0.000000 0.000000
0.138002 0.000000 0.000000
0.186176 0.000000 0.000000
0.234349 0.000000 0.000000
0.282523 0.000000 0.000000
0.330696 0.000000 0.000000
0.378870 0.000000 0.000000
0.427043 0.000000 0.000000
0.475217 0.000000 0.000000
0.523390 0.000000 0.000000
0.571563 0.000000 0.000000
0.619737 0.000000 0.000000
0.667910 0.000000 0.000000
0.716084 0.000000 0.000000
0.764257 0.000000 0.000000
0.812431 0.000000 0.000000
0.860604 0.000000 0.000000
0.908778 0.000000 0.000000
0.956951 0.000000 0.000000
1.000000 0.000000 0.000000
1.000000 0.000000 0.000000
1.000000 0.000000 0.000000
1.000000 0.000000 0.000000
1.000000 0.000000 0.000000
1.000000 0.000000 0.000000
1.000000 0.000000 0.000000
1.000000 0.000000 0.000000
1.000000 0.000000 0.000000
1.000000 0.000000 0.000000
0.000000 0.000000 0.000000
0.000000 0.000000 0.000000
0.000000 0.000000 0.000000
0.036791 0.000000 0.000000
0.084964 0.000000 0.000000
0.133138 0.000000 0.000000
0.181311 0.000000 0.000000
0.229485 0.000000 0.000000
0.277658 0.000000 0.000000
0.325832 0.000000 0.000000
0.374005 0.000000 0.000000
0.422178 0.000000 0.000000
0.470352 0.000000 0.000000
0.518525 0.000000 0.000000
0.566699 0.000000 0.000000
0.614872 0.000000 0.000000
0.663046 0.000000 0.000000
0.711219 0.000000 0.000000
0.759393 0.000000 0.000000
0.807566 0.000000 0.000000
0.855739 0.000000 0.000000
0.903913 0.000000 0.000000
0.952086 0.000000 0.000000
1.000000 0.000000 0.000000
1.000000 0.000000 0.000000
1.000000 0.000000 0.000000
1.000000 0.000000 0.000000
1.000000 0.000000 0.000000
1.000000 0.000000 0.000000
1.000000 0.000000 0.000000
1.000000 0.000000 0.000000
1.000000 0.000000 0.000000
1.000000 0.000000 0.000000
0.000000 0.036581 0.000000
0.000000 0.034054 0.000000
0.000000 0.031528 0.000000
0.031926 0.029001 0.000000
0.080100 0.026475 0.000000
0.128273 0.023948 0.000000
0.176446 0.021421 0.000000
0.224620 0.018895 0.000000
0.272793 0.016368 0.000000
0.320967 0.013842 0.000000
0.369140 0.011315 0.000000
0.417314 0.008789 0.000000
0.465487 0.006262 0.000000
0.513661 0.003736 0.000000
0.561834 0.001209 0.000000
0.610007 0.000000 0.000000
0.658181 0.000000 0.000000
0.706354 0.000000 0.000000
0.754528 0.000000 0.000000
0.802701 0.000000 0.000000
0.850875 0.000000 0.000000
0.899048 0.000000 0.000000
0.947222 0.000000 0.000000
0.995395 0.000000 0.000000
1.000000 0.000000 0.000000
1.000000 0.000000 0.000000
1.000000 0.000000 0.000000
1.000000 0.000000 0.000000
1.000000 0.000000 0.000000
1.000000 0.000000 0.000000
1.000000 0.000000 0.000000
1.000000 0.000000 0.000000
1.000000 0.000000 0.000000
0.000000 0.081441 0.000000
0.000000 0.078914 0.000000
0.000000 0.076388 0.000000
0.027061 0.073861 0.000000
0.075235 0.071335 0.000000
0.123408 0.068808 0.000000
0.171582 0.066282 0.000000
0.219755 0.063755 0.000000
0.267929 0.061229 0.000000
0.316102 0.058702 0.000000
0.364275 0.056175 0.000000
0.412449 0.053649 0.000000
0.460622 0.051122 0.000000
0.508796 0.048596 0.000000
0.556969 0.046069 0.000000
0.605143 0.043543 0.000000
0.653316 0.041016 0.000000
0.701490 0.038490 0.000000
0.749663 0.035963 0.000000
0.797836 0.033437 0.000000
0.846010 0.030910 0.000000
0.894183 0.028383 0.000000
0.942357 0.025857 0.000000
0.990530 0.023330 0.000000
1.000000 0.020804 0.000000
1.000000 0.018277 0.000000
1.000000 0.015751 0.000000
1.000000 0.013224 0.000000
1.000000 0.010698 0.000000
1.000000 0.008171 0.000000
1.000000 0.005644 0.000000
1.000000 0.003118 0.000000
1.000000 0.000591 0.000000
0.000000 0.126301 0.000000
0.000000 0.123775 0.000000
0.000000 0.121248 0.000000
0.022197 0.118722 0.000000
0.070370 0.116195 0.000000
0.118543 0.113668 0.000000
0.166717 0.111142 0.000000
0.214890 0.108615 0.000000
0.263064 0.106089 0.000000
0.311237 0.103562 0.000000
0.359411 0.101036 0.000000
0.407584 0.098509 0.000000
0.455758 0.095983 0.000000
0.503931 0.093456 0.000000
0.552104 0.090930 0.000000
0.600278 0.088403 0.000000
0.648451 0.085876 0.000000
0.696625 0.083350 0.000000
0.744798 0.080823 0.000000
0.792972 0.078297 0.000000
0.841145 0.075770 0.000000
0.889319 0.073244 0.000000
0.937492 0.070717 0.000000
0.985666 0.068191 0.000000
1.000000 0.065664 0.000000
1.000000 0.063137 0.000000
1.000000 0.060611 0.000000
1.000000 0.058084 0.000000
1.000000 0.055558 0.000000
1.000000 0.053031 0.000000
1.000000 0.050505 0.000000
1.000000 0.047978 0.000000
1.000000 0.045452 0.000000
0.000000 0.171161 0.000000
0.000000 0.168635 0.000000
0.000000 0.166108 0.000000
0.017332 0.163582 0.000000
0.065505 0.161055 0.000000
0.113679 0.158529 0.000000
0.161852 0.156002 0.000000
0.210026 0.153476 0.000000
0.258199 0.150949 0.000000
0.306372 0.148422 0.000000
0.354546 0.145896 0.000000
0.402719 0.143369 0.000000
0.450893 0.140843 0.000000
0.499066 0.138316 0.000000
0.547240 0.135790 0.000000
0.595413 0.133263 0.000000
0.643587 0.130737 0.000000
0.691760 0.128210 0.000000
0.739934 0.125684 0.000000
0.788107 0.123157 0.000000
0.836280 0.120630 0.000000
0.884454 0.118104 0.000000
0.932627 0.115577 0.000000
0.980801 0.113051 0.000000
1.000000 0.110524 0.000000
1.000000 0.107998 0.000000
1.000000 0.105471 0.000000
1.000000 0.102945 0.000000
1.000000 0.100418 0.000000
1.000000 0.097891 0.000000
1.000000 0.095365 0.000000
1.000000 0.092838 0.000000
1.000000 0.090312 0.000000
0.000000 0.216022 0.000000
0.000000 0.213495 0.000000
0.000000 0.210969 0.000000
0.012467 0.208442 0.000000
0.060640 0.205915 0.000000
0.108814 0.203389 0.000000
0.156987 0.200862 0.000000
0.205161 0.198336 0.000000
0.253334 0.195809 0.000000
0.301508 0.193283 0.000000
0.349681 0.190756 0.000000
0.397855 0.188230 0.000000
0.446028 0.185703 0.000000
0.494201 0.183177 0.000000
0.542375 0.180650 0.000000
0.590548 0.178123 0.000000
0.638722 0.175597 0.000000
0.686895 0.173070 0.000000
0.735069 0.170544 0.000000
0.783242 0.168017 0.000000
0.831416 0.165491 0.000000
0.879589 0.162964 0.000000
0.927763 0.160438 0.000000
0.975936 0.157911 0.000000
1.000000 0.155384 0.000000
1.000000 0.152858 0.000000
1.000000 0.150331 0.000000
1.000000 0.147805 0.000000
1.000000 0.145278 0.000000
1.000000 0.142752 0.000000
1.000000 0.140225 0.000000
1.000000 0.137699 0.000000
1.000000 0.135172 0.000000
0.000000 0.260882 0.000000
0.000000 0.258355 0.000000
0.000000 0.255829 0.000000
0.007602 0.253302 0.000000
0.055776 0.250776 0.000000
0.103949 0.248249 0.000000
0.152123 0.245723 0.000000
0.200296 0.243196 0.000000
0.248469 0.240670 0.000000
0.296643 0.238143 0.000000
0.344816 0.235616 0.000000
0.392990 0.233090 0.000000
0.441163 0.230563 0.000000
0.489337 0.228037 0.000000
0.537510 0.225510 0.000000
0.585684 0.222984 0.000000
0.633857 0.220457 0.000000
0.682031 0.217931 0.000000
0.730204 0.215404 0.000000
0.778377 0.212877 0.000000
0.826551 0.210351 0.000000
0.874724 0.207824 0.000000
0.922898 0.205298 0.000000
0.971071 0.202771 0.000000
1.000000 0.200245 0.000000
1.000000 0.197718 0.000000
1.000000 0.195192 0.000000
1.000000 0.192665 0.000000
1.000000 0.190139 0.000000
1.000000 0.187612 0.000000
1.000000 0.185085 0.000000
1.000000 0.182559 0.000000
1.000000 0.180032 0.000000
0.000000 0.305742 0.000000
0.000000 0.303216 0.000000
0.000000 0.300689 0.000000
0.002737 0.298162 0.000000
0.050911 0.295636 0.000000
0.099084 0.293109 0.000000
0.147258 0.290583 0.000000
0.195431 0.288056 0.000000
0.243605 0.285530 0.000000
0.291778 0.283003 0.000000
0.339952 0.280477 0.000000
0.388125 0.277950 0.000000
0.436299 0.275424 0.000000
0.484472 0.272897 0.000000
0.532645 0.270370 0.000000
0.580819 0.267844 0.000000
0.628992 0.265317 0.000000
0.677166 0.262791 0.000000
0.725339 0.260264 0.000000
0.773513 0.257738 0.000000
0.821686 0.255211 0.000000
0.869860 0.252685 0.000000
0.918033 0.250158 0.000000
0.966206 0.247632 0.000000
1.000000 0.245105 0.000000
1.000000 0.242578 0.000000
1.000000 0.240052 0.000000
1.000000 0.237525 0.000000
1.000000 0.234999 0.000000
1.000000 0.232472 0.000000
1.000000 0.229946 0.000000
1.000000 0.227419 0.000000
1.000000 0.224893 0.000000
0.000000 0.350602 0.000000
0.000000 0.348076 0.000000
0.000000 0.345549 0.000000
0.000000 0.343023 0.000000
0.046046 0.340496 0.000000
0.094220 0.337970 0.000000
0.142393 0.335443 0.000000
0.190567 0.332917 0.000000
0.238740 0.330390 0.000000
0.286913 0.327863 0.000000
0.335087 0.325337 0.000000
0.383260 0.322810 0.000000
0.431434 0.320284 0.000000
0.479607 0.317757 0.000000
0.527781 0.315231 0.000000
0.575954 0.312704 0.000000
0.624128 0.310178 0.000000
0.672301 0.307651 0.000000
0.720475 0.305124 0.000000
0.768648 0.302598 0.000000
0.816821 0.300071 0.000000
0.864995 0.297545 0.000000
0.913168 0.295018 0.000000
0.961342 0.292492 0.000000
1.000000 0.289965 0.000000
1.000000 0.287439 0.000000
1.000000 0.284912 0.000000
1.000000 0.282386 0.000000
1.000000 0.279859 0.000000
1.000000 0.277332 0.000000
1.000000 0.274806 0.000000
1.000000 0.272279 0.000000
1.000000 0.269753 0.000000
0.000000 0.395463 0.000000
0.000000 0.392936 0.000000
0.000000 0.390409 0.000000
0.000000 0.387883 0.000000
0.041181 0.385356 0.000000
0.089355 0.382830 0.000000
0.137528 0.380303 0.000000
0.185702 0.377777 0.000000
0.233875 0.375250 0.000000
0.282049 0.372724 0.000000
0.330222 0.370197 0.000000
0.378396 0.367671 0.000000
0.426569 0.365144 0.000000
0.474742 0.362617 0.000000
0.522916 0.360091 0.000000
0.571089 0.357564 0.000000
0.619263 0.355038 0.000000
0.667436 0.352511 0.000000
0.715610 0.349985 0.000000
0.763783 0.347458 0.000000
0.811957 0.344932 0.000000
0.860130 0.342405 0.000000
0.908304 0.339878 0.000000
0.956477 0.337352 0.000000
1.000000 0.334825 0.000000
1.000000 0.332299 0.000000
1.000000 0.329772 0.000000
1.000000 0.327246 0.000000
1.000000 0.324719 0.000000
1.000000 0.322193 0.000000
1.000000 0.319666 0.000000
1.000000 0.317140 0.000000
1.000000 0.314613 0.000000
0.000000 0.440323 0.000000
0.000000 0.437796 0.000000
0.000000 0.435270 0.000000
0.000000 0.432743 0.000000
0.036317 0.430217 0.000000
0.084490 0.427690 0.000000
0.132664 0.425164 0.000000
0.180837 0.422637 0.000000
0.229010 0.420110 0.000000
0.277184 0.417584 0.000000
0.325357 0.415057 0.000000
0.373531 0.412531 0.000000
0.421704 0.410004 0.000000
0.469878 0.407478 0.000000
0.518051 0.404951 0.000000
0.566225 0.402425 0.000000
0.614398 0.399898 0.000000
0.662572 0.397371 0.000000
0.710745 0.394845 0.000000
0.758918 0.392318 0.000000
0.807092 0.389792 0.000000
0.855265 0.387265 0.000000
0.903439 0.384739 0.000000
0.951612 0.382212 0.000000
0.999786 0.379686 0.000000
1.000000 0.377159 0.000000
1.000000 0.374633 0.000000
1.000000 0.372106 0.000000
1.000000 0.369579 0.000000
1.000000 0.367053 0.000000
1.000000 0.364526 0.000000
1.000000 0.362000 0.000000
1.000000 0.359473 0.000000
0.000000 0.485183 0.000000
0.000000 0.482657 0.000000
0.000000 0.480130 0.000000
0.000000 0.477603 0.000000
0.031452 0.475077 0.000000
0.079625 0.472550 0.000000
0.127799 0.470024 0.000000
0.175972 0.467497 0.000000
0.224146 0.464971 0.000000
0.272319 0.462444 0.000000
0.320493 0.459918 0.000000
0.368666 0.457391 0.000000
0.416839 0.454864 0.000000
0.465013 0.452338 0.000000
0.513186 0.449811 0.000000
0.561360 0.447285 0.000000
0.609533 0.444758 0.000000
0.657707 0.442232 0.000000
0.705880 0.439705 0.000000
0.754054 0.437179 0.000000
0.802227 0.434652 0.000000
0.850401 0.432126 0.000000
0.898574 0.429599 0.000000
0.946747 0.427072 0.000000
0.994921 0.424546 0.000000
1.000000 0.422019 0.000000
1.000000 0.419493 0.000000
1.000000 0.416966 0.000000
1.000000 0.414440 0.000000
1.000000 0.411913 0.000000
1.000000 0.409387 0.000000
1.000000 0.406860 0.000000
1.000000 0.404333 0.000000
0.000000 0.530043 0.000000
0.000000 0.527517 0.000000
0.000000 0.524990 0.000000
0.000000 0.522464 0.000000
0.026587 0.519937 0.000000
0.074761 0.517411 0.000000
0.122934 0.514884 0.000000
0.171107 0.512357 0.000000
0.219281 0.509831 0.000000
0.267454 0.507304 0.000000
0.315628 0.504778 0.000000
0.363801 0.502251 0.000000
0.411975 0.499725 0.000000
0.460148 0.497198 0.000000
0.508322 0.494672 0.000000
0.556495 0.492145 0.000000
0.604669 0.489619 0.000000
0.652842 0.487092 0.000000
0.701015 0.484565 0.000000
0.749189 0.482039 0.000000
0.797362 0.479512 0.000000
0.845536 0.476986 0.000000
0.893709 0.474459 0.000000
0.941883 0.471933 0.000000
0.990056 0.469406 0.000000
1.000000 0.466880 0.000000
1.000000 0.464353 0.000000
1.000000 0.461826 0.000000
1.000000 0.459300 0.000000
1.000000 0.456773 0.000000
1.000000 0.454247 0.000000
1.000000 0.451720 0.000000
1.000000 0.449194 0.000000
0.000000 0.574904 0.000000
0.000000 0.572377 0.000000
0.000000 0.569850 0.000000
0.000000 0.567324 0.000000
0.021722 0.564797 0.000000
0.069896 0.562271 0.000000
0.118069 0.559744 0.000000
0.166243 0.557218 0.000000
0.214416 0.554691 0.000000
0.262590 0.552165 0.000000
0.310763 0.549638 0.000000
0.358936 0.547112 0.000000
0.407110 0.544585 0.000000
0.455283 0.542058 0.000000
0.503457 0.539532 0.000000
0.551630 0.537005 0.000000
0.599804 0.534479 0.000000
0.647977 0.531952 0.000000
0.696151 0.529426 0.000000
0.744324 0.526899 0.000000
0.792498 0.524373 0.000000
0.840671 0.521846 0.000000
0.888844 0.519319 0.000000
0.937018 0.516793 0.000000
0.985191 0.514266 0.000000
1.000000 0.511740 0.000000
1.000000 0.509213 0.000000
1.000000 0.506687 0.000000
1.000000 0.504160 0.000000
1.000000 0.501634 0.000000
1.000000 0.499107 0.000000
1.000000 0.496581 0.000000
1.000000 0.494054 0.000000
0.000000 0.619764 0.000000
0.000000 0.617237 0.000000
0.000000 0.614711 0.000000
0.000000 0.612184 0.000000
0.016858 0.609658 0.000000
0.065031 0.607131 0.000000
0.113204 0.604604 0.000000
0.161378 0.602078 0.000000
0.209551 0.599551 0.000000
0.257725 0.597025 0.000000
0.305898 0.594498 0.000000
0.354072 0.591972 0.000000
0.402245 0.589445 0.000000
0.450419 0.586919 0.000000
0.498592 0.584392 0.000000
0.546766 0.581866 0.000000
0.594939 0.579339 0.000000
0.643113 0.576812 0.000000
0.691286 0.574286 0.000000
0.739459 0.571759 0.000000
0.787633 0.569233 0.000000
0.835806 0.566706 0.000000
0.883980 0.564180 0.000000
0.932153 0.561653 0.000000
0.980327 0.559127 0.000000
1.000000 0.556600 0.000000
1.000000 0.554073 0.000000
1.000000 0.551547 0.000000
1.000000 0.549020 0.000000
1.000000 0.546494 0.000000
1.000000 0.543967 0.000000
1.000000 0.541441 0.000000
1.000000 0.538914 0.000000
0.000000 0.664624 0.000000
0.000000 0.662097 0.000000
0.000000 0.659571 0.000000
0.000000 0.657044 0.000000
0.011993 0.654518 0.000000
0.060166 0.651991 0.000000
0.108340 0.649465 0.000000
0.156513 0.646938 0.000000
0.204687 0.644412 0.000000
0.252860 0.641885 0.000000
0.301033 0.639359 0.000000
0.349207 0.636832 0.000000
0.397380 0.634305 0.000000
0.445554 0.631779 0.000000
0.493727 0.629252 0.000000
0.541901 0.626726 0.000000
0.590074 0.624199 0.000000
0.638248 0.621673 0.000000
0.686421 0.619146 0.000000
0.734595 0.616620 0.000000
0.782768 0.614093 0.000000
0.830942 0.611566 0.000000
0.879115 0.609040 0.000000
0.927288 0.606513 0.000000
0.975462 0.603987 0.000000
1.000000 0.601460 0.000000
1.000000 0.598934 0.000000
1.000000 0.596407 0.000000
1.000000 0.593881 0.000000
1.000000 0.591354 0.000000
1.000000 0.588828 0.000000
1.000000 0.586301 0.000000
1.000000 0.583774 0.000000
0.000000 0.709484 0.000000
0.000000 0.706958 0.000000
0.000000 0.704431 0.000000
0.000000 0.701905 0.000000
0.007128 0.699378 0.000000
0.055302 0.696852 0.000000
0.103475 0.694325 0.000000
0.151648 0.691799 0.000000
0.199822 0.689272 0.000000
0.247995 0.686745 0.000000
0.296169 0.684219 0.000000
0.344342 0.681692 0.000000
0.392516 0.679166 0.000000
0.440689 0.676639 0.000000
0.488863 0.674113 0.000000
0.537036 0.671586 0.000000
0.585209 0.669060 0.000000
0.633383 0.666533 0.000000
0.681556 0.664006 0.000000
0.729730 0.661480 0.000000
0.777903 0.658953 0.000000
0.826077 0.656427 0.000000
0.874250 0.653900 0.000000
0.922424 0.651374 0.000000
0.970597 0.648847 0.000000
1.000000 0.646321 0.000000
1.000000 0.643794 0.000000
1.000000 0.641268 0.000000
1.000000 0.638741 0.000000
1.000000 0.636214 0.000000
1.000000 0.633688 0.000000
1.000000 0.631161 0.000000
1.000000 0.628635 0.000000
0.000000 0.754344 0.000000
0.000000 0.751818 0.000000
0.000000 0.749291 0.000000
0.000000 0.746765 0.000000
0.002263 0.744238 0.000000
0.050437 0.741712 0.000000
0.098610 0.739185 0.000000
0.146784 0.736659 0.000000
0.194957 0.734132 0.000000
0.243131 0.731606 0.000000
0.291304 0.729079 0.000000
0.339477 0.726552 0.000000
0.387651 0.724026 0.000000
0.435824 0.721499 0.000000
0.483998 0.718973 0.000000
0.532171 0.716446 0.000000
0.580345 0.713920 0.000000
0.628518 0.711393 0.000000
0.676692 0.708867 0.000000
0.724865 0.706340 0.000000
0.773038 0.703813 0.000000
0.821212 0.701287 0.000000
0.869385 0.698760 0.000000
0.917559 0.696234 0.000000
0.965732 0.693707 0.000000
1.000000 0.691181 0.000000
1.000000 0.688654 0.000000
1.000000 0.686128 0.000000
1.000000 0.683601 0.000000
1.000000 0.681075 0.000000
1.000000 0.678548 0.000000
1.000000 0.676021 0.000000
1.000000 0.673495 0.000000
0.000000 0.799205 0.000000
0.000000 0.796678 0.000000
0.000000 0.794152 0.000000
0.000000 0.791625 0.000000
0.000000 0.789099 0.000000
0.045572 0.786572 0.000000
0.093745 0.784045 0.000000
0.141919 0.781519 0.000000
0.190092 0.778992 0.000000
0.238266 0.776466 0.000000
0.286439 0.773939 0.000000
0.334613 0.771413 0.000000
0.382786 0.768886 0.000000
0.430960 0.766360 0.000000
0.479133 0.763833 0.000000
0.527306 0.761307 0.000000
0.575480 0.758780 0.000000
0.623653 0.756253 0.000000
0.671827 0.753727 0.000000
0.720000 0.751200 0.000000
0.768174 0.748674 0.000000
0.816347 0.746147 0.000000
0.864521 0.743621 0.000000
0.912694 0.741094 0.000000
0.960868 0.738568 0.000000
1.000000 0.736041 0.000000
1.000000 0.733514 0.000000
1.000000 0.730988 0.000000
1.000000 0.728461 0.000000
1.000000 0.725935 0.000000
1.000000 0.723408 0.000000
1.000000 0.720882 0.000000
1.000000 0.718355 0.000000
0.000000 0.844065 0.000000
0.000000 0.841538 0.000000
0.000000 0.839012 0.000000
0.000000 0.836485 0.000000
0.000000 0.833959 0.000000
0.040707 0.831432 0.000000
0.088881 0.828906 0.000000
0.137054 0.826379 0.000000
0.185228 0.823853 0.000000
0.233401 0.821326 0.000000
0.281574 0.818800 0.000000
0.329748 0.816273 0.000000
0.377921 0.813746 0.000000
0.426095 0.811220 0.000000
0.474268 0.808693 0.000000
0.522442 0.806167 0.000000
0.570615 0.803640 0.000000
0.618789 0.801114 0.000000
0.666962 0.798587 0.000000
0.715135 0.796061 0.000000
0.763309 0.793534 0.000000
0.811482 0.791007 0.000000
0.859656 0.788481 0.000000
0.907829 0.785954 0.000000
0.956003 0.783428 0.000000
1.000000 0.780901 0.000000
1.000000 0.778375 0.000000
1.000000 0.775848 0.000000
1.000000 0.773322 0.000000
1.000000 0.770795 0.000000
1.000000 0.768269 0.000000
1.000000 0.765742 0.000000
1.000000 0.763215 0.000000
0.000000 0.888925 0.000000
0.000000 0.886399 0.000000
0.000000 0.883872 0.000000
0.000000 0.881346 0.000000
0.000000 0.878819 0.000000
0.035842 0.876292 0.000000
0.084016 0.873766 0.000000
0.132189 0.871239 0.000000
0.180363 0.868713 0.000000
0.228536 0.866186 0.000000
0.276710 0.863660 0.000000
0.324883 0.861133 0.000000
0.373057 0.858607 0.000000
0.421230 0.856080 0.000000
0.469403 0.853554 0.000000
0.517577 0.851027 0.000000
0.565750 0.848500 0.000000
0.613924 0.845974 0.000000
0.662097 0.843447 0.000000
0.710271 0.840921 0.000000
0.758444 0.838394 0.000000
0.806618 0.835868 0.000000
0.854791 0.833341 0.000000
0.902965 0.830815 0.000000
0.951138 0.828288 0.000000
0.999312 0.825761 0.000000
1.000000 0.823235 0.000000
1.000000 0.820708 0.000000
1.000000 0.818182 0.000000
1.000000 0.815655 0.000000
1.000000 0.813129 0.000000
1.000000 0.810602 0.000000
1.000000 0.808076 0.000000
0.000000 0.933785 0.000000
0.000000 0.931259 0.000000
0.000000 0.928732 0.000000
0.000000 0.926206 0.000000
0.000000 0.923679 0.000000
0.030978 0.921153 0.000000
0.079151 0.918626 0.000000
0.127325 0.916100 0.000000
0.175498 0.913573 0.000000
0.223671 0.911046 0.000000
0.271845 0.908520 0.000000
0.320018 0.905993 0.000000
0.368192 0.903467 0.000000
0.416365 0.900940 0.000000
0.464539 0.898414 0.000000
0.512712 0.895887 0.000000
0.560886 0.893361 0.000000
0.609059 0.890834 0.000000
0.657233 0.888308 0.000000
0.705406 0.885781 0.000000
0.753579 0.883254 0.000000
0.801753 0.880728 0.000000
0.849926 0.878201 0.000000
0.898100 0.875675 0.000000
0.946273 0.873148 0.000000
0.994447 0.870622 0.000000
1.000000 0.868095 0.000000
1.000000 0.865569 0.000000
1.000000 0.863042 0.000000
1.000000 0.860515 0.000000
1.000000 0.857989 0.000000
1.000000 0.855462 0.000000
1.000000 0.852936 0.000000
0.000000 0.978646 0.000000
0.000000 0.976119 0.000000
0.000000 0.973593 0.000000
0.000000 0.971066 0.000000
0.000000 0.968539 0.000000
0.026113 0.966013 0.000000
0.074286 0.963486 0.000000
0.122460 0.960960 0.000000
0.170633 0.958433 0.000000
0.218807 0.955907 0.000000
0.266980 0.953380 0.000000
0.315154 0.950854 0.000000
0.363327 0.948327 0.000000
0.411501 0.945801 0.000000
0.459674 0.943274 0.000000
0.507847 0.940747 0.000000
0.556021 0.938221 0.000000
0.604194 0.935694 0.000000
0.652368 0.933168 0.000000
0.700541 0.930641 0.000000
0.748715 0.928115 0.000000
0.796888 0.925588 0.000000
0.845062 0.923062 0.000000
0.893235 0.920535 0.000000
0.941409 0.918008 0.000000
0.989582 0.915482 0.000000
1.000000 0.912955 0.000000
1.000000 0.910429 0.000000
1.000000 0.907902 0.000000
1.000000 0.905376 0.000000
1.000000 0.902849 0.000000
1.000000 0.900323 0.000000
1.000000 0.897796 0.000000
0.000000 1.000000 0.000000
0.000000 1.000000 0.000000
0.000000 1.000000 0.000000
0.000000 1.000000 0.000000
0.000000 1.000000 0.000000
0.021248 1.000000 0.000000
0.069422 1.000000 0.000000
0.117595 1.000000 0.000000
0.165769 1.000000 0.000000
0.213942 1.000000 0.000000
0.262115 0.998240 0.000000
0.310289 0.995714 0.000000
0.358462 0.993187 0.000000
0.406636 0.990661 0.000000
0.454809 0.988134 0.000000
0.502983 0.985608 0.000000
0.551156 0.983081 0.000000
0.599330 0.980555 0.000000
0.647503 0.978028 0.000000
0.695676 0.975501 0.000000
0.743850 0.972975 0.000000
0.792023 0.970448 0.000000
0.840197 0.967922 0.000000
0.888370 0.965395 0.000000
0.936544 0.962869 0.000000
0.984717 0.960342 0.000000
1.000000 0.957816 0.000000
1.000000 0.955289 0.000000
1.000000 0.952763 0.000000
1.000000 0.950236 0.000000
1.000000 0.947709 0.000000
1.000000 0.945183 0.000000
1.000000 0.942656 0.000000
0.000000 1.000000 0.000000
0.000000 1.000000 0.000000
0.000000 1.000000 0.000000
0.000000 1.000000 0.000000
0.000000 1.000000 0.000000
0.016383 1.000000 0.000000
0.064557 1.000000 0.000000
0.112730 1.000000 0.000000
0.160904 1.000000 0.000000
0.209077 1.000000 0.000000
0.257251 1.000000 0.000000
0.305424 1.000000 0.000000
0.353598 1.000000 0.000000
0.401771 1.000000 0.000000
0.449944 1.000000 0.000000
0.498118 1.000000 0.000000
0.546291 1.000000 0.000000
0.594465 1.000000 0.000000
0.642638 1.000000 0.000000
0.690812 1.000000 0.000000
0.738985 1.000000 0.000000
0.787159 1.000000 0.000000
0.835332 1.000000 0.000000
0.883505 1.000000 0.000000
0.931679 1.000000 0.000000
0.979852 1.000000 0.000000
1.000000 1.000000 0.000000
1.000000 1.000000 0.000000
1.000000 0.997623 0.000000
