assets/luts/primelive_qingtou.cube
TITLE "primelive_qingtou"
LUT_3D_SIZE 9
0.095200 0.095200 0.095200
0.213425 0.093825 0.093825
0.331649 0.092449 0.092449
0.449874 0.091074 0.091074
0.568098 0.089698 0.089698
0.686323 0.088323 0.088323
0.804548 0.086948 0.086948
0.922772 0.085572 0.085572
1.000000 0.084197 0.084197
0.092365 0.217945 0.092365
0.210589 0.216569 0.090989
0.328814 0.215194 0.089614
0.447039 0.213819 0.088239
0.565263 0.212443 0.086863
0.683488 0.211068 0.085488
0.801712 0.209692 0.084112
0.919937 0.208317 0.082737
1.000000 0.206942 0.081362
0.089530 0.340690 0.089530
0.207754 0.339314 0.088154
0.325979 0.337939 0.086779
0.444203 0.336563 0.085403
0.562428 0.335188 0.084028
0.680653 0.333813 0.082653
0.798877 0.332437 0.081277
0.917102 0.331062 0.079902
1.000000 0.329686 0.078526
0.086694 0.463434 0.086694
0.204919 0.462059 0.085319
0.323144 0.460684 0.083944
0.441368 0.459308 0.082568
0.559593 0.457933 0.081193
0.677817 0.456557 0.079817
0.796042 0.455182 0.078442
0.914267 0.453807 0.077067
1.000000 0.452431 0.075691
0.083859 0.586179 0.083859
0.202084 0.584804 0.082484
0.320308 0.583428 0.081108
0.438533 0.582053 0.079733
0.556758 0.580678 0.078358
0.674982 0.579302 0.076982
0.793207 0.577927 0.075607
0.911431 0.576551 0.074231
1.000000 0.575176 0.072856
0.081024 0.708924 0.081024
0.199249 0.707549 0.079649
0.317473 0.706173 0.078273
0.435698 0.704798 0.076898
0.553922 0.703422 0.075522
0.672147 0.702047 0.074147
0.790372 0.700672 0.072772
0.908596 0.699296 0.071396
1.000000 0.697921 0.070021
0.078189 0.831669 0.078189
0.196413 0.830293 0.076813
0.314638 0.828918 0.075438
0.432863 0.827543 0.074063
0.551087 0.826167 0.072687
0.669312 0.824792 0.071312
0.787536 0.823416 0.069936
0.905761 0.822041 0.068561
1.000000 0.820666 0.067186
0.075354 0.954413 0.075354
0.193578 0.953038 0.073978
0.311803 0.951663 0.072603
0.430027 0.950287 0.071227
0.548252 0.948912 0.069852
0.666477 0.947536 0.068477
0.784701 0.946161 0.067101
0.902926 0.944786 0.065726
1.000000 0.943410 0.064350
0.072518 1.000000 0.072518
0.190743 1.000000 0.071143
0.308968 1.000000 0.069768
0.427192 1.000000 0.068392
0.545417 1.000000 0.067017
0.663641 1.000000 0.065641
0.781866 1.000000 0.064266
0.900091 1.000000 0.062891
1.000000 1.000000 0.061515
0.094628 0.094628 0.224992
0.212853 0.093253 0.223617
0.331078 0.091878 0.222242
0.449302 0.090502 0.220866
0.567527 0.089127 0.219491
0.685751 0.087751 0.218115
0.803976 0.086376 0.216740
0.922201 0.085001 0.215365
1.000000 0.083625 0.213989
0.091793 0.217373 0.222157
0.210018 0.215998 0.220782
0.328242 0.214622 0.219406
0.446467 0.213247 0.218031
0.564692 0.211872 0.216656
0.682916 0.210496 0.215280
0.801141 0.209121 0.213905
0.919365 0.207745 0.212529
1.000000 0.206370 0.211154
0.088958 0.340118 0.219322
0.207183 0.338743 0.217947
0.325407 0.337367 0.216571
0.443632 0.335992 0.215196
0.561856 0.334616 0.213820
0.680081 0.333241 0.212445
0.798306 0.331866 0.211070
0.916530 0.330490 0.209694
1.000000 0.329115 0.208319
0.086123 0.462863 0.216487
0.204347 0.461487 0.215111
0.322572 0.460112 0.213736
0.440797 0.458737 0.212361
0.559021 0.457361 0.210985
0.677246 0.455986 0.209610
0.795470 0.454610 0.208234
0.913695 0.453235 0.206859
1.000000 0.451860 0.205484
0.083288 0.585608 0.213652
0.201512 0.584232 0.212276
0.319737 0.582857 0.210901
0.437961 0.581481 0.209525
0.556186 0.580106 0.208150
0.674411 0.578731 0.206775
0.792635 0.577355 0.205399
0.910860 0.575980 0.204024
1.000000 0.574604 0.202648
0.080452 0.708352 0.210816
0.198677 0.706977 0.209441
0.316902 0.705602 0.208066
0.435126 0.704226 0.206690
0.553351 0.702851 0.205315
0.671575 0.701475 0.203939
0.789800 0.700100 0.202564
0.908025 0.698725 0.201189
1.000000 0.697349 0.199813
0.077617 0.831097 0.207981
0.195842 0.829722 0.206606
0.314066 0.828346 0.205230
0.432291 0.826971 0.203855
0.550516 0.825596 0.202480
0.668740 0.824220 0.201104
0.786965 0.822845 0.199729
0.905189 0.821469 0.198353
1.000000 0.820094 0.196978
0.074782 0.953842 0.205146
0.193007 0.952466 0.203771
0.311231 0.951091 0.202395
0.429456 0.949716 0.201020
0.547680 0.948340 0.199644
0.665905 0.946965 0.198269
0.784130 0.945589 0.196894
0.902354 0.944214 0.195518
1.000000 0.942839 0.194143
0.071947 1.000000 0.202311
0.190171 1.000000 0.200935
0.308396 1.000000 0.199560
0.426621 1.000000 0.198185
0.544845 1.000000 0.196809
0.663070 1.000000 0.195434
0.781294 1.000000 0.194058
0.899519 1.000000 0.192683
1.000000 1.000000 0.191308
0.094057 0.094057 0.354785
0.212281 0.092681 0.353409
0.330506 0.091306 0.352034
0.448731 0.089931 0.350659
0.566955 0.088555 0.349283
0.685180 0.087180 0.347908
0.803404 0.085804 0.346532
0.921629 0.084429 0.345157
1.000000 0.083054 0.343782
0.091222 0.216802 0.351950
0.209446 0.215426 0.350574
0.327671 0.214051 0.349199
0.445895 0.212675 0.347823
0.564120 0.211300 0.346448
0.682345 0.209925 0.345073
0.800569 0.208549 0.343697
0.918794 0.207174 0.342322
1.000000 0.205798 0.340946
0.088386 0.339546 0.349114
0.206611 0.338171 0.347739
0.324836 0.336796 0.346364
0.443060 0.335420 0.344988
0.561285 0.334045 0.343613
0.679509 0.332669 0.342237
0.797734 0.331294 0.340862
0.915959 0.329919 0.339487
1.000000 0.328543 0.338111
0.085551 0.462291 0.346279
0.203776 0.460916 0.344904
0.322000 0.459540 0.343528
0.440225 0.458165 0.342153
0.558450 0.456790 0.340778
0.676674 0.455414 0.339402
0.794899 0.454039 0.338027
0.913123 0.452663 0.336651
1.000000 0.451288 0.335276
0.082716 0.585036 0.343444
0.200941 0.583661 0.342069
0.319165 0.582285 0.340693
0.437390 0.580910 0.339318
0.555614 0.579534 0.337942
0.673839 0.578159 0.336567
0.792064 0.576784 0.335192
0.910288 0.575408 0.333816
1.000000 0.574033 0.332441
0.079881 0.707781 0.340609
0.198105 0.706405 0.339233
0.316330 0.705030 0.337858
0.434555 0.703655 0.336483
0.552779 0.702279 0.335107
0.671004 0.700904 0.333732
0.789228 0.699528 0.332356
0.907453 0.698153 0.330981
1.000000 0.696778 0.329606
0.077046 0.830526 0.337774
0.195270 0.829150 0.336398
0.313495 0.827775 0.335023
0.431719 0.826399 0.333647
0.549944 0.825024 0.332272
0.668169 0.823649 0.330897
0.786393 0.822273 0.329521
0.904618 0.820898 0.328146
1.000000 0.819522 0.326770
0.074210 0.953270 0.334938
0.192435 0.951895 0.333563
0.310660 0.950519 0.332188
0.428884 0.949144 0.330812
0.547109 0.947769 0.329437
0.665333 0.946393 0.328061
0.783558 0.945018 0.326686
0.901783 0.943642 0.325311
1.000000 0.942267 0.323935
0.071375 1.000000 0.332103
0.189600 1.000000 0.330728
0.307824 1.000000 0.329352
0.426049 1.000000 0.327977
0.544274 1.000000 0.326602
0.662498 1.000000 0.325226
0.780723 1.000000 0.323851
0.898947 1.000000 0.322475
1.000000 1.000000 0.321100
0.093485 0.093485 0.484577
0.211710 0.092110 0.483202
0.329934 0.090734 0.481826
0.448159 0.089359 0.480451
0.566384 0.087984 0.479076
0.684608 0.086608 0.477700
0.802833 0.085233 0.476325
0.921057 0.083857 0.474949
1.000000 0.082482 0.473574
0.090650 0.216230 0.481742
0.208875 0.214855 0.480367
0.327099 0.213479 0.478991
0.445324 0.212104 0.477616
0.563548 0.210728 0.476240
0.681773 0.209353 0.474865
0.799998 0.207978 0.473490
0.918222 0.206602 0.472114
1.000000 0.205227 0.470739
0.087815 0.338975 0.478907
0.206039 0.337599 0.477531
0.324264 0.336224 0.476156
0.442489 0.334849 0.474781
0.560713 0.333473 0.473405
0.678938 0.332098 0.472030
0.797162 0.330722 0.470654
0.915387 0.329347 0.469279
1.000000 0.327972 0.467904
0.084980 0.461720 0.476072
0.203204 0.460344 0.474696
0.321429 0.458969 0.473321
0.439653 0.457593 0.471945
0.557878 0.456218 0.470570
0.676103 0.454843 0.469195
0.794327 0.453467 0.467819
0.912552 0.452092 0.466444
1.000000 0.450716 0.465068
0.082144 0.584464 0.473236
0.200369 0.583089 0.471861
0.318594 0.581714 0.470486
0.436818 0.580338 0.469110
0.555043 0.578963 0.467735
0.673267 0.577587 0.466359
0.791492 0.576212 0.464984
0.909717 0.574837 0.463609
1.000000 0.573461 0.462233
0.079309 0.707209 0.470401
0.197534 0.705834 0.469026
0.315758 0.704458 0.467650
0.433983 0.703083 0.466275
0.552208 0.701708 0.464900
0.670432 0.700332 0.463524
0.788657 0.698957 0.462149
0.906881 0.697581 0.460773
1.000000 0.696206 0.459398
0.076474 0.829954 0.467566
0.194699 0.828579 0.466191
0.312923 0.827203 0.464815
0.431148 0.825828 0.463440
0.549372 0.824452 0.462064
0.667597 0.823077 0.460689
0.785822 0.821702 0.459314
0.904046 0.820326 0.457938
1.000000 0.818951 0.456563
0.073639 0.952699 0.464731
0.191863 0.951323 0.463355
0.310088 0.949948 0.461980
0.428313 0.948572 0.460605
0.546537 0.947197 0.459229
0.664762 0.945822 0.457854
0.782986 0.944446 0.456478
0.901211 0.943071 0.455103
1.000000 0.941695 0.453728
0.070804 1.000000 0.461896
0.189028 1.000000 0.460520
0.307253 1.000000 0.459145
0.425477 1.000000 0.457769
0.543702 1.000000 0.456394
0.661927 1.000000 0.455019
0.780151 1.000000 0.453643
0.898376 1.000000 0.452268
1.000000 1.000000 0.450892
0.092914 0.092914 0.614370
0.211138 0.091538 0.612994
0.329363 0.090163 0.611619
0.447587 0.088787 0.610243
0.565812 0.087412 0.608868
0.684037 0.086037 0.607493
0.802261 0.084661 0.606117
0.920486 0.083286 0.604742
1.000000 0.081910 0.603366
0.090078 0.215658 0.611534
0.208303 0.214283 0.610159
0.326528 0.212908 0.608784
0.444752 0.211532 0.607408
0.562977 0.210157 0.606033
0.681201 0.208781 0.604657
0.799426 0.207406 0.603282
0.917651 0.206031 0.601907
1.000000 0.204655 0.600531
0.087243 0.338403 0.608699
0.205468 0.337028 0.607324
0.323692 0.335652 0.605948
0.441917 0.334277 0.604573
0.560142 0.332902 0.603198
0.678366 0.331526 0.601822
0.796591 0.330151 0.600447
0.914815 0.328775 0.599071
1.000000 0.327400 0.597696
0.084408 0.461148 0.605864
0.202633 0.459773 0.604489
0.320857 0.458397 0.603113
0.439082 0.457022 0.601738
0.557306 0.455646 0.600362
0.675531 0.454271 0.598987
0.793756 0.452896 0.597612
0.911980 0.451520 0.596236
1.000000 0.450145 0.594861
0.081573 0.583893 0.603029
0.199797 0.582517 0.601653
0.318022 0.581142 0.600278
0.436247 0.579767 0.598903
0.554471 0.578391 0.597527
0.672696 0.577016 0.596152
0.790920 0.575640 0.594776
0.909145 0.574265 0.593401
1.000000 0.572890 0.592026
0.078738 0.706638 0.600194
0.196962 0.705262 0.598818
0.315187 0.703887 0.597443
0.433411 0.702511 0.596067
0.551636 0.701136 0.594692
0.669861 0.699761 0.593317
0.788085 0.698385 0.591941
0.906310 0.697010 0.590566
1.000000 0.695634 0.589190
0.075902 0.829382 0.597358
0.194127 0.828007 0.595983
0.312352 0.826632 0.594608
0.430576 0.825256 0.593232
0.548801 0.823881 0.591857
0.667025 0.822505 0.590481
0.785250 0.821130 0.589106
0.903475 0.819755 0.587731
1.000000 0.818379 0.586355
0.073067 0.952127 0.594523
0.191292 0.950752 0.593148
0.309516 0.949376 0.591772
0.427741 0.948001 0.590397
0.545966 0.946625 0.589022
0.664190 0.945250 0.587646
0.782415 0.943875 0.586271
0.900639 0.942499 0.584895
1.000000 0.941124 0.583520
0.070232 1.000000 0.591688
0.188457 1.000000 0.590313
0.306681 1.000000 0.588937
0.424906 1.000000 0.587562
0.543130 1.000000 0.586186
0.661355 1.000000 0.584811
0.779580 1.000000 0.583436
0.897804 1.000000 0.582060
1.000000 1.000000 0.580685
0.092342 0.092342 0.744162
0.210567 0.090967 0.742787
0.328791 0.089591 0.741411
0.447016 0.088216 0.740036
0.565240 0.086840 0.738660
0.683465 0.085465 0.737285
0.801690 0.084090 0.735910
0.919914 0.082714 0.734534
1.000000 0.081339 0.733159
0.089507 0.215087 0.741327
0.207731 0.213711 0.739951
0.325956 0.212336 0.738576
0.444181 0.210961 0.737201
0.562405 0.209585 0.735825
0.680630 0.208210 0.734450
0.798854 0.206834 0.733074
0.917079 0.205459 0.731699
1.000000 0.204084 0.730324
0.086672 0.337832 0.738492
0.204896 0.336456 0.737116
0.323121 0.335081 0.735741
0.441345 0.333705 0.734365
0.559570 0.332330 0.732990
0.677795 0.330955 0.731615
0.796019 0.329579 0.730239
0.914244 0.328204 0.728864
1.000000 0.326828 0.727488
0.083836 0.460576 0.735656
0.202061 0.459201 0.734281
0.320286 0.457826 0.732906
0.438510 0.456450 0.731530
0.556735 0.455075 0.730155
0.674959 0.453699 0.728779
0.793184 0.452324 0.727404
0.911409 0.450949 0.726029
1.000000 0.449573 0.724653
0.081001 0.583321 0.732821
0.199226 0.581946 0.731446
0.317450 0.580570 0.730070
0.435675 0.579195 0.728695
0.553900 0.577820 0.727320
0.672124 0.576444 0.725944
0.790349 0.575069 0.724569
0.908573 0.573693 0.723193
1.000000 0.572318 0.721818
0.078166 0.706066 0.729986
0.196391 0.704691 0.728611
0.314615 0.703315 0.727235
0.432840 0.701940 0.725860
0.551064 0.700564 0.724484
0.669289 0.699189 0.723109
0.787514 0.697814 0.721734
0.905738 0.696438 0.720358
1.000000 0.695063 0.718983
0.075331 0.828811 0.727151
0.193555 0.827435 0.725775
0.311780 0.826060 0.724400
0.430005 0.824685 0.723025
0.548229 0.823309 0.721649
0.666454 0.821934 0.720274
0.784678 0.820558 0.718898
0.902903 0.819183 0.717523
1.000000 0.817808 0.716148
0.072496 0.951556 0.724316
0.190720 0.950180 0.722940
0.308945 0.948805 0.721565
0.427169 0.947429 0.720189
0.545394 0.946054 0.718814
0.663619 0.944679 0.717439
0.781843 0.943303 0.716063
0.900068 0.941928 0.714688
1.000000 0.940552 0.713312
0.069660 1.000000 0.721480
0.187885 1.000000 0.720105
0.306110 1.000000 0.718730
0.424334 1.000000 0.717354
0.542559 1.000000 0.715979
0.660783 1.000000 0.714603
0.779008 1.000000 0.713228
0.897233 1.000000 0.711853
1.000000 1.000000 0.710477
0.091770 0.091770 0.873954
0.209995 0.090395 0.872579
0.328220 0.089020 0.871204
0.446444 0.087644 0.869828
0.564669 0.086269 0.868453
0.682893 0.084893 0.867077
0.801118 0.083518 0.865702
0.919343 0.082143 0.864327
1.000000 0.080767 0.862951
0.088935 0.214515 0.871119
0.207160 0.213140 0.869744
0.325384 0.211764 0.868368
0.443609 0.210389 0.866993
0.561834 0.209014 0.865618
0.680058 0.207638 0.864242
0.798283 0.206263 0.862867
0.916507 0.204887 0.861491
1.000000 0.203512 0.860116
0.086100 0.337260 0.868284
0.204325 0.335885 0.866909
0.322549 0.334509 0.865533
0.440774 0.333134 0.864158
0.558998 0.331758 0.862782
0.677223 0.330383 0.861407
0.795448 0.329008 0.860032
0.913672 0.327632 0.858656
1.000000 0.326257 0.857281
0.083265 0.460005 0.865449
0.201489 0.458629 0.864073
0.319714 0.457254 0.862698
0.437939 0.455879 0.861323
0.556163 0.454503 0.859947
0.674388 0.453128 0.858572
0.792612 0.451752 0.857196
0.910837 0.450377 0.855821
1.000000 0.449002 0.854446
0.080430 0.582750 0.862614
0.198654 0.581374 0.861238
0.316879 0.579999 0.859863
0.435103 0.578623 0.858487
0.553328 0.577248 0.857112
0.671553 0.575873 0.855737
0.789777 0.574497 0.854361
0.908002 0.573122 0.852986
1.000000 0.571746 0.851610
0.077594 0.705494 0.859778
0.195819 0.704119 0.858403
0.314044 0.702744 0.857028
0.432268 0.701368 0.855652
0.550493 0.699993 0.854277
0.668717 0.698617 0.852901
0.786942 0.697242 0.851526
0.905167 0.695867 0.850151
1.000000 0.694491 0.848775
0.074759 0.828239 0.856943
0.192984 0.826864 0.855568
0.311208 0.825488 0.854192
0.429433 0.824113 0.852817
0.547658 0.822738 0.851442
0.665882 0.821362 0.850066
0.784107 0.819987 0.848691
0.902331 0.818611 0.847315
1.000000 0.817236 0.845940
0.071924 0.950984 0.854108
0.190149 0.949609 0.852733
0.308373 0.948233 0.851357
0.426598 0.946858 0.849982
0.544822 0.945482 0.848606
0.663047 0.944107 0.847231
0.781272 0.942732 0.845856
0.899496 0.941356 0.844480
1.000000 0.939981 0.843105
0.069089 1.000000 0.851273
0.187313 1.000000 0.849897
0.305538 1.000000 0.848522
0.423763 1.000000 0.847147
0.541987 1.000000 0.845771
0.660212 1.000000 0.844396
0.778436 1.000000 0.843020
0.896661 1.000000 0.841645
1.000000 1.000000 0.840270
0.091199 0.091199 1.000000
0.209423 0.089823 1.000000
0.327648 0.088448 1.000000
0.445873 0.087073 0.999621
0.564097 0.085697 0.998245
0.682322 0.084322 0.996870
0.800546 0.082946 0.995494
0.918771 0.081571 0.994119
1.000000 0.080196 0.992744
0.088364 0.213944 1.000000
0.206588 0.212568 0.999536
0.324813 0.211193 0.998161
0.443037 0.209817 0.996785
0.561262 0.208442 0.995410
0.679487 0.207067 0.994035
0.797711 0.205691 0.992659
0.915936 0.204316 0.991284
1.000000 0.202940 0.989908
0.085528 0.336688 0.998076
0.203753 0.335313 0.996701
0.321978 0.333938 0.995326
0.440202 0.332562 0.993950
0.558427 0.331187 0.992575
0.676651 0.329811 0.991199
0.794876 0.328436 0.989824
0.913101 0.327061 0.988449
1.000000 0.325685 0.987073
0.082693 0.459433 0.995241
0.200918 0.458058 0.993866
0.319142 0.456682 0.992490
0.437367 0.455307 0.991115
0.555592 0.453932 0.989740
0.673816 0.452556 0.988364
0.792041 0.451181 0.986989
0.910265 0.449805 0.985613
1.000000 0.448430 0.984238
0.079858 0.582178 0.992406
0.198083 0.580803 0.991031
0.316307 0.579427 0.989655
0.434532 0.578052 0.988280
0.552756 0.576676 0.986904
0.670981 0.575301 0.985529
0.789206 0.573926 0.984154
0.907430 0.572550 0.982778
1.000000 0.571175 0.981403
0.077023 0.704923 0.989571
0.195247 0.703547 0.988195
0.313472 0.702172 0.986820
0.431697 0.700797 0.985445
0.549921 0.699421 0.984069
0.668146 0.698046 0.982694
0.786370 0.696670 0.981318
0.904595 0.695295 0.979943
1.000000 0.693920 0.978568
0.074188 0.827668 0.986735
0.192412 0.826292 0.985360
0.310637 0.824917 0.983985
0.428861 0.823541 0.982609
0.547086 0.822166 0.981234
0.665311 0.820791 0.979858
0.783535 0.819415 0.978483
0.901760 0.818040 0.977108
1.000000 0.816664 0.975732
0.071352 0.950412 0.983900
0.189577 0.949037 0.982525
0.307802 0.947662 0.981149
0.426026 0.946286 0.979774
0.544251 0.944911 0.978399
0.662475 0.943535 0.977023
0.780700 0.942160 0.975648
0.898925 0.940785 0.974272
1.000000 0.939409 0.972897
0.068517 1.000000 0.981065
0.186742 1.000000 0.979690
0.304966 1.000000 0.978314
0.423191 1.000000 0.976939
0.541416 1.000000 0.975563
0.659640 1.000000 0.974188
0.777865 1.000000 0.972813
0.896089 1.000000 0.971437
1.000000 1.000000 0.970062
0.090627 0.090627 1.000000
0.208852 0.089252 1.000000
0.327076 0.087876 1.000000
0.445301 0.086501 1.000000
0.563526 0.085126 1.000000
0.681750 0.083750 1.000000
0.799975 0.082375 1.000000
0.918199 0.080999 1.000000
1.000000 0.079624 1.000000
0.087792 0.213372 1.000000
0.206017 0.211997 1.000000
0.324241 0.210621 1.000000
0.442466 0.209246 1.000000
0.560690 0.207870 1.000000
0.678915 0.206495 1.000000
0.797140 0.205120 1.000000
0.915364 0.203744 1.000000
1.000000 0.202369 1.000000
0.084957 0.336117 1.000000
0.203181 0.334741 1.000000
0.321406 0.333366 1.000000
0.439631 0.331991 1.000000
0.557855 0.330615 1.000000
0.676080 0.329240 1.000000
0.794304 0.327864 1.000000
0.912529 0.326489 1.000000
1.000000 0.325114 1.000000
0.082122 0.458862 1.000000
0.200346 0.457486 1.000000
0.318571 0.456111 1.000000
0.436795 0.454735 1.000000
0.555020 0.453360 1.000000
0.673245 0.451985 1.000000
0.791469 0.450609 1.000000
0.909694 0.449234 1.000000
1.000000 0.447858 1.000000
0.079286 0.581606 1.000000
0.197511 0.580231 1.000000
0.315736 0.578856 1.000000
0.433960 0.577480 1.000000
0.552185 0.576105 1.000000
0.670409 0.574729 1.000000
0.788634 0.573354 1.000000
0.906859 0.571979 1.000000
1.000000 0.570603 1.000000
0.076451 0.704351 1.000000
0.194676 0.702976 1.000000
0.312900 0.701600 1.000000
0.431125 0.700225 1.000000
0.549350 0.698850 1.000000
0.667574 0.697474 1.000000
0.785799 0.696099 1.000000
0.904023 0.694723 1.000000
1.000000 0.693348 1.000000
0.073616 0.827096 1.000000
0.191841 0.825721 1.000000
0.310065 0.824345 1.000000
0.428290 0.822970 1.000000
0.546514 0.821594 1.000000
0.664739 0.820219 1.000000
0.782964 0.818844 1.000000
0.901188 0.817468 1.000000
1.000000 0.816093 1.000000
0.070781 0.949841 1.000000
0.189005 0.948465 1.000000
0.307230 0.947090 1.000000
0.425455 0.945715 1.000000
0.543679 0.944339 1.000000
0.661904 0.942964 1.000000
0.780128 0.941588 1.000000
0.898353 0.940213 1.000000
1.000000 0.938838 1.000000
0.067946 1.000000 1.000000
0.186170 1.000000 1.000000
0.304395 1.000000 1.000000
0.422619 1.000000 1.000000
0.540844 1.000000 1.000000
0.659069 1.000000 1.000000
0.777293 1.000000 1.000000
0.895518 1.000000 1.000000
1.000000 1.000000 1.000000
