assets/luts/primelive_amb_night_lamp.cube
TITLE "primelive Night Lamp"
LUT_3D_SIZE 5
DOMAIN_MIN 0.0 0.0 0.0
DOMAIN_MAX 1.0 1.0 1.0
0.000000 0.000000 0.020000
0.237805 0.001024 0.018976
0.518645 0.002208 0.017792
0.802499 0.003405 0.016595
1.000000 0.004252 0.015748
0.001511 0.230863 0.016744
0.244316 0.231887 0.015721
0.525157 0.233071 0.014537
0.809011 0.234268 0.013340
1.000000 0.235115 0.012492
0.009091 0.499601 0.012954
0.251896 0.500625 0.011931
0.532736 0.501809 0.010747
0.816590 0.503006 0.009550
1.000000 0.503853 0.008702
0.016752 0.771222 0.009124
0.259557 0.772246 0.008100
0.540397 0.773430 0.006916
0.824251 0.774627 0.005719
1.000000 0.775474 0.004872
0.023608 1.000000 0.005696
0.266413 1.000000 0.004672
0.547253 1.000000 0.003488
0.831107 1.000000 0.002291
1.000000 1.000000 0.001444
0.000000 0.000302 0.228919
0.238409 0.001326 0.227895
0.519250 0.002510 0.226711
0.803104 0.003707 0.225514
1.000000 0.004554 0.224667
0.002116 0.231166 0.225663
0.244921 0.232189 0.224639
0.525761 0.233373 0.223455
0.809615 0.234570 0.222258
1.000000 0.235418 0.221411
0.009695 0.499903 0.221873
0.252500 0.500927 0.220849
0.533341 0.502111 0.219665
0.817195 0.503308 0.218468
1.000000 0.504155 0.217621
0.017356 0.771524 0.218043
0.260161 0.772548 0.217019
0.541002 0.773732 0.215835
0.824855 0.774929 0.214638
1.000000 0.775776 0.213791
0.024212 1.000000 0.214615
0.267017 1.000000 0.213591
0.547858 1.000000 0.212407
0.831712 1.000000 0.211210
1.000000 1.000000 0.210363
0.000000 0.000657 0.474600
0.239120 0.001681 0.473576
0.519960 0.002865 0.472392
0.803814 0.004062 0.471195
1.000000 0.004909 0.470348
0.002826 0.231521 0.471344
0.245631 0.232545 0.470321
0.526472 0.233729 0.469137
0.810325 0.234925 0.467940
1.000000 0.235773 0.467092
0.010406 0.500258 0.467554
0.253211 0.501282 0.466531
0.534051 0.502466 0.465347
0.817905 0.503663 0.464150
1.000000 0.504510 0.463302
0.018067 0.771880 0.463724
0.260872 0.772903 0.462700
0.541712 0.774087 0.461516
0.825566 0.775284 0.460319
1.000000 0.776132 0.459472
0.024923 1.000000 0.460296
0.267728 1.000000 0.459272
0.548568 1.000000 0.458088
0.832422 1.000000 0.456891
1.000000 1.000000 0.456044
0.000000 0.001016 0.722918
0.239838 0.002040 0.721894
0.520678 0.003224 0.720710
0.804532 0.004421 0.719513
1.000000 0.005268 0.718666
0.003544 0.231880 0.719662
0.246349 0.232904 0.718638
0.527190 0.234088 0.717454
0.811044 0.235284 0.716257
1.000000 0.236132 0.715410
0.011124 0.500617 0.715872
0.253929 0.501641 0.714848
0.534769 0.502825 0.713664
0.818623 0.504022 0.712468
1.000000 0.504869 0.711620
0.018785 0.772239 0.712042
0.261590 0.773262 0.711018
0.542430 0.774446 0.709834
0.826284 0.775643 0.708637
1.000000 0.776491 0.707790
0.025641 1.000000 0.708614
0.268446 1.000000 0.707590
0.549286 1.000000 0.706406
0.833140 1.000000 0.705209
1.000000 1.000000 0.704362
0.000000 0.001378 0.972963
0.240561 0.002402 0.971939
0.521402 0.003586 0.970755
0.805255 0.004783 0.969558
1.000000 0.005630 0.968711
0.004268 0.232242 0.969707
0.247073 0.233265 0.968684
0.527913 0.234449 0.967500
0.811767 0.235646 0.966303
1.000000 0.236494 0.965455
0.011847 0.500979 0.965917
0.254652 0.502003 0.964894
0.535493 0.503187 0.963710
0.819346 0.504384 0.962513
1.000000 0.505231 0.961665
0.019508 0.772600 0.962087
0.262313 0.773624 0.961063
0.543154 0.774808 0.959879
0.827007 0.776005 0.958682
1.000000 0.776852 0.957835
0.026364 1.000000 0.958659
0.269169 1.000000 0.957635
0.550010 1.000000 0.956451
0.833863 1.000000 0.955254
1.000000 1.000000 0.954407
