assets/luts/primelive_nuandiao.cube
TITLE "primelive_nuandiao"
LUT_3D_SIZE 9
0.139200 0.139200 0.139200
0.251452 0.138538 0.138538
0.363704 0.137876 0.137876
0.475956 0.137214 0.137214
0.588208 0.136552 0.136552
0.700460 0.135890 0.135890
0.812712 0.135228 0.135228
0.924964 0.134566 0.134566
1.000000 0.133904 0.133904
0.137961 0.245647 0.137961
0.250213 0.244985 0.137299
0.362465 0.244323 0.136637
0.474717 0.243661 0.135975
0.586969 0.242999 0.135313
0.699221 0.242337 0.134651
0.811473 0.241675 0.133989
0.923725 0.241013 0.133327
1.000000 0.240351 0.132665
0.136721 0.352094 0.136721
0.248973 0.351432 0.136059
0.361225 0.350770 0.135397
0.473477 0.350108 0.134735
0.585729 0.349446 0.134073
0.697981 0.348784 0.133411
0.810233 0.348122 0.132749
0.922485 0.347460 0.132087
1.000000 0.346798 0.131425
0.135482 0.458541 0.135482
0.247734 0.457879 0.134820
0.359986 0.457217 0.134158
0.472238 0.456555 0.133496
0.584490 0.455893 0.132834
0.696742 0.455231 0.132172
0.808994 0.454569 0.131510
0.921246 0.453907 0.130848
1.000000 0.453245 0.130186
0.134242 0.564988 0.134242
0.246494 0.564326 0.133580
0.358746 0.563664 0.132918
0.470998 0.563002 0.132256
0.583250 0.562340 0.131594
0.695502 0.561678 0.130932
0.807754 0.561016 0.130270
0.920006 0.560354 0.129608
1.000000 0.559692 0.128946
0.133003 0.671435 0.133003
0.245255 0.670773 0.132341
0.357507 0.670111 0.131679
0.469759 0.669449 0.131017
0.582011 0.668787 0.130355
0.694263 0.668125 0.129693
0.806515 0.667463 0.129031
0.918767 0.666801 0.128369
1.000000 0.666139 0.127707
0.131763 0.777882 0.131763
0.244015 0.777220 0.131101
0.356267 0.776558 0.130439
0.468519 0.775896 0.129777
0.580771 0.775234 0.129115
0.693023 0.774572 0.128453
0.805275 0.773910 0.127791
0.917527 0.773248 0.127129
1.000000 0.772586 0.126467
0.130524 0.884329 0.130524
0.242776 0.883667 0.129862
0.355028 0.883005 0.129200
0.467280 0.882343 0.128538
0.579532 0.881681 0.127876
0.691784 0.881019 0.127214
0.804036 0.880357 0.126552
0.916288 0.879695 0.125890
1.000000 0.879033 0.125228
0.129284 0.990776 0.129284
0.241536 0.990114 0.128622
0.353788 0.989452 0.127960
0.466040 0.988790 0.127298
0.578292 0.988128 0.126636
0.690544 0.987466 0.125974
0.802797 0.986804 0.125312
0.915048 0.986142 0.124650
1.000000 0.985480 0.123989
0.138971 0.138971 0.241430
0.251223 0.138309 0.240768
0.363475 0.137647 0.240106
0.475727 0.136985 0.239444
0.587979 0.136323 0.238782
0.700231 0.135661 0.238120
0.812483 0.134999 0.237458
0.924735 0.134337 0.236796
1.000000 0.133675 0.236134
0.137732 0.245418 0.240191
0.249984 0.244756 0.239529
0.362236 0.244094 0.238867
0.474488 0.243432 0.238205
0.586740 0.242770 0.237543
0.698992 0.242108 0.236881
0.811244 0.241446 0.236219
0.923496 0.240784 0.235557
1.000000 0.240122 0.234895
0.136492 0.351865 0.238951
0.248744 0.351203 0.238289
0.360996 0.350541 0.237627
0.473248 0.349879 0.236965
0.585500 0.349217 0.236303
0.697752 0.348555 0.235641
0.810004 0.347893 0.234979
0.922256 0.347231 0.234317
1.000000 0.346569 0.233655
0.135253 0.458312 0.237712
0.247505 0.457650 0.237050
0.359757 0.456988 0.236388
0.472009 0.456326 0.235726
0.584261 0.455664 0.235064
0.696513 0.455002 0.234402
0.808765 0.454340 0.233740
0.921017 0.453678 0.233078
1.000000 0.453016 0.232416
0.134013 0.564759 0.236472
0.246265 0.564097 0.235810
0.358517 0.563435 0.235148
0.470769 0.562773 0.234486
0.583021 0.562111 0.233824
0.695273 0.561449 0.233162
0.807525 0.560787 0.232500
0.919777 0.560125 0.231838
1.000000 0.559463 0.231176
0.132774 0.671206 0.235233
0.245026 0.670544 0.234571
0.357278 0.669882 0.233909
0.469530 0.669220 0.233247
0.581782 0.668558 0.232585
0.694034 0.667896 0.231923
0.806286 0.667234 0.231261
0.918538 0.666572 0.230599
1.000000 0.665910 0.229937
0.131534 0.777653 0.233993
0.243786 0.776991 0.233331
0.356038 0.776329 0.232669
0.468290 0.775667 0.232007
0.580542 0.775005 0.231345
0.692794 0.774343 0.230683
0.805046 0.773681 0.230021
0.917298 0.773019 0.229359
1.000000 0.772357 0.228697
0.130295 0.884100 0.232754
0.242547 0.883438 0.232092
0.354799 0.882776 0.231430
0.467051 0.882114 0.230768
0.579303 0.881452 0.230106
0.691555 0.880790 0.229444
0.803807 0.880128 0.228782
0.916059 0.879466 0.228120
1.000000 0.878804 0.227458
0.129055 0.990547 0.231514
0.241307 0.989885 0.230852
0.353559 0.989223 0.230190
0.465811 0.988561 0.229528
0.578063 0.987899 0.228866
0.690315 0.987237 0.228204
0.802567 0.986575 0.227542
0.914819 0.985913 0.226880
1.000000 0.985251 0.226218
0.138742 0.138742 0.343660
0.250994 0.138080 0.342998
0.363246 0.137418 0.342336
0.475498 0.136756 0.341674
0.587750 0.136094 0.341012
0.700002 0.135432 0.340350
0.812254 0.134770 0.339688
0.924506 0.134108 0.339026
1.000000 0.133446 0.338364
0.137502 0.245189 0.342420
0.249754 0.244527 0.341759
0.362007 0.243865 0.341097
0.474259 0.243203 0.340435
0.586511 0.242541 0.339773
0.698763 0.241879 0.339111
0.811015 0.241217 0.338449
0.923267 0.240555 0.337787
1.000000 0.239893 0.337125
0.136263 0.351636 0.341181
0.248515 0.350974 0.340519
0.360767 0.350312 0.339857
0.473019 0.349650 0.339195
0.585271 0.348988 0.338533
0.697523 0.348326 0.337871
0.809775 0.347664 0.337209
0.922027 0.347002 0.336547
1.000000 0.346340 0.335885
0.135024 0.458083 0.339942
0.247276 0.457421 0.339280
0.359528 0.456759 0.338618
0.471780 0.456097 0.337956
0.584032 0.455435 0.337294
0.696284 0.454773 0.336632
0.808536 0.454111 0.335970
0.920788 0.453449 0.335308
1.000000 0.452787 0.334646
0.133784 0.564530 0.338702
0.246036 0.563868 0.338040
0.358288 0.563206 0.337378
0.470540 0.562544 0.336716
0.582792 0.561882 0.336054
0.695044 0.561220 0.335392
0.807296 0.560558 0.334730
0.919548 0.559896 0.334068
1.000000 0.559234 0.333406
0.132545 0.670977 0.337463
0.244797 0.670315 0.336801
0.357049 0.669653 0.336139
0.469301 0.668991 0.335477
0.581553 0.668329 0.334815
0.693805 0.667667 0.334153
0.806057 0.667005 0.333491
0.918309 0.666343 0.332829
1.000000 0.665681 0.332167
0.131305 0.777424 0.336223
0.243557 0.776762 0.335561
0.355809 0.776100 0.334899
0.468061 0.775438 0.334237
0.580313 0.774776 0.333575
0.692565 0.774114 0.332913
0.804817 0.773452 0.332251
0.917069 0.772790 0.331589
1.000000 0.772128 0.330927
0.130066 0.883871 0.334984
0.242318 0.883209 0.334322
0.354570 0.882547 0.333660
0.466822 0.881885 0.332998
0.579074 0.881223 0.332336
0.691326 0.880561 0.331674
0.803578 0.879899 0.331012
0.915830 0.879237 0.330350
1.000000 0.878575 0.329688
0.128826 0.990318 0.333744
0.241078 0.989656 0.333082
0.353330 0.988994 0.332420
0.465582 0.988332 0.331758
0.577834 0.987670 0.331096
0.690086 0.987008 0.330434
0.802338 0.986346 0.329772
0.914590 0.985684 0.329110
1.000000 0.985022 0.328448
0.138513 0.138513 0.445890
0.250765 0.137851 0.445228
0.363017 0.137189 0.444566
0.475269 0.136527 0.443904
0.587521 0.135865 0.443242
0.699773 0.135203 0.442580
0.812025 0.134541 0.441918
0.924277 0.133879 0.441256
1.000000 0.133217 0.440594
0.137273 0.244960 0.444650
0.249525 0.244298 0.443988
0.361777 0.243636 0.443326
0.474030 0.242974 0.442665
0.586282 0.242312 0.442003
0.698534 0.241650 0.441341
0.810786 0.240988 0.440679
0.923038 0.240326 0.440017
1.000000 0.239664 0.439355
0.136034 0.351407 0.443411
0.248286 0.350745 0.442749
0.360538 0.350083 0.442087
0.472790 0.349421 0.441425
0.585042 0.348759 0.440763
0.697294 0.348097 0.440101
0.809546 0.347435 0.439439
0.921798 0.346773 0.438777
1.000000 0.346111 0.438115
0.134795 0.457854 0.442172
0.247047 0.457192 0.441510
0.359299 0.456530 0.440848
0.471551 0.455868 0.440186
0.583803 0.455206 0.439524
0.696055 0.454544 0.438862
0.808307 0.453882 0.438200
0.920559 0.453220 0.437538
1.000000 0.452558 0.436876
0.133555 0.564301 0.440932
0.245807 0.563639 0.440270
0.358059 0.562977 0.439608
0.470311 0.562315 0.438946
0.582563 0.561653 0.438284
0.694815 0.560991 0.437622
0.807067 0.560329 0.436960
0.919319 0.559667 0.436298
1.000000 0.559005 0.435636
0.132316 0.670748 0.439693
0.244568 0.670086 0.439031
0.356820 0.669424 0.438369
0.469072 0.668762 0.437707
0.581324 0.668100 0.437045
0.693576 0.667438 0.436383
0.805828 0.666776 0.435721
0.918080 0.666114 0.435059
1.000000 0.665452 0.434397
0.131076 0.777195 0.438453
0.243328 0.776533 0.437791
0.355580 0.775871 0.437129
0.467832 0.775209 0.436467
0.580084 0.774547 0.435805
0.692336 0.773885 0.435143
0.804588 0.773223 0.434481
0.916840 0.772561 0.433819
1.000000 0.771899 0.433157
0.129837 0.883642 0.437214
0.242089 0.882980 0.436552
0.354341 0.882318 0.435890
0.466593 0.881656 0.435228
0.578845 0.880994 0.434566
0.691097 0.880332 0.433904
0.803349 0.879670 0.433242
0.915601 0.879008 0.432580
1.000000 0.878346 0.431918
0.128597 0.990089 0.435974
0.240849 0.989427 0.435312
0.353101 0.988765 0.434650
0.465353 0.988103 0.433988
0.577605 0.987441 0.433326
0.689857 0.986779 0.432664
0.802109 0.986117 0.432002
0.914361 0.985455 0.431340
1.000000 0.984793 0.430678
0.138284 0.138284 0.548120
0.250536 0.137622 0.547458
0.362788 0.136960 0.546796
0.475040 0.136298 0.546134
0.587292 0.135636 0.545472
0.699544 0.134974 0.544810
0.811796 0.134312 0.544148
0.924048 0.133650 0.543486
1.000000 0.132988 0.542824
0.137044 0.244731 0.546880
0.249296 0.244069 0.546218
0.361548 0.243407 0.545556
0.473801 0.242745 0.544894
0.586053 0.242083 0.544233
0.698305 0.241421 0.543571
0.810557 0.240759 0.542909
0.922809 0.240097 0.542247
1.000000 0.239435 0.541585
0.135805 0.351178 0.545641
0.248057 0.350516 0.544979
0.360309 0.349854 0.544317
0.472561 0.349192 0.543655
0.584813 0.348530 0.542993
0.697065 0.347868 0.542331
0.809317 0.347206 0.541669
0.921569 0.346544 0.541007
1.000000 0.345882 0.540345
0.134566 0.457625 0.544402
0.246818 0.456963 0.543740
0.359070 0.456301 0.543078
0.471322 0.455639 0.542416
0.583574 0.454977 0.541754
0.695826 0.454315 0.541092
0.808078 0.453653 0.540430
0.920330 0.452991 0.539768
1.000000 0.452329 0.539106
0.133326 0.564072 0.543162
0.245578 0.563410 0.542500
0.357830 0.562748 0.541838
0.470082 0.562086 0.541176
0.582334 0.561424 0.540514
0.694586 0.560762 0.539852
0.806838 0.560100 0.539190
0.919090 0.559438 0.538528
1.000000 0.558776 0.537866
0.132087 0.670519 0.541923
0.244339 0.669857 0.541261
0.356591 0.669195 0.540599
0.468843 0.668533 0.539937
0.581095 0.667871 0.539275
0.693347 0.667209 0.538613
0.805599 0.666547 0.537951
0.917851 0.665885 0.537289
1.000000 0.665223 0.536627
0.130847 0.776966 0.540683
0.243099 0.776304 0.540021
0.355351 0.775642 0.539359
0.467603 0.774980 0.538697
0.579855 0.774318 0.538035
0.692107 0.773656 0.537373
0.804359 0.772994 0.536711
0.916611 0.772332 0.536049
1.000000 0.771670 0.535387
0.129608 0.883413 0.539444
0.241860 0.882751 0.538782
0.354112 0.882089 0.538120
0.466364 0.881427 0.537458
0.578616 0.880765 0.536796
0.690868 0.880103 0.536134
0.803120 0.879441 0.535472
0.915372 0.878779 0.534810
1.000000 0.878117 0.534148
0.128368 0.989860 0.538204
0.240620 0.989198 0.537542
0.352872 0.988536 0.536880
0.465124 0.987874 0.536218
0.577376 0.987212 0.535556
0.689628 0.986550 0.534894
0.801880 0.985888 0.534232
0.914132 0.985226 0.533570
1.000000 0.984564 0.532908
0.138055 0.138055 0.650350
0.250307 0.137393 0.649688
0.362559 0.136731 0.649026
0.474811 0.136069 0.648364
0.587063 0.135407 0.647702
0.699315 0.134745 0.647040
0.811567 0.134083 0.646378
0.923819 0.133421 0.645716
1.000000 0.132759 0.645054
0.136815 0.244502 0.649110
0.249067 0.243840 0.648448
0.361319 0.243178 0.647786
0.473571 0.242516 0.647125
0.585823 0.241854 0.646463
0.698076 0.241192 0.645801
0.810328 0.240530 0.645139
0.922580 0.239868 0.644477
1.000000 0.239206 0.643815
0.135576 0.350949 0.647871
0.247828 0.350287 0.647209
0.360080 0.349625 0.646547
0.472332 0.348963 0.645885
0.584584 0.348301 0.645223
0.696836 0.347639 0.644561
0.809088 0.346977 0.643899
0.921340 0.346315 0.643237
1.000000 0.345653 0.642575
0.134337 0.457396 0.646632
0.246589 0.456734 0.645970
0.358841 0.456072 0.645308
0.471093 0.455410 0.644646
0.583345 0.454748 0.643984
0.695597 0.454086 0.643322
0.807849 0.453424 0.642660
0.920101 0.452762 0.641998
1.000000 0.452100 0.641336
0.133097 0.563843 0.645392
0.245349 0.563181 0.644730
0.357601 0.562519 0.644068
0.469853 0.561857 0.643406
0.582105 0.561195 0.642744
0.694357 0.560533 0.642082
0.806609 0.559871 0.641420
0.918861 0.559209 0.640758
1.000000 0.558547 0.640096
0.131858 0.670290 0.644153
0.244110 0.669628 0.643491
0.356362 0.668966 0.642829
0.468614 0.668304 0.642167
0.580866 0.667642 0.641505
0.693118 0.666980 0.640843
0.805370 0.666318 0.640181
0.917622 0.665656 0.639519
1.000000 0.664994 0.638857
0.130618 0.776737 0.642913
0.242870 0.776075 0.642251
0.355122 0.775413 0.641589
0.467374 0.774751 0.640927
0.579626 0.774089 0.640265
0.691878 0.773427 0.639603
0.804130 0.772765 0.638941
0.916382 0.772103 0.638279
1.000000 0.771441 0.637617
0.129379 0.883184 0.641674
0.241631 0.882522 0.641012
0.353883 0.881860 0.640350
0.466135 0.881198 0.639688
0.578387 0.880536 0.639026
0.690639 0.879874 0.638364
0.802891 0.879212 0.637702
0.915143 0.878550 0.637040
1.000000 0.877888 0.636378
0.128139 0.989631 0.640434
0.240391 0.988969 0.639772
0.352643 0.988307 0.639110
0.464895 0.987645 0.638448
0.577147 0.986983 0.637786
0.689399 0.986321 0.637124
0.801651 0.985659 0.636462
0.913903 0.984997 0.635800
1.000000 0.984335 0.635138
0.137826 0.137826 0.752580
0.250078 0.137164 0.751918
0.362330 0.136502 0.751256
0.474582 0.135840 0.750594
0.586834 0.135178 0.749932
0.699086 0.134516 0.749270
0.811338 0.133854 0.748608
0.923590 0.133192 0.747946
1.000000 0.132530 0.747284
0.136586 0.244273 0.751340
0.248838 0.243611 0.750678
0.361090 0.242949 0.750016
0.473342 0.242287 0.749354
0.585594 0.241625 0.748692
0.697846 0.240963 0.748030
0.810099 0.240301 0.747369
0.922350 0.239639 0.746707
1.000000 0.238977 0.746045
0.135347 0.350720 0.750101
0.247599 0.350058 0.749439
0.359851 0.349396 0.748777
0.472103 0.348734 0.748115
0.584355 0.348072 0.747453
0.696607 0.347410 0.746791
0.808859 0.346748 0.746129
0.921111 0.346086 0.745467
1.000000 0.345424 0.744805
0.134107 0.457167 0.748862
0.246359 0.456505 0.748200
0.358612 0.455843 0.747538
0.470864 0.455181 0.746876
0.583116 0.454519 0.746214
0.695368 0.453857 0.745552
0.807620 0.453195 0.744890
0.919872 0.452533 0.744228
1.000000 0.451871 0.743566
0.132868 0.563614 0.747622
0.245120 0.562952 0.746960
0.357372 0.562290 0.746298
0.469624 0.561628 0.745636
0.581876 0.560966 0.744974
0.694128 0.560304 0.744312
0.806380 0.559642 0.743650
0.918632 0.558980 0.742988
1.000000 0.558318 0.742326
0.131629 0.670061 0.746383
0.243881 0.669399 0.745721
0.356133 0.668737 0.745059
0.468385 0.668075 0.744397
0.580637 0.667413 0.743735
0.692889 0.666751 0.743073
0.805141 0.666089 0.742411
0.917393 0.665427 0.741749
1.000000 0.664765 0.741087
0.130389 0.776508 0.745143
0.242641 0.775846 0.744481
0.354893 0.775184 0.743819
0.467145 0.774522 0.743157
0.579397 0.773860 0.742495
0.691649 0.773198 0.741833
0.803901 0.772536 0.741171
0.916153 0.771874 0.740509
1.000000 0.771212 0.739847
0.129150 0.882955 0.743904
0.241402 0.882293 0.743242
0.353654 0.881631 0.742580
0.465906 0.880969 0.741918
0.578158 0.880307 0.741256
0.690410 0.879645 0.740594
0.802662 0.878983 0.739932
0.914914 0.878321 0.739270
1.000000 0.877659 0.738608
0.127910 0.989402 0.742664
0.240162 0.988740 0.742002
0.352414 0.988078 0.741340
0.464666 0.987416 0.740678
0.576918 0.986754 0.740016
0.689170 0.986092 0.739354
0.801422 0.985430 0.738692
0.913674 0.984768 0.738030
1.000000 0.984106 0.737368
0.137597 0.137597 0.854810
0.249849 0.136935 0.854148
0.362101 0.136273 0.853486
0.474353 0.135611 0.852824
0.586605 0.134949 0.852162
0.698857 0.134287 0.851500
0.811109 0.133625 0.850838
0.923361 0.132963 0.850176
1.000000 0.132301 0.849514
0.136357 0.244044 0.853570
0.248609 0.243382 0.852908
0.360861 0.242720 0.852246
0.473113 0.242058 0.851584
0.585365 0.241396 0.850922
0.697617 0.240734 0.850260
0.809869 0.240072 0.849598
0.922121 0.239410 0.848936
1.000000 0.238748 0.848274
0.135118 0.350491 0.852331
0.247370 0.349829 0.851669
0.359622 0.349167 0.851007
0.471874 0.348505 0.850345
0.584126 0.347843 0.849683
0.696378 0.347181 0.849021
0.808630 0.346519 0.848359
0.920882 0.345857 0.847697
1.000000 0.345195 0.847035
0.133878 0.456938 0.851091
0.246130 0.456276 0.850429
0.358382 0.455614 0.849768
0.470635 0.454952 0.849106
0.582887 0.454290 0.848444
0.695139 0.453628 0.847782
0.807391 0.452966 0.847120
0.919643 0.452304 0.846458
1.000000 0.451642 0.845796
0.132639 0.563385 0.849852
0.244891 0.562723 0.849190
0.357143 0.562061 0.848528
0.469395 0.561399 0.847866
0.581647 0.560737 0.847204
0.693899 0.560075 0.846542
0.806151 0.559413 0.845880
0.918403 0.558751 0.845218
1.000000 0.558089 0.844556
0.131400 0.669832 0.848613
0.243652 0.669170 0.847951
0.355904 0.668508 0.847289
0.468156 0.667846 0.846627
0.580408 0.667184 0.845965
0.692660 0.666522 0.845303
0.804912 0.665860 0.844641
0.917164 0.665198 0.843979
1.000000 0.664536 0.843317
0.130160 0.776279 0.847373
0.242412 0.775617 0.846711
0.354664 0.774955 0.846049
0.466916 0.774293 0.845387
0.579168 0.773631 0.844725
0.691420 0.772969 0.844063
0.803672 0.772307 0.843401
0.915924 0.771645 0.842739
1.000000 0.770983 0.842077
0.128921 0.882726 0.846134
0.241173 0.882064 0.845472
0.353425 0.881402 0.844810
0.465677 0.880740 0.844148
0.577929 0.880078 0.843486
0.690181 0.879416 0.842824
0.802433 0.878754 0.842162
0.914685 0.878092 0.841500
1.000000 0.877430 0.840838
0.127681 0.989173 0.844894
0.239933 0.988511 0.844232
0.352185 0.987849 0.843570
0.464437 0.987187 0.842908
0.576689 0.986525 0.842246
0.688941 0.985863 0.841584
0.801193 0.985201 0.840922
0.913445 0.984539 0.840260
1.000000 0.983877 0.839598
0.137368 0.137368 0.957040
0.249620 0.136706 0.956378
0.361872 0.136044 0.955716
0.474124 0.135382 0.955054
0.586376 0.134720 0.954392
0.698628 0.134058 0.953730
0.810880 0.133396 0.953068
0.923132 0.132734 0.952406
1.000000 0.132072 0.951744
0.136128 0.243815 0.955800
0.248380 0.243153 0.955138
0.360632 0.242491 0.954476
0.472884 0.241829 0.953814
0.585136 0.241167 0.953152
0.697388 0.240505 0.952490
0.809640 0.239843 0.951828
0.921892 0.239181 0.951166
1.000000 0.238519 0.950504
0.134889 0.350262 0.954561
0.247141 0.349600 0.953899
0.359393 0.348938 0.953237
0.471645 0.348276 0.952575
0.583897 0.347614 0.951913
0.696149 0.346952 0.951251
0.808401 0.346290 0.950589
0.920653 0.345628 0.949927
1.000000 0.344966 0.949265
0.133649 0.456709 0.953321
0.245901 0.456047 0.952659
0.358153 0.455385 0.951997
0.470406 0.454723 0.951335
0.582658 0.454061 0.950673
0.694910 0.453399 0.950011
0.807162 0.452737 0.949349
0.919414 0.452075 0.948687
1.000000 0.451413 0.948025
0.132410 0.563156 0.952082
0.244662 0.562494 0.951420
0.356914 0.561832 0.950758
0.469166 0.561170 0.950096
0.581418 0.560508 0.949434
0.693670 0.559846 0.948772
0.805922 0.559184 0.948110
0.918174 0.558522 0.947448
1.000000 0.557860 0.946786
0.131171 0.669603 0.950842
0.243423 0.668941 0.950180
0.355675 0.668279 0.949518
0.467927 0.667617 0.948857
0.580179 0.666955 0.948195
0.692431 0.666293 0.947533
0.804683 0.665631 0.946871
0.916935 0.664969 0.946209
1.000000 0.664307 0.945547
0.129931 0.776050 0.949603
0.242183 0.775388 0.948941
0.354435 0.774726 0.948279
0.466687 0.774064 0.947617
0.578939 0.773402 0.946955
0.691191 0.772740 0.946293
0.803443 0.772078 0.945631
0.915695 0.771416 0.944969
1.000000 0.770754 0.944307
0.128692 0.882497 0.948364
0.240944 0.881835 0.947702
0.353196 0.881173 0.947040
0.465448 0.880511 0.946378
0.577700 0.879849 0.945716
0.689952 0.879187 0.945054
0.802204 0.878525 0.944392
0.914456 0.877863 0.943730
1.000000 0.877201 0.943068
0.127452 0.988944 0.947124
0.239704 0.988282 0.946462
0.351956 0.987620 0.945800
0.464208 0.986958 0.945138
0.576460 0.986296 0.944476
0.688712 0.985634 0.943814
0.800964 0.984972 0.943152
0.913216 0.984310 0.942490
1.000000 0.983648 0.941828
