assets/luts/primelive_amb_fairytale_soft.cube
TITLE "primelive Fairytale Soft"
LUT_3D_SIZE 9
DOMAIN_MIN 0.0 0.0 0.0
DOMAIN_MAX 1.0 1.0 1.0
0.131798 0.117074 0.125691
0.269878 0.116017 0.124282
0.393779 0.115069 0.123017
0.510790 0.114173 0.121823
0.623273 0.113312 0.120675
0.732408 0.112477 0.119561
0.838902 0.111662 0.118474
0.943224 0.110863 0.117409
1.000000 0.110383 0.116769
0.128125 0.248439 0.121100
0.266205 0.247382 0.119690
0.390106 0.246434 0.118426
0.507117 0.245538 0.117231
0.619600 0.244677 0.116083
0.728735 0.243841 0.114970
0.835229 0.243026 0.113883
0.939552 0.242228 0.112818
1.000000 0.241748 0.112178
0.124825 0.366467 0.116975
0.262905 0.365410 0.115565
0.386806 0.364462 0.114301
0.503817 0.363566 0.113106
0.616300 0.362705 0.111958
0.725435 0.361870 0.110844
0.831929 0.361055 0.109758
0.936251 0.360256 0.108693
0.998962 0.359776 0.108053
0.121707 0.477968 0.113078
0.259787 0.476911 0.111668
0.383688 0.475963 0.110404
0.500700 0.475067 0.109209
0.613182 0.474206 0.108061
0.722317 0.473371 0.106948
0.828811 0.472556 0.105861
0.933134 0.471757 0.104796
0.995844 0.471277 0.104156
0.118710 0.585170 0.109331
0.256790 0.584113 0.107922
0.380691 0.583165 0.106657
0.497702 0.582269 0.105463
0.610185 0.581408 0.104315
0.719320 0.580573 0.103201
0.825814 0.579758 0.102114
0.930137 0.578959 0.101049
0.992847 0.578479 0.100409
0.115801 0.689191 0.105695
0.253881 0.688134 0.104286
0.377783 0.687186 0.103022
0.494794 0.686290 0.101827
0.607276 0.685429 0.100679
0.716411 0.684594 0.099565
0.822906 0.683778 0.098478
0.927228 0.682980 0.097414
0.989939 0.682500 0.096774
0.112963 0.790701 0.102148
0.251043 0.789644 0.100738
0.374944 0.788695 0.099474
0.491956 0.787800 0.098279
0.604438 0.786939 0.097131
0.713573 0.786103 0.096018
0.820067 0.785288 0.094931
0.924390 0.784490 0.093866
0.987100 0.784010 0.093226
0.110183 0.890145 0.098672
0.248263 0.889088 0.097263
0.372164 0.888139 0.095998
0.489175 0.887243 0.094804
0.601658 0.886382 0.093656
0.710793 0.885547 0.092542
0.817287 0.884732 0.091455
0.921610 0.883933 0.090390
0.984320 0.883453 0.089750
0.107787 0.975839 0.095677
0.245867 0.974782 0.094268
0.369768 0.973833 0.093003
0.486779 0.972938 0.091809
0.599262 0.972077 0.090661
0.708397 0.971241 0.089547
0.814891 0.970426 0.088460
0.919214 0.969627 0.087395
0.981924 0.969147 0.086755
0.131437 0.116737 0.256266
0.269517 0.115680 0.254856
0.393419 0.114731 0.253592
0.510430 0.113835 0.252397
0.622912 0.112974 0.251249
0.732047 0.112139 0.250135
0.838542 0.111324 0.249048
0.942864 0.110525 0.247984
1.000000 0.110045 0.247344
0.127764 0.248101 0.251674
0.265844 0.247044 0.250265
0.389746 0.246096 0.249000
0.506757 0.245200 0.247806
0.619239 0.244339 0.246658
0.728374 0.243504 0.245544
0.834869 0.242688 0.244457
0.939191 0.241890 0.243393
1.000000 0.241410 0.242753
0.124464 0.366129 0.247549
0.262544 0.365073 0.246140
0.386446 0.364124 0.244875
0.503457 0.363228 0.243681
0.615939 0.362367 0.242533
0.725074 0.361532 0.241419
0.831569 0.360717 0.240332
0.935891 0.359918 0.239267
0.998602 0.359438 0.238627
0.121347 0.477631 0.243652
0.259427 0.476574 0.242243
0.383328 0.475625 0.240978
0.500339 0.474729 0.239784
0.612822 0.473868 0.238636
0.721957 0.473033 0.237522
0.828451 0.472218 0.236435
0.932774 0.471419 0.235371
0.995484 0.470939 0.234730
0.118349 0.584833 0.239906
0.256429 0.583776 0.238496
0.380331 0.582827 0.237232
0.497342 0.581931 0.236037
0.609824 0.581070 0.234889
0.718959 0.580235 0.233776
0.825454 0.579420 0.232689
0.929776 0.578621 0.231624
0.992487 0.578141 0.230984
0.115441 0.688853 0.236270
0.253521 0.687796 0.234861
0.377422 0.686848 0.233596
0.494433 0.685952 0.232402
0.606916 0.685091 0.231254
0.716051 0.684256 0.230140
0.822545 0.683441 0.229053
0.926868 0.682642 0.227988
0.989578 0.682162 0.227348
0.112603 0.790363 0.232722
0.250683 0.789306 0.231313
0.374584 0.788358 0.230048
0.491595 0.787462 0.228854
0.604078 0.786601 0.227706
0.713213 0.785765 0.226592
0.819707 0.784950 0.225505
0.924030 0.784152 0.224441
0.986740 0.783672 0.223801
0.109822 0.889807 0.229247
0.247902 0.888750 0.227838
0.371804 0.887801 0.226573
0.488815 0.886906 0.225379
0.601297 0.886045 0.224231
0.710432 0.885209 0.223117
0.816927 0.884394 0.222030
0.921249 0.883595 0.220965
0.983960 0.883115 0.220325
0.107426 0.975501 0.226252
0.245506 0.974444 0.224843
0.369408 0.973496 0.223578
0.486419 0.972600 0.222384
0.598901 0.971739 0.221236
0.708036 0.970903 0.220122
0.814531 0.970088 0.219035
0.918853 0.969290 0.217970
0.981564 0.968810 0.217330
0.131113 0.116433 0.373720
0.269193 0.115376 0.372311
0.393094 0.114427 0.371046
0.510106 0.113532 0.369852
0.622588 0.112671 0.368704
0.731723 0.111835 0.367590
0.838217 0.111020 0.366503
0.942540 0.110221 0.365438
1.000000 0.109741 0.364798
0.127440 0.247797 0.369129
0.265520 0.246740 0.367719
0.389421 0.245792 0.366455
0.506433 0.244896 0.365261
0.618915 0.244035 0.364112
0.728050 0.243200 0.362999
0.834544 0.242384 0.361912
0.938867 0.241586 0.360847
1.000000 0.241106 0.360207
0.124140 0.365826 0.365004
0.262220 0.364769 0.363594
0.386121 0.363820 0.362330
0.503133 0.362924 0.361135
0.615615 0.362063 0.359987
0.724750 0.361228 0.358874
0.831244 0.360413 0.357787
0.935567 0.359614 0.356722
0.998277 0.359134 0.356082
0.121023 0.477327 0.361107
0.259103 0.476270 0.359697
0.383004 0.475321 0.358433
0.500015 0.474426 0.357239
0.612498 0.473564 0.356090
0.721633 0.472729 0.354977
0.828127 0.471914 0.353890
0.932449 0.471115 0.352825
0.995160 0.470635 0.352185
0.118025 0.584529 0.357360
0.256105 0.583472 0.355951
0.380007 0.582523 0.354686
0.497018 0.581627 0.353492
0.609500 0.580766 0.352344
0.718635 0.579931 0.351230
0.825129 0.579116 0.350143
0.929452 0.578317 0.349078
0.992162 0.577837 0.348438
0.115117 0.688549 0.353724
0.253197 0.687492 0.352315
0.377098 0.686544 0.351051
0.494109 0.685648 0.349856
0.606592 0.684787 0.348708
0.715727 0.683952 0.347594
0.822221 0.683137 0.346507
0.926544 0.682338 0.345443
0.989254 0.681858 0.344803
0.112279 0.790059 0.350177
0.250359 0.789002 0.348767
0.374260 0.788054 0.347503
0.491271 0.787158 0.346309
0.603754 0.786297 0.345160
0.712889 0.785462 0.344047
0.819383 0.784646 0.342960
0.923705 0.783848 0.341895
0.986416 0.783368 0.341255
0.109498 0.889503 0.346701
0.247578 0.888446 0.345292
0.371479 0.887497 0.344027
0.488491 0.886602 0.342833
0.600973 0.885741 0.341685
0.710108 0.884905 0.340571
0.816602 0.884090 0.339484
0.920925 0.883291 0.338419
0.983635 0.882811 0.337779
0.107102 0.975197 0.343706
0.245182 0.974140 0.342297
0.369083 0.973192 0.341032
0.486095 0.972296 0.339838
0.598577 0.971435 0.338690
0.707712 0.970599 0.337576
0.814206 0.969784 0.336489
0.918529 0.968986 0.335424
0.981239 0.968506 0.334784
0.130807 0.116145 0.484711
0.268887 0.115089 0.483302
0.392788 0.114140 0.482037
0.509799 0.113244 0.480843
0.622282 0.112383 0.479695
0.731417 0.111548 0.478581
0.837911 0.110733 0.477494
0.942234 0.109934 0.476429
1.000000 0.109454 0.475789
0.127134 0.247510 0.480120
0.265214 0.246453 0.478711
0.389115 0.245505 0.477446
0.506126 0.244609 0.476252
0.618609 0.243748 0.475104
0.727744 0.242912 0.473990
0.834238 0.242097 0.472903
0.938561 0.241299 0.471838
1.000000 0.240819 0.471198
0.123834 0.365538 0.475995
0.261914 0.364481 0.474586
0.385815 0.363533 0.473321
0.502826 0.362637 0.472127
0.615309 0.361776 0.470979
0.724444 0.360941 0.469865
0.830938 0.360126 0.468778
0.935261 0.359327 0.467713
0.997971 0.358847 0.467073
0.120716 0.477039 0.472098
0.258796 0.475982 0.470689
0.382698 0.475034 0.469424
0.499709 0.474138 0.468230
0.612191 0.473277 0.467082
0.721326 0.472442 0.465968
0.827821 0.471627 0.464881
0.932143 0.470828 0.463816
0.994853 0.470348 0.463176
0.117719 0.584241 0.468351
0.255799 0.583184 0.466942
0.379700 0.582236 0.465677
0.496711 0.581340 0.464483
0.609194 0.580479 0.463335
0.718329 0.579644 0.462221
0.824823 0.578829 0.461134
0.929146 0.578030 0.460070
0.991856 0.577550 0.459429
0.114811 0.688262 0.464716
0.252890 0.687205 0.463306
0.376792 0.686257 0.462042
0.493803 0.685361 0.460848
0.606285 0.684500 0.459700
0.715420 0.683665 0.458586
0.821915 0.682849 0.457499
0.926237 0.682051 0.456434
0.988948 0.681571 0.455794
0.111972 0.789772 0.461168
0.250052 0.788715 0.459759
0.373954 0.787767 0.458494
0.490965 0.786871 0.457300
0.603447 0.786010 0.456152
0.712582 0.785174 0.455038
0.819077 0.784359 0.453951
0.923399 0.783561 0.452886
0.986109 0.783081 0.452246
0.109192 0.889216 0.457693
0.247272 0.888159 0.456283
0.371173 0.887210 0.455019
0.488184 0.886315 0.453824
0.600667 0.885453 0.452676
0.709802 0.884618 0.451562
0.816296 0.883803 0.450475
0.920619 0.883004 0.449411
0.983329 0.882524 0.448771
0.106796 0.974910 0.454698
0.244876 0.973853 0.453288
0.368777 0.972904 0.452024
0.485788 0.972009 0.450829
0.598271 0.971148 0.449681
0.707406 0.970312 0.448567
0.813900 0.969497 0.447480
0.918223 0.968699 0.446416
0.980933 0.968218 0.445776
0.130512 0.115869 0.591438
0.268592 0.114812 0.590028
0.392494 0.113864 0.588764
0.509505 0.112968 0.587570
0.621987 0.112107 0.586422
0.731122 0.111272 0.585308
0.837617 0.110457 0.584221
0.941939 0.109658 0.583156
1.000000 0.109178 0.582516
0.126839 0.247234 0.586847
0.264919 0.246177 0.585437
0.388821 0.245228 0.584173
0.505832 0.244333 0.582978
0.618314 0.243472 0.581830
0.727449 0.242636 0.580717
0.833944 0.241821 0.579630
0.938266 0.241023 0.578565
1.000000 0.240542 0.577925
0.123539 0.365262 0.582722
0.261619 0.364205 0.581312
0.385521 0.363257 0.580048
0.502532 0.362361 0.578853
0.615014 0.361500 0.577705
0.724149 0.360665 0.576591
0.830644 0.359849 0.575504
0.934966 0.359051 0.574440
0.997676 0.358571 0.573800
0.120422 0.476763 0.578825
0.258502 0.475706 0.577415
0.382403 0.474758 0.576151
0.499414 0.473862 0.574956
0.611897 0.473001 0.573808
0.721032 0.472166 0.572694
0.827526 0.471351 0.571608
0.931848 0.470552 0.570543
0.994559 0.470072 0.569903
0.117424 0.583965 0.575078
0.255504 0.582908 0.573669
0.379406 0.581960 0.572404
0.496417 0.581064 0.571210
0.608899 0.580203 0.570062
0.718034 0.579368 0.568948
0.824529 0.578552 0.567861
0.928851 0.577754 0.566796
0.991562 0.577274 0.566156
0.114516 0.687986 0.571442
0.252596 0.686929 0.570033
0.376497 0.685981 0.568768
0.493508 0.685085 0.567574
0.605991 0.684224 0.566426
0.715126 0.683388 0.565312
0.821620 0.682573 0.564225
0.925943 0.681775 0.563161
0.988653 0.681295 0.562521
0.111678 0.789496 0.567895
0.249758 0.788439 0.566485
0.373659 0.787490 0.565221
0.490670 0.786595 0.564026
0.603153 0.785734 0.562878
0.712288 0.784898 0.561765
0.818782 0.784083 0.560678
0.923105 0.783284 0.559613
0.985815 0.782804 0.558973
0.108897 0.888939 0.564419
0.246977 0.887883 0.563010
0.370879 0.886934 0.561745
0.487890 0.886038 0.560551
0.600372 0.885177 0.559403
0.709507 0.884342 0.558289
0.816002 0.883527 0.557202
0.920324 0.882728 0.556137
0.983034 0.882248 0.555497
0.106501 0.974634 0.561424
0.244581 0.973577 0.560015
0.368483 0.972628 0.558750
0.485494 0.971733 0.557556
0.597976 0.970872 0.556408
0.707111 0.970036 0.555294
0.813606 0.969221 0.554207
0.917928 0.968422 0.553142
0.980638 0.967942 0.552502
0.130226 0.115601 0.695006
0.268306 0.114544 0.693596
0.392208 0.113596 0.692332
0.509219 0.112700 0.691137
0.621701 0.111839 0.689989
0.730836 0.111004 0.688876
0.837331 0.110189 0.687789
0.941653 0.109390 0.686724
1.000000 0.108910 0.686084
0.126553 0.246966 0.690414
0.264633 0.245909 0.689005
0.388535 0.244960 0.687741
0.505546 0.244065 0.686546
0.618028 0.243204 0.685398
0.727163 0.242368 0.684284
0.833658 0.241553 0.683197
0.937980 0.240755 0.682133
1.000000 0.240274 0.681493
0.123253 0.364994 0.686289
0.261333 0.363937 0.684880
0.385235 0.362989 0.683615
0.502246 0.362093 0.682421
0.614728 0.361232 0.681273
0.723863 0.360397 0.680159
0.830358 0.359581 0.679072
0.934680 0.358783 0.678008
0.997391 0.358303 0.677368
0.120136 0.476495 0.682392
0.258216 0.475438 0.680983
0.382117 0.474490 0.679719
0.499128 0.473594 0.678524
0.611611 0.472733 0.677376
0.720746 0.471898 0.676262
0.827240 0.471083 0.675175
0.931563 0.470284 0.674111
0.994273 0.469804 0.673471
0.117139 0.583697 0.678646
0.255219 0.582640 0.677236
0.379120 0.581692 0.675972
0.496131 0.580796 0.674778
0.608613 0.579935 0.673630
0.717748 0.579100 0.672516
0.824243 0.578285 0.671429
0.928565 0.577486 0.670364
0.991276 0.577006 0.669724
0.114230 0.687718 0.675010
0.252310 0.686661 0.673601
0.376211 0.685713 0.672336
0.493223 0.684817 0.671142
0.605705 0.683956 0.669994
0.714840 0.683121 0.668880
0.821334 0.682305 0.667793
0.925657 0.681507 0.666728
0.988367 0.681027 0.666088
0.111392 0.789228 0.671462
0.249472 0.788171 0.670053
0.373373 0.787222 0.668789
0.490384 0.786327 0.667594
0.602867 0.785466 0.666446
0.712002 0.784630 0.665332
0.818496 0.783815 0.664245
0.922819 0.783016 0.663181
0.985529 0.782536 0.662541
0.108611 0.888672 0.667987
0.246691 0.887615 0.666578
0.370593 0.886666 0.665313
0.487604 0.885770 0.664119
0.600086 0.884909 0.662971
0.709221 0.884074 0.661857
0.815716 0.883259 0.660770
0.920038 0.882460 0.659705
0.982749 0.881980 0.659065
0.106215 0.974366 0.664992
0.244295 0.973309 0.663583
0.368197 0.972360 0.662318
0.485208 0.971465 0.661124
0.597690 0.970604 0.659976
0.706825 0.969768 0.658862
0.813320 0.968953 0.657775
0.917642 0.968154 0.656710
0.980353 0.967674 0.656070
0.129947 0.115340 0.796079
0.268027 0.114283 0.794669
0.391929 0.113334 0.793405
0.508940 0.112439 0.792211
0.621422 0.111578 0.791063
0.730557 0.110742 0.789949
0.837052 0.109927 0.788862
0.941374 0.109128 0.787797
1.000000 0.108648 0.787157
0.126275 0.246704 0.791488
0.264355 0.245647 0.790078
0.388256 0.244699 0.788814
0.505267 0.243803 0.787619
0.617749 0.242942 0.786471
0.726884 0.242107 0.785357
0.833379 0.241292 0.784271
0.937701 0.240493 0.783206
1.000000 0.240013 0.782566
0.122974 0.364733 0.787362
0.261054 0.363676 0.785953
0.384956 0.362727 0.784689
0.501967 0.361832 0.783494
0.614449 0.360971 0.782346
0.723584 0.360135 0.781232
0.830079 0.359320 0.780145
0.934401 0.358521 0.779081
0.997112 0.358041 0.778441
0.119857 0.476234 0.783466
0.257937 0.475177 0.782056
0.381838 0.474228 0.780792
0.498849 0.473333 0.779597
0.611332 0.472472 0.778449
0.720467 0.471636 0.777335
0.826961 0.470821 0.776248
0.931284 0.470022 0.775184
0.993994 0.469542 0.774544
0.116860 0.583436 0.779719
0.254940 0.582379 0.778310
0.378841 0.581430 0.777045
0.495852 0.580535 0.775851
0.608334 0.579674 0.774703
0.717469 0.578838 0.773589
0.823964 0.578023 0.772502
0.928286 0.577224 0.771437
0.990997 0.576744 0.770797
0.113951 0.687457 0.776083
0.252031 0.686400 0.774674
0.375932 0.685451 0.773409
0.492944 0.684555 0.772215
0.605426 0.683694 0.771067
0.714561 0.682859 0.769953
0.821055 0.682044 0.768866
0.925378 0.681245 0.767802
0.988088 0.680765 0.767161
0.111113 0.788966 0.772536
0.249193 0.787909 0.771126
0.373094 0.786961 0.769862
0.490105 0.786065 0.768667
0.602588 0.785204 0.767519
0.711723 0.784369 0.766405
0.818217 0.783554 0.765319
0.922540 0.782755 0.764254
0.985250 0.782275 0.763614
0.108333 0.888410 0.769060
0.246412 0.887353 0.767651
0.370314 0.886405 0.766386
0.487325 0.885509 0.765192
0.599807 0.884648 0.764044
0.708942 0.883812 0.762930
0.815437 0.882997 0.761843
0.919759 0.882199 0.760778
0.982470 0.881719 0.760138
0.105937 0.974104 0.766065
0.244016 0.973047 0.764656
0.367918 0.972099 0.763391
0.484929 0.971203 0.762197
0.597411 0.970342 0.761049
0.706546 0.969507 0.759935
0.813041 0.968691 0.758848
0.917363 0.967893 0.757783
0.980074 0.967413 0.757143
0.129674 0.115084 0.895098
0.267754 0.114027 0.893689
0.391655 0.113078 0.892424
0.508667 0.112182 0.891230
0.621149 0.111321 0.890082
0.730284 0.110486 0.888968
0.836778 0.109671 0.887881
0.941101 0.108872 0.886817
1.000000 0.108392 0.886176
0.126001 0.246448 0.890507
0.264081 0.245391 0.889098
0.387982 0.244443 0.887833
0.504994 0.243547 0.886639
0.617476 0.242686 0.885491
0.726611 0.241851 0.884377
0.833105 0.241035 0.883290
0.937428 0.240237 0.882225
1.000000 0.239757 0.881585
0.122701 0.364477 0.886382
0.260781 0.363420 0.884973
0.384682 0.362471 0.883708
0.501694 0.361575 0.882514
0.614176 0.360714 0.881366
0.723311 0.359879 0.880252
0.829805 0.359064 0.879165
0.934128 0.358265 0.878100
0.996838 0.357785 0.877460
0.119584 0.475978 0.882485
0.257664 0.474921 0.881076
0.381565 0.473972 0.879811
0.498576 0.473076 0.878617
0.611059 0.472215 0.877469
0.720194 0.471380 0.876355
0.826688 0.470565 0.875268
0.931010 0.469766 0.874203
0.993721 0.469286 0.873563
0.116586 0.583180 0.878738
0.254666 0.582123 0.877329
0.378568 0.581174 0.876065
0.495579 0.580278 0.874870
0.608061 0.579417 0.873722
0.717196 0.578582 0.872608
0.823691 0.577767 0.871521
0.928013 0.576968 0.870457
0.990723 0.576488 0.869817
0.113678 0.687200 0.875103
0.251758 0.686143 0.873694
0.375659 0.685195 0.872429
0.492670 0.684299 0.871235
0.605153 0.683438 0.870087
0.714288 0.682603 0.868973
0.820782 0.681788 0.867886
0.925105 0.680989 0.866821
0.987815 0.680509 0.866181
0.110840 0.788710 0.871555
0.248920 0.787653 0.870146
0.372821 0.786705 0.868881
0.489832 0.785809 0.867687
0.602315 0.784948 0.866539
0.711450 0.784113 0.865425
0.817944 0.783297 0.864338
0.922266 0.782499 0.863273
0.984977 0.782019 0.862633
0.108059 0.888154 0.868080
0.246139 0.887097 0.866670
0.370040 0.886148 0.865406
0.487052 0.885253 0.864211
0.599534 0.884392 0.863063
0.708669 0.883556 0.861950
0.815163 0.882741 0.860863
0.919486 0.881942 0.859798
0.982196 0.881462 0.859158
0.105663 0.973848 0.865085
0.243743 0.972791 0.863675
0.367644 0.971843 0.862411
0.484656 0.970947 0.861216
0.597138 0.970086 0.860068
0.706273 0.969250 0.858955
0.812767 0.968435 0.857868
0.917090 0.967637 0.856803
0.979800 0.967157 0.856163
0.129406 0.114832 0.992378
0.267486 0.113775 0.990969
0.391387 0.112826 0.989704
0.508398 0.111931 0.988510
0.620881 0.111070 0.987362
0.730016 0.110234 0.986248
0.836510 0.109419 0.985161
0.940832 0.108621 0.984096
1.000000 0.108141 0.983456
0.125733 0.246196 0.987787
0.263813 0.245139 0.986378
0.387714 0.244191 0.985113
0.504725 0.243295 0.983919
0.617208 0.242434 0.982771
0.726343 0.241599 0.981657
0.832837 0.240784 0.980570
0.937160 0.239985 0.979505
0.999870 0.239505 0.978865
0.122433 0.364225 0.983662
0.260513 0.363168 0.982253
0.384414 0.362219 0.980988
0.501425 0.361324 0.979794
0.613908 0.360463 0.978646
0.723043 0.359627 0.977532
0.829537 0.358812 0.976445
0.933859 0.358013 0.975380
0.996570 0.357533 0.974740
0.119315 0.475726 0.979765
0.257395 0.474669 0.978356
0.381296 0.473720 0.977091
0.498308 0.472825 0.975897
0.610790 0.471964 0.974749
0.719925 0.471128 0.973635
0.826419 0.470313 0.972548
0.930742 0.469515 0.971483
0.993452 0.469035 0.970843
0.116318 0.582928 0.976018
0.254398 0.581871 0.974609
0.378299 0.580922 0.973344
0.495310 0.580027 0.972150
0.607793 0.579166 0.971002
0.716928 0.578330 0.969888
0.823422 0.577515 0.968801
0.927745 0.576716 0.967736
0.990455 0.576236 0.967096
0.113409 0.686949 0.972383
0.251489 0.685892 0.970973
0.375391 0.684943 0.969709
0.492402 0.684048 0.968515
0.604884 0.683186 0.967367
0.714019 0.682351 0.966253
0.820514 0.681536 0.965166
0.924836 0.680737 0.964101
0.987547 0.680257 0.963461
0.110571 0.788458 0.968835
0.248651 0.787401 0.967426
0.372552 0.786453 0.966161
0.489564 0.785557 0.964967
0.602046 0.784696 0.963819
0.711181 0.783861 0.962705
0.817675 0.783046 0.961618
0.921998 0.782247 0.960553
0.984708 0.781767 0.959913
0.107791 0.887902 0.965359
0.245871 0.886845 0.963950
0.369772 0.885897 0.962686
0.486783 0.885001 0.961491
0.599266 0.884140 0.960343
0.708401 0.883304 0.959229
0.814895 0.882489 0.958142
0.919218 0.881691 0.957078
0.981928 0.881211 0.956438
0.105395 0.973596 0.962364
0.243475 0.972539 0.960955
0.367376 0.971591 0.959691
0.484387 0.970695 0.958496
0.596870 0.969834 0.957348
0.706005 0.968999 0.956234
0.812499 0.968184 0.955147
0.916822 0.967385 0.954083
0.979532 0.966905 0.953443
