assets/luts/primelive_amb_jp_fresh.cube
TITLE "primelive JP Fresh"
LUT_3D_SIZE 5
DOMAIN_MIN 0.0 0.0 0.0
DOMAIN_MAX 1.0 1.0 1.0
0.066962 0.073729 0.076996
0.318581 0.075562 0.078638
0.542329 0.077191 0.080097
0.754603 0.078737 0.081481
0.955357 0.080200 0.082791
0.073803 0.330676 0.082543
0.325422 0.332508 0.084184
0.549170 0.334138 0.085643
0.761444 0.335684 0.087028
0.962198 0.337146 0.088337
0.079885 0.559135 0.087475
0.331504 0.560968 0.089116
0.555252 0.562598 0.090575
0.767526 0.564144 0.091960
0.968280 0.565606 0.093269
0.085655 0.775876 0.092153
0.337275 0.777709 0.093794
0.561022 0.779339 0.095254
0.773296 0.780885 0.096638
0.974050 0.782347 0.097948
0.091003 0.976745 0.096489
0.342622 0.978577 0.098130
0.566370 0.980207 0.099590
0.778644 0.981753 0.100974
0.979398 0.983215 0.102284
0.067662 0.074363 0.331787
0.319281 0.076196 0.333428
0.543029 0.077825 0.334887
0.755303 0.079371 0.336272
0.956057 0.080833 0.337581
0.074503 0.331310 0.337333
0.326122 0.333142 0.338974
0.549870 0.334772 0.340434
0.762144 0.336318 0.341818
0.962898 0.337780 0.343128
0.080585 0.559769 0.342265
0.332204 0.561602 0.343906
0.555952 0.563232 0.345365
0.768226 0.564778 0.346750
0.968980 0.566240 0.348059
0.086355 0.776510 0.346944
0.337975 0.778343 0.348585
0.561722 0.779973 0.350044
0.773997 0.781519 0.351429
0.974750 0.782981 0.352738
0.091703 0.977379 0.351280
0.343322 0.979211 0.352921
0.567070 0.980841 0.354380
0.779344 0.982387 0.355765
0.980098 0.983849 0.357074
0.068284 0.074926 0.558256
0.319904 0.076759 0.559897
0.543651 0.078389 0.561356
0.755925 0.079935 0.562741
0.956679 0.081397 0.564050
0.075125 0.331873 0.563802
0.326744 0.333706 0.565443
0.550492 0.335335 0.566903
0.762766 0.336881 0.568287
0.963520 0.338343 0.569597
0.081207 0.560333 0.568734
0.332827 0.562165 0.570375
0.556574 0.563795 0.571834
0.768849 0.565341 0.573219
0.969602 0.566803 0.574528
0.086978 0.777074 0.573412
0.338597 0.778906 0.575054
0.562345 0.780536 0.576513
0.774619 0.782082 0.577898
0.975373 0.783544 0.579207
0.092326 0.977942 0.577748
0.343945 0.979775 0.579390
0.567692 0.981404 0.580849
0.779967 0.982950 0.582234
0.980720 0.984412 0.583543
0.068875 0.075461 0.773097
0.320494 0.077294 0.774739
0.544242 0.078923 0.776198
0.756516 0.080469 0.777582
0.957270 0.081931 0.778892
0.075715 0.332408 0.778644
0.327335 0.334240 0.780285
0.551082 0.335870 0.781744
0.763357 0.337416 0.783129
0.964110 0.338878 0.784438
0.081798 0.560867 0.783576
0.333417 0.562700 0.785217
0.557165 0.564329 0.786676
0.769439 0.565876 0.788061
0.970193 0.567338 0.789370
0.087568 0.777608 0.788254
0.339187 0.779441 0.789895
0.562935 0.781070 0.791355
0.775209 0.782617 0.792739
0.975963 0.784079 0.794049
0.092916 0.978477 0.792590
0.344535 0.980309 0.794231
0.568283 0.981939 0.795691
0.780557 0.983485 0.797075
0.981311 0.984947 0.798385
0.069389 0.075927 0.960213
0.321008 0.077759 0.961854
0.544756 0.079389 0.963313
0.757030 0.080935 0.964698
0.957784 0.082397 0.966007
0.076230 0.332873 0.965759
0.327849 0.334706 0.967400
0.551597 0.336335 0.968860
0.763871 0.337881 0.970244
0.964625 0.339344 0.971554
0.082312 0.561333 0.970691
0.333931 0.563165 0.972332
0.557679 0.564795 0.973791
0.769953 0.566341 0.975176
0.970707 0.567803 0.976485
0.088082 0.778074 0.975370
0.339702 0.779906 0.977011
0.563449 0.781536 0.978470
0.775723 0.783082 0.979855
0.976477 0.784544 0.981164
0.093430 0.978942 0.979706
0.345049 0.980775 0.981347
0.568797 0.982404 0.982806
0.781071 0.983950 0.984191
0.981825 0.985413 0.985500
