assets/luts/primelive_bainen.cube
TITLE "primelive_bainen"
LUT_3D_SIZE 33
0.122800 0.122800 0.122800
0.154343 0.122344 0.122344
0.185886 0.121889 0.121889
0.217429 0.121433 0.121433
0.248973 0.120978 0.120978
0.280516 0.120522 0.120522
0.312059 0.120066 0.120066
0.343602 0.119611 0.119611
0.375145 0.119155 0.119155
0.406688 0.118700 0.118700
0.438231 0.118244 0.118244
0.469775 0.117788 0.117788
0.501318 0.117333 0.117333
0.532861 0.116877 0.116877
0.564404 0.116422 0.116422
0.595947 0.115966 0.115966
0.627490 0.115510 0.115510
0.659033 0.115055 0.115055
0.690577 0.114599 0.114599
0.722120 0.114144 0.114144
0.753663 0.113688 0.113688
0.785206 0.113232 0.113232
0.816749 0.112777 0.112777
0.848292 0.112321 0.112321
0.879836 0.111866 0.111866
0.911379 0.111410 0.111410
0.942922 0.110954 0.110954
0.974465 0.110499 0.110499
1.000000 0.110043 0.110043
1.000000 0.109588 0.109588
1.000000 0.109132 0.109132
1.000000 0.108676 0.108676
1.000000 0.108221 0.108221
0.121906 0.153904 0.121906
0.153449 0.153449 0.121450
0.184992 0.152993 0.120994
0.216535 0.152538 0.120539
0.248078 0.152082 0.120083
0.279621 0.151626 0.119628
0.311164 0.151171 0.119172
0.342708 0.150715 0.118716
0.374251 0.150260 0.118261
0.405794 0.149804 0.117805
0.437337 0.149348 0.117350
0.468880 0.148893 0.116894
0.500423 0.148437 0.116438
0.531967 0.147982 0.115983
0.563510 0.147526 0.115527
0.595053 0.147070 0.115072
0.626596 0.146615 0.114616
0.658139 0.146159 0.114160
0.689682 0.145703 0.113705
0.721225 0.145248 0.113249
0.752768 0.144792 0.112794
0.784312 0.144337 0.112338
0.815855 0.143881 0.111882
0.847398 0.143425 0.111427
0.878941 0.142970 0.110971
0.910484 0.142514 0.110516
0.942027 0.142059 0.110060
0.973571 0.141603 0.109604
1.000000 0.141147 0.109149
1.000000 0.140692 0.108693
1.000000 0.140236 0.108238
1.000000 0.139781 0.107782
1.000000 0.139325 0.107326
0.121011 0.185009 0.121011
0.152554 0.184553 0.120556
0.184097 0.184097 0.120100
0.215641 0.183642 0.119644
0.247184 0.183186 0.119189
0.278727 0.182731 0.118733
0.310270 0.182275 0.118278
0.341813 0.181819 0.117822
0.373356 0.181364 0.117366
0.404899 0.180908 0.116911
0.436443 0.180453 0.116455
0.467986 0.179997 0.115999
0.499529 0.179541 0.115544
0.531072 0.179086 0.115088
0.562615 0.178630 0.114633
0.594158 0.178175 0.114177
0.625702 0.177719 0.113721
0.657245 0.177263 0.113266
0.688788 0.176808 0.112810
0.720331 0.176352 0.112355
0.751874 0.175897 0.111899
0.783417 0.175441 0.111443
0.814960 0.174985 0.110988
0.846504 0.174530 0.110532
0.878047 0.174074 0.110077
0.909590 0.173619 0.109621
0.941133 0.173163 0.109165
0.972676 0.172707 0.108710
1.000000 0.172252 0.108254
1.000000 0.171796 0.107799
1.000000 0.171341 0.107343
1.000000 0.170885 0.106887
1.000000 0.170429 0.106432
0.120117 0.216113 0.120117
0.151660 0.215657 0.119661
0.183203 0.215202 0.119205
0.214746 0.214746 0.118750
0.246289 0.214291 0.118294
0.277832 0.213835 0.117839
0.309376 0.213379 0.117383
0.340919 0.212924 0.116927
0.372462 0.212468 0.116472
0.404005 0.212013 0.116016
0.435548 0.211557 0.115561
0.467091 0.211101 0.115105
0.498634 0.210646 0.114649
0.530178 0.210190 0.114194
0.561721 0.209735 0.113738
0.593264 0.209279 0.113283
0.624807 0.208823 0.112827
0.656350 0.208368 0.112371
0.687893 0.207912 0.111916
0.719437 0.207456 0.111460
0.750980 0.207001 0.111005
0.782523 0.206545 0.110549
0.814066 0.206090 0.110093
0.845609 0.205634 0.109638
0.877152 0.205178 0.109182
0.908695 0.204723 0.108727
0.940238 0.204267 0.108271
0.971782 0.203812 0.107815
1.000000 0.203356 0.107360
1.000000 0.202900 0.106904
1.000000 0.202445 0.106449
1.000000 0.201989 0.105993
1.000000 0.201534 0.105537
0.119222 0.247217 0.119222
0.150765 0.246762 0.118767
0.182309 0.246306 0.118311
0.213852 0.245850 0.117855
0.245395 0.245395 0.117400
0.276938 0.244939 0.116944
0.308481 0.244484 0.116489
0.340024 0.244028 0.116033
0.371567 0.243572 0.115577
0.403111 0.243117 0.115122
0.434654 0.242661 0.114666
0.466197 0.242206 0.114211
0.497740 0.241750 0.113755
0.529283 0.241294 0.113299
0.560826 0.240839 0.112844
0.592369 0.240383 0.112388
0.623913 0.239928 0.111933
0.655456 0.239472 0.111477
0.686999 0.239016 0.111021
0.718542 0.238561 0.110566
0.750085 0.238105 0.110110
0.781628 0.237650 0.109655
0.813172 0.237194 0.109199
0.844715 0.236738 0.108743
0.876258 0.236283 0.108288
0.907801 0.235827 0.107832
0.939344 0.235372 0.107377
0.970887 0.234916 0.106921
1.000000 0.234460 0.106465
1.000000 0.234005 0.106010
1.000000 0.233549 0.105554
1.000000 0.233094 0.105099
1.000000 0.232638 0.104643
0.118328 0.278322 0.118328
0.149871 0.277866 0.117872
0.181414 0.277410 0.117417
0.212957 0.276955 0.116961
0.244500 0.276499 0.116505
0.276044 0.276044 0.116050
0.307587 0.275588 0.115594
0.339130 0.275132 0.115139
0.370673 0.274677 0.114683
0.402216 0.274221 0.114227
0.433759 0.273766 0.113772
0.465302 0.273310 0.113316
0.496846 0.272854 0.112861
0.528389 0.272399 0.112405
0.559932 0.271943 0.111949
0.591475 0.271488 0.111494
0.623018 0.271032 0.111038
0.654561 0.270576 0.110583
0.686104 0.270121 0.110127
0.717648 0.269665 0.109671
0.749191 0.269210 0.109216
0.780734 0.268754 0.108760
0.812277 0.268298 0.108305
0.843820 0.267843 0.107849
0.875363 0.267387 0.107393
0.906906 0.266932 0.106938
0.938450 0.266476 0.106482
0.969993 0.266020 0.106027
1.000000 0.265565 0.105571
1.000000 0.265109 0.105115
1.000000 0.264654 0.104660
1.000000 0.264198 0.104204
1.000000 0.263742 0.103749
0.117433 0.309426 0.117433
0.148977 0.308970 0.116978
0.180520 0.308515 0.116522
0.212063 0.308059 0.116067
0.243606 0.307603 0.115611
0.275149 0.307148 0.115155
0.306692 0.306692 0.114700
0.338235 0.306237 0.114244
0.369779 0.305781 0.113789
0.401322 0.305325 0.113333
0.432865 0.304870 0.112877
0.464408 0.304414 0.112422
0.495951 0.303959 0.111966
0.527494 0.303503 0.111511
0.559037 0.303047 0.111055
0.590581 0.302592 0.110599
0.622124 0.302136 0.110144
0.653667 0.301681 0.109688
0.685210 0.301225 0.109233
0.716753 0.300769 0.108777
0.748296 0.300314 0.108321
0.779839 0.299858 0.107866
0.811383 0.299403 0.107410
0.842926 0.298947 0.106955
0.874469 0.298491 0.106499
0.906012 0.298036 0.106043
0.937555 0.297580 0.105588
0.969098 0.297125 0.105132
1.000000 0.296669 0.104677
1.000000 0.296213 0.104221
1.000000 0.295758 0.103765
1.000000 0.295302 0.103310
1.000000 0.294847 0.102854
0.116539 0.340530 0.116539
0.148082 0.340075 0.116083
0.179625 0.339619 0.115628
0.211168 0.339163 0.115172
0.242711 0.338708 0.114716
0.274255 0.338252 0.114261
0.305798 0.337797 0.113805
0.337341 0.337341 0.113350
0.368884 0.336885 0.112894
0.400427 0.336430 0.112438
0.431970 0.335974 0.111983
0.463514 0.335519 0.111527
0.495057 0.335063 0.111072
0.526600 0.334607 0.110616
0.558143 0.334152 0.110160
0.589686 0.333696 0.109705
0.621229 0.333240 0.109249
0.652772 0.332785 0.108794
0.684316 0.332329 0.108338
0.715859 0.331874 0.107882
0.747402 0.331418 0.107427
0.778945 0.330962 0.106971
0.810488 0.330507 0.106516
0.842031 0.330051 0.106060
0.873574 0.329596 0.105604
0.905118 0.329140 0.105149
0.936661 0.328684 0.104693
0.968204 0.328229 0.104238
0.999747 0.327773 0.103782
1.000000 0.327318 0.103326
1.000000 0.326862 0.102871
1.000000 0.326406 0.102415
1.000000 0.325951 0.101960
0.115644 0.371634 0.115644
0.147188 0.371179 0.115189
0.178731 0.370723 0.114733
0.210274 0.370268 0.114278
0.241817 0.369812 0.113822
0.273360 0.369356 0.113366
0.304903 0.368901 0.112911
0.336446 0.368445 0.112455
0.367990 0.367990 0.112000
0.399533 0.367534 0.111544
0.431076 0.367078 0.111088
0.462619 0.366623 0.110633
0.494162 0.366167 0.110177
0.525705 0.365712 0.109722
0.557249 0.365256 0.109266
0.588792 0.364800 0.108810
0.620335 0.364345 0.108355
0.651878 0.363889 0.107899
0.683421 0.363434 0.107444
0.714964 0.362978 0.106988
0.746507 0.362522 0.106532
0.778051 0.362067 0.106077
0.809594 0.361611 0.105621
0.841137 0.361156 0.105166
0.872680 0.360700 0.104710
0.904223 0.360244 0.104254
0.935766 0.359789 0.103799
0.967309 0.359333 0.103343
0.998853 0.358878 0.102888
1.000000 0.358422 0.102432
1.000000 0.357966 0.101976
1.000000 0.357511 0.101521
1.000000 0.357055 0.101065
0.114750 0.402739 0.114750
0.146293 0.402283 0.114294
0.177836 0.401828 0.113839
0.209379 0.401372 0.113383
0.240923 0.400916 0.112928
0.272466 0.400461 0.112472
0.304009 0.400005 0.112016
0.335552 0.399550 0.111561
0.367095 0.399094 0.111105
0.398638 0.398638 0.110650
0.430182 0.398183 0.110194
0.461725 0.397727 0.109738
0.493268 0.397272 0.109283
0.524811 0.396816 0.108827
0.556354 0.396360 0.108372
0.587897 0.395905 0.107916
0.619440 0.395449 0.107460
0.650983 0.394994 0.107005
0.682527 0.394538 0.106549
0.714070 0.394082 0.106094
0.745613 0.393627 0.105638
0.777156 0.393171 0.105182
0.808699 0.392716 0.104727
0.840242 0.392260 0.104271
0.871786 0.391804 0.103816
0.903329 0.391349 0.103360
0.934872 0.390893 0.102904
0.966415 0.390438 0.102449
0.997958 0.389982 0.101993
1.000000 0.389526 0.101538
1.000000 0.389071 0.101082
1.000000 0.388615 0.100626
1.000000 0.388160 0.100171
0.113856 0.433843 0.113856
0.145399 0.433387 0.113400
0.176942 0.432932 0.112944
0.208485 0.432476 0.112489
0.240028 0.432021 0.112033
0.271571 0.431565 0.111578
0.303114 0.431109 0.111122
0.334658 0.430654 0.110666
0.366201 0.430198 0.110211
0.397744 0.429743 0.109755
0.429287 0.429287 0.109300
0.460830 0.428831 0.108844
0.492373 0.428376 0.108388
0.523917 0.427920 0.107933
0.555460 0.427465 0.107477
0.587003 0.427009 0.107022
0.618546 0.426553 0.106566
0.650089 0.426098 0.106110
0.681632 0.425642 0.105655
0.713175 0.425187 0.105199
0.744718 0.424731 0.104744
0.776262 0.424275 0.104288
0.807805 0.423820 0.103832
0.839348 0.423364 0.103377
0.870891 0.422909 0.102921
0.902434 0.422453 0.102466
0.933977 0.421997 0.102010
0.965521 0.421542 0.101554
0.997064 0.421086 0.101099
1.000000 0.420631 0.100643
1.000000 0.420175 0.100188
1.000000 0.419719 0.099732
1.000000 0.419264 0.099276
0.112961 0.464947 0.112961
0.144504 0.464492 0.112506
0.176047 0.464036 0.112050
0.207591 0.463581 0.111594
0.239134 0.463125 0.111139
0.270677 0.462669 0.110683
0.302220 0.462214 0.110228
0.333763 0.461758 0.109772
0.365306 0.461303 0.109316
0.396849 0.460847 0.108861
0.428393 0.460391 0.108405
0.459936 0.459936 0.107950
0.491479 0.459480 0.107494
0.523022 0.459025 0.107038
0.554565 0.458569 0.106583
0.586108 0.458113 0.106127
0.617652 0.457658 0.105672
0.649195 0.457202 0.105216
0.680738 0.456747 0.104760
0.712281 0.456291 0.104305
0.743824 0.455835 0.103849
0.775367 0.455380 0.103394
0.806910 0.454924 0.102938
0.838454 0.454469 0.102482
0.869997 0.454013 0.102027
0.901540 0.453557 0.101571
0.933083 0.453102 0.101116
0.964626 0.452646 0.100660
0.996169 0.452191 0.100204
1.000000 0.451735 0.099749
1.000000 0.451279 0.099293
1.000000 0.450824 0.098838
1.000000 0.450368 0.098382
0.112067 0.496052 0.112067
0.143610 0.495596 0.111611
0.175153 0.495140 0.111155
0.206696 0.494685 0.110700
0.238239 0.494229 0.110244
0.269782 0.493774 0.109789
0.301326 0.493318 0.109333
0.332869 0.492862 0.108877
0.364412 0.492407 0.108422
0.395955 0.491951 0.107966
0.427498 0.491496 0.107511
0.459041 0.491040 0.107055
0.490584 0.490584 0.106599
0.522128 0.490129 0.106144
0.553671 0.489673 0.105688
0.585214 0.489218 0.105233
0.616757 0.488762 0.104777
0.648300 0.488306 0.104321
0.679843 0.487851 0.103866
0.711387 0.487395 0.103410
0.742930 0.486940 0.102955
0.774473 0.486484 0.102499
0.806016 0.486028 0.102043
0.837559 0.485573 0.101588
0.869102 0.485117 0.101132
0.900645 0.484662 0.100677
0.932188 0.484206 0.100221
0.963732 0.483750 0.099765
0.995275 0.483295 0.099310
1.000000 0.482839 0.098854
1.000000 0.482384 0.098399
1.000000 0.481928 0.097943
1.000000 0.481472 0.097487
0.111172 0.527156 0.111172
0.142715 0.526700 0.110717
0.174259 0.526245 0.110261
0.205802 0.525789 0.109805
0.237345 0.525334 0.109350
0.268888 0.524878 0.108894
0.300431 0.524422 0.108439
0.331974 0.523967 0.107983
0.363517 0.523511 0.107527
0.395061 0.523056 0.107072
0.426604 0.522600 0.106616
0.458147 0.522144 0.106161
0.489690 0.521689 0.105705
0.521233 0.521233 0.105249
0.552776 0.520778 0.104794
0.584319 0.520322 0.104338
0.615863 0.519866 0.103883
0.647406 0.519411 0.103427
0.678949 0.518955 0.102971
0.710492 0.518500 0.102516
0.742035 0.518044 0.102060
0.773578 0.517588 0.101605
0.805122 0.517133 0.101149
0.836665 0.516677 0.100693
0.868208 0.516222 0.100238
0.899751 0.515766 0.099782
0.931294 0.515310 0.099327
0.962837 0.514855 0.098871
0.994380 0.514399 0.098415
1.000000 0.513944 0.097960
1.000000 0.513488 0.097504
1.000000 0.513032 0.097049
1.000000 0.512577 0.096593
0.110278 0.558260 0.110278
0.141821 0.557805 0.109822
0.173364 0.557349 0.109367
0.204907 0.556893 0.108911
0.236450 0.556438 0.108455
0.267994 0.555982 0.108000
0.299537 0.555527 0.107544
0.331080 0.555071 0.107089
0.362623 0.554615 0.106633
0.394166 0.554160 0.106177
0.425709 0.553704 0.105722
0.457252 0.553249 0.105266
0.488796 0.552793 0.104811
0.520339 0.552337 0.104355
0.551882 0.551882 0.103899
0.583425 0.551426 0.103444
0.614968 0.550971 0.102988
0.646511 0.550515 0.102533
0.678055 0.550059 0.102077
0.709598 0.549604 0.101621
0.741141 0.549148 0.101166
0.772684 0.548693 0.100710
0.804227 0.548237 0.100255
0.835770 0.547781 0.099799
0.867313 0.547326 0.099343
0.898856 0.546870 0.098888
0.930400 0.546415 0.098432
0.961943 0.545959 0.097977
0.993486 0.545503 0.097521
1.000000 0.545048 0.097065
1.000000 0.544592 0.096610
1.000000 0.544137 0.096154
1.000000 0.543681 0.095699
0.109383 0.589365 0.109383
0.140927 0.588909 0.108928
0.172470 0.588453 0.108472
0.204013 0.587998 0.108017
0.235556 0.587542 0.107561
0.267099 0.587087 0.107105
0.298642 0.586631 0.106650
0.330185 0.586175 0.106194
0.361729 0.585720 0.105739
0.393272 0.585264 0.105283
0.424815 0.584809 0.104827
0.456358 0.584353 0.104372
0.487901 0.583897 0.103916
0.519444 0.583442 0.103461
0.550987 0.582986 0.103005
0.582531 0.582531 0.102549
0.614074 0.582075 0.102094
0.645617 0.581619 0.101638
0.677160 0.581164 0.101183
0.708703 0.580708 0.100727
0.740246 0.580253 0.100271
0.771789 0.579797 0.099816
0.803333 0.579341 0.099360
0.834876 0.578886 0.098905
0.866419 0.578430 0.098449
0.897962 0.577975 0.097993
0.929505 0.577519 0.097538
0.961048 0.577063 0.097082
0.992592 0.576608 0.096627
1.000000 0.576152 0.096171
1.000000 0.575697 0.095715
1.000000 0.575241 0.095260
1.000000 0.574785 0.094804
0.108489 0.620469 0.108489
0.140032 0.620013 0.108033
0.171575 0.619558 0.107578
0.203118 0.619102 0.107122
0.234662 0.618647 0.106667
0.266205 0.618191 0.106211
0.297748 0.617735 0.105755
0.329291 0.617280 0.105300
0.360834 0.616824 0.104844
0.392377 0.616369 0.104389
0.423920 0.615913 0.103933
0.455464 0.615457 0.103477
0.487007 0.615002 0.103022
0.518550 0.614546 0.102566
0.550093 0.614091 0.102111
0.581636 0.613635 0.101655
0.613179 0.613179 0.101199
0.644722 0.612724 0.100744
0.676266 0.612268 0.100288
0.707809 0.611813 0.099833
0.739352 0.611357 0.099377
0.770895 0.610901 0.098921
0.802438 0.610446 0.098466
0.833981 0.609990 0.098010
0.865525 0.609535 0.097555
0.897068 0.609079 0.097099
0.928611 0.608623 0.096643
0.960154 0.608168 0.096188
0.991697 0.607712 0.095732
1.000000 0.607257 0.095276
1.000000 0.606801 0.094821
1.000000 0.606345 0.094365
1.000000 0.605890 0.093910
0.107594 0.651573 0.107594
0.139138 0.651118 0.107139
0.170681 0.650662 0.106683
0.202224 0.650206 0.106228
0.233767 0.649751 0.105772
0.265310 0.649295 0.105316
0.296853 0.648840 0.104861
0.328396 0.648384 0.104405
0.359940 0.647928 0.103950
0.391483 0.647473 0.103494
0.423026 0.647017 0.103038
0.454569 0.646562 0.102583
0.486112 0.646106 0.102127
0.517655 0.645650 0.101672
0.549199 0.645195 0.101216
0.580742 0.644739 0.100760
0.612285 0.644284 0.100305
0.643828 0.643828 0.099849
0.675371 0.643372 0.099394
0.706914 0.642917 0.098938
0.738457 0.642461 0.098482
0.770001 0.642006 0.098027
0.801544 0.641550 0.097571
0.833087 0.641094 0.097116
0.864630 0.640639 0.096660
0.896173 0.640183 0.096204
0.927716 0.639728 0.095749
0.959260 0.639272 0.095293
0.990803 0.638816 0.094838
1.000000 0.638361 0.094382
1.000000 0.637905 0.093926
1.000000 0.637450 0.093471
1.000000 0.636994 0.093015
0.106700 0.682678 0.106700
0.138243 0.682222 0.106244
0.169786 0.681766 0.105789
0.201329 0.681311 0.105333
0.232873 0.680855 0.104878
0.264416 0.680400 0.104422
0.295959 0.679944 0.103966
0.327502 0.679488 0.103511
0.359045 0.679033 0.103055
0.390588 0.678577 0.102600
0.422132 0.678122 0.102144
0.453675 0.677666 0.101688
0.485218 0.677210 0.101233
0.516761 0.676755 0.100777
0.548304 0.676299 0.100322
0.579847 0.675844 0.099866
0.611390 0.675388 0.099410
0.642934 0.674932 0.098955
0.674477 0.674477 0.098499
0.706020 0.674021 0.098044
0.737563 0.673566 0.097588
0.769106 0.673110 0.097132
0.800649 0.672654 0.096677
0.832192 0.672199 0.096221
0.863736 0.671743 0.095766
0.895279 0.671288 0.095310
0.926822 0.670832 0.094854
0.958365 0.670376 0.094399
0.989908 0.669921 0.093943
1.000000 0.669465 0.093488
1.000000 0.669010 0.093032
1.000000 0.668554 0.092576
1.000000 0.668098 0.092121
0.105806 0.713782 0.105806
0.137349 0.713326 0.105350
0.168892 0.712871 0.104894
0.200435 0.712415 0.104439
0.231978 0.711959 0.103983
0.263521 0.711504 0.103528
0.295065 0.711048 0.103072
0.326608 0.710593 0.102616
0.358151 0.710137 0.102161
0.389694 0.709681 0.101705
0.421237 0.709226 0.101250
0.452780 0.708770 0.100794
0.484323 0.708315 0.100338
0.515867 0.707859 0.099883
0.547410 0.707403 0.099427
0.578953 0.706948 0.098972
0.610496 0.706492 0.098516
0.642039 0.706037 0.098060
0.673582 0.705581 0.097605
0.705125 0.705125 0.097149
0.736669 0.704670 0.096694
0.768212 0.704214 0.096238
0.799755 0.703759 0.095782
0.831298 0.703303 0.095327
0.862841 0.702847 0.094871
0.894384 0.702392 0.094416
0.925927 0.701936 0.093960
0.957471 0.701481 0.093504
0.989014 0.701025 0.093049
1.000000 0.700569 0.092593
1.000000 0.700114 0.092138
1.000000 0.699658 0.091682
1.000000 0.699203 0.091226
0.104911 0.744886 0.104911
0.136454 0.744430 0.104456
0.167997 0.743975 0.104000
0.199541 0.743519 0.103544
0.231084 0.743064 0.103089
0.262627 0.742608 0.102633
0.294170 0.742152 0.102178
0.325713 0.741697 0.101722
0.357256 0.741241 0.101266
0.388799 0.740786 0.100811
0.420343 0.740330 0.100355
0.451886 0.739874 0.099900
0.483429 0.739419 0.099444
0.514972 0.738963 0.098988
0.546515 0.738508 0.098533
0.578058 0.738052 0.098077
0.609602 0.737596 0.097622
0.641145 0.737141 0.097166
0.672688 0.736685 0.096710
0.704231 0.736230 0.096255
0.735774 0.735774 0.095799
0.767317 0.735318 0.095344
0.798860 0.734863 0.094888
0.830404 0.734407 0.094432
0.861947 0.733952 0.093977
0.893490 0.733496 0.093521
0.925033 0.733040 0.093066
0.956576 0.732585 0.092610
0.988119 0.732129 0.092154
1.000000 0.731674 0.091699
1.000000 0.731218 0.091243
1.000000 0.730762 0.090788
1.000000 0.730307 0.090332
0.104017 0.775990 0.104017
0.135560 0.775535 0.103561
0.167103 0.775079 0.103106
0.198646 0.774624 0.102650
0.230189 0.774168 0.102194
0.261732 0.773712 0.101739
0.293276 0.773257 0.101283
0.324819 0.772801 0.100828
0.356362 0.772346 0.100372
0.387905 0.771890 0.099916
0.419448 0.771434 0.099461
0.450991 0.770979 0.099005
0.482534 0.770523 0.098550
0.514078 0.770068 0.098094
0.545621 0.769612 0.097638
0.577164 0.769156 0.097183
0.608707 0.768701 0.096727
0.640250 0.768245 0.096272
0.671793 0.767790 0.095816
0.703337 0.767334 0.095360
0.734880 0.766878 0.094905
0.766423 0.766423 0.094449
0.797966 0.765967 0.093993
0.829509 0.765512 0.093538
0.861052 0.765056 0.093082
0.892595 0.764600 0.092627
0.924139 0.764145 0.092171
0.955682 0.763689 0.091715
0.987225 0.763234 0.091260
1.000000 0.762778 0.090804
1.000000 0.762322 0.090349
1.000000 0.761867 0.089893
1.000000 0.761411 0.089437
0.103122 0.807095 0.103122
0.134665 0.806639 0.102667
0.166209 0.806184 0.102211
0.197752 0.805728 0.101755
0.229295 0.805272 0.101300
0.260838 0.804817 0.100844
0.292381 0.804361 0.100389
0.323924 0.803906 0.099933
0.355467 0.803450 0.099477
0.387011 0.802994 0.099022
0.418554 0.802539 0.098566
0.450097 0.802083 0.098111
0.481640 0.801628 0.097655
0.513183 0.801172 0.097199
0.544726 0.800716 0.096744
0.576269 0.800261 0.096288
0.607813 0.799805 0.095833
0.639356 0.799350 0.095377
0.670899 0.798894 0.094921
0.702442 0.798438 0.094466
0.733985 0.797983 0.094010
0.765528 0.797527 0.093555
0.797072 0.797072 0.093099
0.828615 0.796616 0.092643
0.860158 0.796160 0.092188
0.891701 0.795705 0.091732
0.923244 0.795249 0.091277
0.954787 0.794794 0.090821
0.986330 0.794338 0.090365
1.000000 0.793882 0.089910
1.000000 0.793427 0.089454
1.000000 0.792971 0.088999
1.000000 0.792516 0.088543
0.102228 0.838199 0.102228
0.133771 0.837743 0.101772
0.165314 0.837288 0.101317
0.196857 0.836832 0.100861
0.228400 0.836377 0.100405
0.259944 0.835921 0.099950
0.291487 0.835465 0.099494
0.323030 0.835010 0.099039
0.354573 0.834554 0.098583
0.386116 0.834099 0.098127
0.417659 0.833643 0.097672
0.449202 0.833187 0.097216
0.480746 0.832732 0.096761
0.512289 0.832276 0.096305
0.543832 0.831821 0.095849
0.575375 0.831365 0.095394
0.606918 0.830909 0.094938
0.638461 0.830454 0.094483
0.670005 0.829998 0.094027
0.701548 0.829543 0.093571
0.733091 0.829087 0.093116
0.764634 0.828631 0.092660
0.796177 0.828176 0.092205
0.827720 0.827720 0.091749
0.859263 0.827265 0.091293
0.890806 0.826809 0.090838
0.922350 0.826353 0.090382
0.953893 0.825898 0.089927
0.985436 0.825442 0.089471
1.000000 0.824987 0.089015
1.000000 0.824531 0.088560
1.000000 0.824075 0.088104
1.000000 0.823620 0.087649
0.101333 0.869303 0.101333
0.132877 0.868848 0.100878
0.164420 0.868392 0.100422
0.195963 0.867937 0.099967
0.227506 0.867481 0.099511
0.259049 0.867025 0.099055
0.290592 0.866570 0.098600
0.322135 0.866114 0.098144
0.353679 0.865659 0.097689
0.385222 0.865203 0.097233
0.416765 0.864747 0.096777
0.448308 0.864292 0.096322
0.479851 0.863836 0.095866
0.511394 0.863381 0.095411
0.542937 0.862925 0.094955
0.574481 0.862469 0.094499
0.606024 0.862014 0.094044
0.637567 0.861558 0.093588
0.669110 0.861103 0.093133
0.700653 0.860647 0.092677
0.732196 0.860191 0.092221
0.763739 0.859736 0.091766
0.795283 0.859280 0.091310
0.826826 0.858825 0.090855
0.858369 0.858369 0.090399
0.889912 0.857913 0.089943
0.921455 0.857458 0.089488
0.952998 0.857002 0.089032
0.984542 0.856547 0.088577
1.000000 0.856091 0.088121
1.000000 0.855635 0.087665
1.000000 0.855180 0.087210
1.000000 0.854724 0.086754
0.100439 0.900408 0.100439
0.131982 0.899952 0.099983
0.163525 0.899496 0.099528
0.195068 0.899041 0.099072
0.226612 0.898585 0.098617
0.258155 0.898130 0.098161
0.289698 0.897674 0.097705
0.321241 0.897218 0.097250
0.352784 0.896763 0.096794
0.384327 0.896307 0.096339
0.415870 0.895852 0.095883
0.447414 0.895396 0.095427
0.478957 0.894940 0.094972
0.510500 0.894485 0.094516
0.542043 0.894029 0.094061
0.573586 0.893574 0.093605
0.605129 0.893118 0.093149
0.636672 0.892662 0.092694
0.668216 0.892207 0.092238
0.699759 0.891751 0.091783
0.731302 0.891296 0.091327
0.762845 0.890840 0.090871
0.794388 0.890384 0.090416
0.825931 0.889929 0.089960
0.857475 0.889473 0.089505
0.889018 0.889018 0.089049
0.920561 0.888562 0.088593
0.952104 0.888106 0.088138
0.983647 0.887651 0.087682
1.000000 0.887195 0.087227
1.000000 0.886740 0.086771
1.000000 0.886284 0.086315
1.000000 0.885828 0.085860
0.099545 0.931512 0.099545
0.131088 0.931056 0.099089
0.162631 0.930601 0.098633
0.194174 0.930145 0.098178
0.225717 0.929690 0.097722
0.257260 0.929234 0.097267
0.288803 0.928778 0.096811
0.320347 0.928323 0.096355
0.351890 0.927867 0.095900
0.383433 0.927412 0.095444
0.414976 0.926956 0.094989
0.446519 0.926500 0.094533
0.478062 0.926045 0.094077
0.509605 0.925589 0.093622
0.541149 0.925134 0.093166
0.572692 0.924678 0.092711
0.604235 0.924222 0.092255
0.635778 0.923767 0.091799
0.667321 0.923311 0.091344
0.698864 0.922856 0.090888
0.730407 0.922400 0.090432
0.761951 0.921944 0.089977
0.793494 0.921489 0.089521
0.825037 0.921033 0.089066
0.856580 0.920578 0.088610
0.888123 0.920122 0.088154
0.919666 0.919666 0.087699
0.951210 0.919211 0.087243
0.982753 0.918755 0.086788
