assets/luts/primelive_heibai.cube
TITLE "primelive_heibai"
LUT_3D_SIZE 9
0.016000 0.016000 0.016000
0.057112 0.057112 0.057112
0.098225 0.098225 0.098225
0.139338 0.139338 0.139338
0.180450 0.180450 0.180450
0.221563 0.221563 0.221563
0.262675 0.262675 0.262675
0.303788 0.303788 0.303788
0.344900 0.344900 0.344900
0.096712 0.096712 0.096712
0.137825 0.137825 0.137825
0.178937 0.178937 0.178937
0.220050 0.220050 0.220050
0.261162 0.261162 0.261162
0.302275 0.302275 0.302275
0.343388 0.343388 0.343388
0.384500 0.384500 0.384500
0.425612 0.425612 0.425612
0.177425 0.177425 0.177425
0.218538 0.218538 0.218538
0.259650 0.259650 0.259650
0.300763 0.300763 0.300763
0.341875 0.341875 0.341875
0.382988 0.382988 0.382988
0.424100 0.424100 0.424100
0.465213 0.465213 0.465213
0.506325 0.506325 0.506325
0.258137 0.258137 0.258137
0.299250 0.299250 0.299250
0.340363 0.340363 0.340363
0.381475 0.381475 0.381475
0.422587 0.422587 0.422587
0.463700 0.463700 0.463700
0.504813 0.504813 0.504813
0.545925 0.545925 0.545925
0.587037 0.587037 0.587037
0.338850 0.338850 0.338850
0.379962 0.379962 0.379962
0.421075 0.421075 0.421075
0.462187 0.462187 0.462187
0.503300 0.503300 0.503300
0.544413 0.544413 0.544413
0.585525 0.585525 0.585525
0.626637 0.626637 0.626637
0.667750 0.667750 0.667750
0.419563 0.419563 0.419563
0.460675 0.460675 0.460675
0.501788 0.501788 0.501788
0.542900 0.542900 0.542900
0.584013 0.584013 0.584013
0.625125 0.625125 0.625125
0.666238 0.666238 0.666238
0.707350 0.707350 0.707350
0.748463 0.748463 0.748463
0.500275 0.500275 0.500275
0.541388 0.541388 0.541388
0.582500 0.582500 0.582500
0.623613 0.623613 0.623613
0.664725 0.664725 0.664725
0.705838 0.705838 0.705838
0.746950 0.746950 0.746950
0.788063 0.788063 0.788063
0.829175 0.829175 0.829175
0.580988 0.580988 0.580988
0.622100 0.622100 0.622100
0.663213 0.663213 0.663213
0.704325 0.704325 0.704325
0.745438 0.745438 0.745438
0.786550 0.786550 0.786550
0.827663 0.827663 0.827663
0.868775 0.868775 0.868775
0.909887 0.909887 0.909887
0.661700 0.661700 0.661700
0.702812 0.702812 0.702812
0.743925 0.743925 0.743925
0.785037 0.785037 0.785037
0.826150 0.826150 0.826150
0.867262 0.867262 0.867262
0.908375 0.908375 0.908375
0.949487 0.949487 0.949487
0.990600 0.990600 0.990600
0.031675 0.031675 0.031675
0.072787 0.072787 0.072787
0.113900 0.113900 0.113900
0.155012 0.155012 0.155012
0.196125 0.196125 0.196125
0.237238 0.237238 0.237238
0.278350 0.278350 0.278350
0.319463 0.319463 0.319463
0.360575 0.360575 0.360575
0.112387 0.112387 0.112387
0.153500 0.153500 0.153500
0.194612 0.194612 0.194612
0.235725 0.235725 0.235725
0.276837 0.276837 0.276837
0.317950 0.317950 0.317950
0.359062 0.359062 0.359062
0.400175 0.400175 0.400175
0.441287 0.441287 0.441287
0.193100 0.193100 0.193100
0.234213 0.234213 0.234213
0.275325 0.275325 0.275325
0.316438 0.316438 0.316438
0.357550 0.357550 0.357550
0.398663 0.398663 0.398663
0.439775 0.439775 0.439775
0.480888 0.480888 0.480888
0.522000 0.522000 0.522000
0.273812 0.273812 0.273812
0.314925 0.314925 0.314925
0.356037 0.356037 0.356037
0.397150 0.397150 0.397150
0.438262 0.438262 0.438262
0.479375 0.479375 0.479375
0.520488 0.520488 0.520488
0.561600 0.561600 0.561600
0.602712 0.602712 0.602712
0.354525 0.354525 0.354525
0.395637 0.395637 0.395637
0.436750 0.436750 0.436750
0.477862 0.477862 0.477862
0.518975 0.518975 0.518975
0.560087 0.560087 0.560087
0.601200 0.601200 0.601200
0.642312 0.642312 0.642312
0.683425 0.683425 0.683425
0.435238 0.435238 0.435238
0.476350 0.476350 0.476350
0.517463 0.517463 0.517463
0.558575 0.558575 0.558575
0.599688 0.599688 0.599688
0.640800 0.640800 0.640800
0.681913 0.681913 0.681913
0.723025 0.723025 0.723025
0.764137 0.764137 0.764137
0.515950 0.515950 0.515950
0.557063 0.557063 0.557063
0.598175 0.598175 0.598175
0.639288 0.639288 0.639288
0.680400 0.680400 0.680400
0.721513 0.721513 0.721513
0.762625 0.762625 0.762625
0.803738 0.803738 0.803738
0.844850 0.844850 0.844850
0.596663 0.596663 0.596663
0.637775 0.637775 0.637775
0.678888 0.678888 0.678888
0.720000 0.720000 0.720000
0.761112 0.761112 0.761112
0.802225 0.802225 0.802225
0.843338 0.843338 0.843338
0.884450 0.884450 0.884450
0.925562 0.925562 0.925562
0.677375 0.677375 0.677375
0.718487 0.718487 0.718487
0.759600 0.759600 0.759600
0.800712 0.800712 0.800712
0.841825 0.841825 0.841825
0.882937 0.882937 0.882937
0.924050 0.924050 0.924050
0.965162 0.965162 0.965162
1.000000 1.000000 1.000000
0.047350 0.047350 0.047350
0.088462 0.088462 0.088462
0.129575 0.129575 0.129575
0.170688 0.170688 0.170688
0.211800 0.211800 0.211800
0.252913 0.252913 0.252913
0.294025 0.294025 0.294025
0.335138 0.335138 0.335138
0.376250 0.376250 0.376250
0.128062 0.128062 0.128062
0.169175 0.169175 0.169175
0.210287 0.210287 0.210287
0.251400 0.251400 0.251400
0.292512 0.292512 0.292512
0.333625 0.333625 0.333625
0.374738 0.374738 0.374738
0.415850 0.415850 0.415850
0.456962 0.456962 0.456962
0.208775 0.208775 0.208775
0.249888 0.249888 0.249888
0.291000 0.291000 0.291000
0.332113 0.332113 0.332113
0.373225 0.373225 0.373225
0.414338 0.414338 0.414338
0.455450 0.455450 0.455450
0.496563 0.496563 0.496563
0.537675 0.537675 0.537675
0.289487 0.289487 0.289487
0.330600 0.330600 0.330600
0.371713 0.371713 0.371713
0.412825 0.412825 0.412825
0.453937 0.453937 0.453937
0.495050 0.495050 0.495050
0.536163 0.536163 0.536163
0.577275 0.577275 0.577275
0.618387 0.618387 0.618387
0.370200 0.370200 0.370200
0.411312 0.411312 0.411312
0.452425 0.452425 0.452425
0.493537 0.493537 0.493537
0.534650 0.534650 0.534650
0.575763 0.575763 0.575763
0.616875 0.616875 0.616875
0.657987 0.657987 0.657987
0.699100 0.699100 0.699100
0.450913 0.450913 0.450913
0.492025 0.492025 0.492025
0.533138 0.533138 0.533138
0.574250 0.574250 0.574250
0.615363 0.615363 0.615363
0.656475 0.656475 0.656475
0.697588 0.697588 0.697588
0.738700 0.738700 0.738700
0.779813 0.779813 0.779813
0.531625 0.531625 0.531625
0.572738 0.572738 0.572738
0.613850 0.613850 0.613850
0.654963 0.654963 0.654963
0.696075 0.696075 0.696075
0.737188 0.737188 0.737188
0.778300 0.778300 0.778300
0.819413 0.819413 0.819413
0.860525 0.860525 0.860525
0.612338 0.612338 0.612338
0.653450 0.653450 0.653450
0.694563 0.694563 0.694563
0.735675 0.735675 0.735675
0.776788 0.776788 0.776788
0.817900 0.817900 0.817900
0.859013 0.859013 0.859013
0.900125 0.900125 0.900125
0.941237 0.941237 0.941237
0.693050 0.693050 0.693050
0.734162 0.734162 0.734162
0.775275 0.775275 0.775275
0.816387 0.816387 0.816387
0.857500 0.857500 0.857500
0.898612 0.898612 0.898612
0.939725 0.939725 0.939725
0.980837 0.980837 0.980837
1.000000 1.000000 1.000000
0.063025 0.063025 0.063025
0.104137 0.104137 0.104137
0.145250 0.145250 0.145250
0.186363 0.186363 0.186363
0.227475 0.227475 0.227475
0.268588 0.268588 0.268588
0.309700 0.309700 0.309700
0.350813 0.350813 0.350813
0.391925 0.391925 0.391925
0.143737 0.143737 0.143737
0.184850 0.184850 0.184850
0.225962 0.225962 0.225962
0.267075 0.267075 0.267075
0.308187 0.308187 0.308187
0.349300 0.349300 0.349300
0.390413 0.390413 0.390413
0.431525 0.431525 0.431525
0.472637 0.472637 0.472637
0.224450 0.224450 0.224450
0.265563 0.265563 0.265563
0.306675 0.306675 0.306675
0.347788 0.347788 0.347788
0.388900 0.388900 0.388900
0.430013 0.430013 0.430013
0.471125 0.471125 0.471125
0.512238 0.512238 0.512238
0.553350 0.553350 0.553350
0.305162 0.305162 0.305162
0.346275 0.346275 0.346275
0.387388 0.387388 0.387388
0.428500 0.428500 0.428500
0.469612 0.469612 0.469612
0.510725 0.510725 0.510725
0.551838 0.551838 0.551838
0.592950 0.592950 0.592950
0.634062 0.634062 0.634062
0.385875 0.385875 0.385875
0.426987 0.426987 0.426987
0.468100 0.468100 0.468100
0.509212 0.509212 0.509212
0.550325 0.550325 0.550325
0.591438 0.591438 0.591438
0.632550 0.632550 0.632550
0.673662 0.673662 0.673662
0.714775 0.714775 0.714775
0.466588 0.466588 0.466588
0.507700 0.507700 0.507700
0.548813 0.548813 0.548813
0.589925 0.589925 0.589925
0.631038 0.631038 0.631038
0.672150 0.672150 0.672150
0.713263 0.713263 0.713263
0.754375 0.754375 0.754375
0.795487 0.795487 0.795487
0.547300 0.547300 0.547300
0.588413 0.588413 0.588413
0.629525 0.629525 0.629525
0.670638 0.670638 0.670638
0.711750 0.711750 0.711750
0.752863 0.752863 0.752863
0.793975 0.793975 0.793975
0.835088 0.835088 0.835088
0.876200 0.876200 0.876200
0.628013 0.628013 0.628013
0.669125 0.669125 0.669125
0.710238 0.710238 0.710238
0.751350 0.751350 0.751350
0.792463 0.792463 0.792463
0.833575 0.833575 0.833575
0.874688 0.874688 0.874688
0.915800 0.915800 0.915800
0.956912 0.956912 0.956912
0.708725 0.708725 0.708725
0.749837 0.749837 0.749837
0.790950 0.790950 0.790950
0.832062 0.832062 0.832062
0.873175 0.873175 0.873175
0.914287 0.914287 0.914287
0.955400 0.955400 0.955400
0.996512 0.996512 0.996512
1.000000 1.000000 1.000000
0.078700 0.078700 0.078700
0.119812 0.119812 0.119812
0.160925 0.160925 0.160925
0.202037 0.202037 0.202037
0.243150 0.243150 0.243150
0.284263 0.284263 0.284263
0.325375 0.325375 0.325375
0.366488 0.366488 0.366488
0.407600 0.407600 0.407600
0.159412 0.159412 0.159412
0.200525 0.200525 0.200525
0.241637 0.241637 0.241637
0.282750 0.282750 0.282750
0.323862 0.323862 0.323862
0.364975 0.364975 0.364975
0.406087 0.406087 0.406087
0.447200 0.447200 0.447200
0.488312 0.488312 0.488312
0.240125 0.240125 0.240125
0.281238 0.281238 0.281238
0.322350 0.322350 0.322350
0.363463 0.363463 0.363463
0.404575 0.404575 0.404575
0.445688 0.445688 0.445688
0.486800 0.486800 0.486800
0.527913 0.527913 0.527913
0.569025 0.569025 0.569025
0.320837 0.320837 0.320837
0.361950 0.361950 0.361950
0.403062 0.403062 0.403062
0.444175 0.444175 0.444175
0.485287 0.485287 0.485287
0.526400 0.526400 0.526400
0.567513 0.567513 0.567513
0.608625 0.608625 0.608625
0.649737 0.649737 0.649737
0.401550 0.401550 0.401550
0.442662 0.442662 0.442662
0.483775 0.483775 0.483775
0.524887 0.524887 0.524887
0.566000 0.566000 0.566000
0.607112 0.607112 0.607112
0.648225 0.648225 0.648225
0.689337 0.689337 0.689337
0.730450 0.730450 0.730450
0.482263 0.482263 0.482263
0.523375 0.523375 0.523375
0.564488 0.564488 0.564488
0.605600 0.605600 0.605600
0.646713 0.646713 0.646713
0.687825 0.687825 0.687825
0.728938 0.728938 0.728938
0.770050 0.770050 0.770050
0.811162 0.811162 0.811162
0.562975 0.562975 0.562975
0.604088 0.604088 0.604088
0.645200 0.645200 0.645200
0.686313 0.686313 0.686313
0.727425 0.727425 0.727425
0.768538 0.768538 0.768538
0.809650 0.809650 0.809650
0.850763 0.850763 0.850763
0.891875 0.891875 0.891875
0.643688 0.643688 0.643688
0.684800 0.684800 0.684800
0.725913 0.725913 0.725913
0.767025 0.767025 0.767025
0.808137 0.808137 0.808137
0.849250 0.849250 0.849250
0.890363 0.890363 0.890363
0.931475 0.931475 0.931475
0.972587 0.972587 0.972587
0.724400 0.724400 0.724400
0.765512 0.765512 0.765512
0.806625 0.806625 0.806625
0.847737 0.847737 0.847737
0.888850 0.888850 0.888850
0.929962 0.929962 0.929962
0.971075 0.971075 0.971075
1.000000 1.000000 1.000000
1.000000 1.000000 1.000000
0.094375 0.094375 0.094375
0.135488 0.135488 0.135488
0.176600 0.176600 0.176600
0.217713 0.217713 0.217713
0.258825 0.258825 0.258825
0.299938 0.299938 0.299938
0.341050 0.341050 0.341050
0.382163 0.382163 0.382163
0.423275 0.423275 0.423275
0.175087 0.175087 0.175087
0.216200 0.216200 0.216200
0.257313 0.257313 0.257313
0.298425 0.298425 0.298425
0.339537 0.339537 0.339537
0.380650 0.380650 0.380650
0.421763 0.421763 0.421763
0.462875 0.462875 0.462875
0.503987 0.503987 0.503987
0.255800 0.255800 0.255800
0.296913 0.296913 0.296913
0.338025 0.338025 0.338025
0.379138 0.379138 0.379138
0.420250 0.420250 0.420250
0.461363 0.461363 0.461363
0.502475 0.502475 0.502475
0.543588 0.543588 0.543588
0.584700 0.584700 0.584700
0.336513 0.336513 0.336513
0.377625 0.377625 0.377625
0.418738 0.418738 0.418738
0.459850 0.459850 0.459850
0.500962 0.500962 0.500962
0.542075 0.542075 0.542075
0.583188 0.583188 0.583188
0.624300 0.624300 0.624300
0.665412 0.665412 0.665412
0.417225 0.417225 0.417225
0.458337 0.458337 0.458337
0.499450 0.499450 0.499450
0.540562 0.540562 0.540562
0.581675 0.581675 0.581675
0.622788 0.622788 0.622788
0.663900 0.663900 0.663900
0.705012 0.705012 0.705012
0.746125 0.746125 0.746125
0.497938 0.497938 0.497938
0.539050 0.539050 0.539050
0.580163 0.580163 0.580163
0.621275 0.621275 0.621275
0.662388 0.662388 0.662388
0.703500 0.703500 0.703500
0.744613 0.744613 0.744613
0.785725 0.785725 0.785725
0.826838 0.826838 0.826838
0.578650 0.578650 0.578650
0.619763 0.619763 0.619763
0.660875 0.660875 0.660875
0.701988 0.701988 0.701988
0.743100 0.743100 0.743100
0.784213 0.784213 0.784213
0.825325 0.825325 0.825325
0.866438 0.866438 0.866438
0.907550 0.907550 0.907550
0.659363 0.659363 0.659363
0.700475 0.700475 0.700475
0.741588 0.741588 0.741588
0.782700 0.782700 0.782700
0.823813 0.823813 0.823813
0.864925 0.864925 0.864925
0.906038 0.906038 0.906038
0.947150 0.947150 0.947150
0.988262 0.988262 0.988262
0.740075 0.740075 0.740075
0.781187 0.781187 0.781187
0.822300 0.822300 0.822300
0.863412 0.863412 0.863412
0.904525 0.904525 0.904525
0.945637 0.945637 0.945637
0.986750 0.986750 0.986750
1.000000 1.000000 1.000000
1.000000 1.000000 1.000000
0.110050 0.110050 0.110050
0.151163 0.151163 0.151163
0.192275 0.192275 0.192275
0.233388 0.233388 0.233388
0.274500 0.274500 0.274500
0.315613 0.315613 0.315613
0.356725 0.356725 0.356725
0.397838 0.397838 0.397838
0.438950 0.438950 0.438950
0.190762 0.190762 0.190762
0.231875 0.231875 0.231875
0.272987 0.272987 0.272987
0.314100 0.314100 0.314100
0.355212 0.355212 0.355212
0.396325 0.396325 0.396325
0.437438 0.437438 0.437438
0.478550 0.478550 0.478550
0.519662 0.519662 0.519662
0.271475 0.271475 0.271475
0.312588 0.312588 0.312588
0.353700 0.353700 0.353700
0.394813 0.394813 0.394813
0.435925 0.435925 0.435925
0.477038 0.477038 0.477038
0.518150 0.518150 0.518150
0.559263 0.559263 0.559263
0.600375 0.600375 0.600375
0.352188 0.352188 0.352188
0.393300 0.393300 0.393300
0.434413 0.434413 0.434413
0.475525 0.475525 0.475525
0.516637 0.516637 0.516637
0.557750 0.557750 0.557750
0.598863 0.598863 0.598863
0.639975 0.639975 0.639975
0.681087 0.681087 0.681087
0.432900 0.432900 0.432900
0.474012 0.474012 0.474012
0.515125 0.515125 0.515125
0.556237 0.556237 0.556237
0.597350 0.597350 0.597350
0.638463 0.638463 0.638463
0.679575 0.679575 0.679575
0.720687 0.720687 0.720687
0.761800 0.761800 0.761800
0.513613 0.513613 0.513613
0.554725 0.554725 0.554725
0.595838 0.595838 0.595838
0.636950 0.636950 0.636950
0.678063 0.678063 0.678063
0.719175 0.719175 0.719175
0.760288 0.760288 0.760288
0.801400 0.801400 0.801400
0.842513 0.842513 0.842513
0.594325 0.594325 0.594325
0.635438 0.635438 0.635438
0.676550 0.676550 0.676550
0.717663 0.717663 0.717663
0.758775 0.758775 0.758775
0.799888 0.799888 0.799888
0.841000 0.841000 0.841000
0.882113 0.882113 0.882113
0.923225 0.923225 0.923225
0.675038 0.675038 0.675038
0.716150 0.716150 0.716150
0.757263 0.757263 0.757263
0.798375 0.798375 0.798375
0.839488 0.839488 0.839488
0.880600 0.880600 0.880600
0.921713 0.921713 0.921713
0.962825 0.962825 0.962825
1.000000 1.000000 1.000000
0.755750 0.755750 0.755750
0.796862 0.796862 0.796862
0.837975 0.837975 0.837975
0.879087 0.879087 0.879087
0.920200 0.920200 0.920200
0.961312 0.961312 0.961312
1.000000 1.000000 1.000000
1.000000 1.000000 1.000000
1.000000 1.000000 1.000000
0.125725 0.125725 0.125725
0.166837 0.166837 0.166837
0.207950 0.207950 0.207950
0.249063 0.249063 0.249063
0.290175 0.290175 0.290175
0.331288 0.331288 0.331288
0.372400 0.372400 0.372400
0.413513 0.413513 0.413513
0.454625 0.454625 0.454625
0.206437 0.206437 0.206437
0.247550 0.247550 0.247550
0.288662 0.288662 0.288662
0.329775 0.329775 0.329775
0.370887 0.370887 0.370887
0.412000 0.412000 0.412000
0.453113 0.453113 0.453113
0.494225 0.494225 0.494225
0.535337 0.535337 0.535337
0.287150 0.287150 0.287150
0.328263 0.328263 0.328263
0.369375 0.369375 0.369375
0.410488 0.410488 0.410488
0.451600 0.451600 0.451600
0.492713 0.492713 0.492713
0.533825 0.533825 0.533825
0.574938 0.574938 0.574938
0.616050 0.616050 0.616050
0.367862 0.367862 0.367862
0.408975 0.408975 0.408975
0.450088 0.450088 0.450088
0.491200 0.491200 0.491200
0.532312 0.532312 0.532312
0.573425 0.573425 0.573425
0.614538 0.614538 0.614538
0.655650 0.655650 0.655650
0.696762 0.696762 0.696762
0.448575 0.448575 0.448575
0.489687 0.489687 0.489687
0.530800 0.530800 0.530800
0.571912 0.571912 0.571912
0.613025 0.613025 0.613025
0.654138 0.654138 0.654138
0.695250 0.695250 0.695250
0.736362 0.736362 0.736362
0.777475 0.777475 0.777475
0.529288 0.529288 0.529288
0.570400 0.570400 0.570400
0.611513 0.611513 0.611513
0.652625 0.652625 0.652625
0.693738 0.693738 0.693738
0.734850 0.734850 0.734850
0.775963 0.775963 0.775963
0.817075 0.817075 0.817075
0.858188 0.858188 0.858188
0.610000 0.610000 0.610000
0.651113 0.651113 0.651113
0.692225 0.692225 0.692225
0.733338 0.733338 0.733338
0.774450 0.774450 0.774450
0.815563 0.815563 0.815563
0.856675 0.856675 0.856675
0.897788 0.897788 0.897788
0.938900 0.938900 0.938900
0.690713 0.690713 0.690713
0.731825 0.731825 0.731825
0.772938 0.772938 0.772938
0.814050 0.814050 0.814050
0.855163 0.855163 0.855163
0.896275 0.896275 0.896275
0.937388 0.937388 0.937388
0.978500 0.978500 0.978500
1.000000 1.000000 1.000000
0.771425 0.771425 0.771425
0.812537 0.812537 0.812537
0.853650 0.853650 0.853650
0.894762 0.894762 0.894762
0.935875 0.935875 0.935875
0.976987 0.976987 0.976987
1.000000 1.000000 1.000000
1.000000 1.000000 1.000000
1.000000 1.000000 1.000000
0.141400 0.141400 0.141400
0.182512 0.182512 0.182512
0.223625 0.223625 0.223625
0.264737 0.264737 0.264737
0.305850 0.305850 0.305850
0.346963 0.346963 0.346963
0.388075 0.388075 0.388075
0.429187 0.429187 0.429187
0.470300 0.470300 0.470300
0.222112 0.222112 0.222112
0.263225 0.263225 0.263225
0.304337 0.304337 0.304337
0.345450 0.345450 0.345450
0.386562 0.386562 0.386562
0.427675 0.427675 0.427675
0.468787 0.468787 0.468787
0.509900 0.509900 0.509900
0.551012 0.551012 0.551012
0.302825 0.302825 0.302825
0.343937 0.343937 0.343937
0.385050 0.385050 0.385050
0.426162 0.426162 0.426162
0.467275 0.467275 0.467275
0.508388 0.508388 0.508388
0.549500 0.549500 0.549500
0.590613 0.590613 0.590613
0.631725 0.631725 0.631725
0.383537 0.383537 0.383537
0.424650 0.424650 0.424650
0.465762 0.465762 0.465762
0.506875 0.506875 0.506875
0.547987 0.547987 0.547987
0.589100 0.589100 0.589100
0.630212 0.630212 0.630212
0.671325 0.671325 0.671325
0.712437 0.712437 0.712437
0.464250 0.464250 0.464250
0.505362 0.505362 0.505362
0.546475 0.546475 0.546475
0.587587 0.587587 0.587587
0.628700 0.628700 0.628700
0.669812 0.669812 0.669812
0.710925 0.710925 0.710925
0.752037 0.752037 0.752037
0.793150 0.793150 0.793150
0.544963 0.544963 0.544963
0.586075 0.586075 0.586075
0.627188 0.627188 0.627188
0.668300 0.668300 0.668300
0.709413 0.709413 0.709413
0.750525 0.750525 0.750525
0.791638 0.791638 0.791638
0.832750 0.832750 0.832750
0.873862 0.873862 0.873862
0.625675 0.625675 0.625675
0.666788 0.666788 0.666788
0.707900 0.707900 0.707900
0.749013 0.749013 0.749013
0.790125 0.790125 0.790125
0.831238 0.831238 0.831238
0.872350 0.872350 0.872350
0.913463 0.913463 0.913463
0.954575 0.954575 0.954575
0.706387 0.706387 0.706387
0.747500 0.747500 0.747500
0.788613 0.788613 0.788613
0.829725 0.829725 0.829725
0.870837 0.870837 0.870837
0.911950 0.911950 0.911950
0.953063 0.953063 0.953063
0.994175 0.994175 0.994175
1.000000 1.000000 1.000000
0.787100 0.787100 0.787100
0.828212 0.828212 0.828212
0.869325 0.869325 0.869325
0.910437 0.910437 0.910437
0.951550 0.951550 0.951550
0.992662 0.992662 0.992662
1.000000 1.000000 1.000000
1.000000 1.000000 1.000000
1.000000 1.000000 1.000000
