assets/luts/primelive_dongjing.cube
TITLE "primelive_dongjing"
LUT_3D_SIZE 33
0.000000 0.017232 0.037691
0.030004 0.016840 0.037099
0.063236 0.016447 0.036506
0.096467 0.016054 0.035914
0.129698 0.015662 0.035321
0.162930 0.015269 0.034729
0.196161 0.014876 0.034136
0.229393 0.014484 0.033544
0.262624 0.014091 0.032951
0.295855 0.013698 0.032359
0.329087 0.013306 0.031766
0.362318 0.012913 0.031174
0.395549 0.012521 0.030581
0.428781 0.012128 0.029989
0.462012 0.011735 0.029396
0.495244 0.011343 0.028804
0.528475 0.010950 0.028211
0.561706 0.010557 0.027619
0.594937 0.010165 0.027026
0.628169 0.009772 0.026434
0.661400 0.009379 0.025841
0.694632 0.008987 0.025249
0.727863 0.008594 0.024656
0.761094 0.008202 0.024064
0.794326 0.007809 0.023471
0.827557 0.007416 0.022878
0.860788 0.007024 0.022286
0.894020 0.006631 0.021693
0.927251 0.006238 0.021101
0.960483 0.005846 0.020508
0.993714 0.005453 0.019916
1.000000 0.005060 0.019323
1.000000 0.004668 0.018731
0.000000 0.050885 0.036493
0.029614 0.050492 0.035900
0.062846 0.050100 0.035307
0.096077 0.049707 0.034715
0.129308 0.049315 0.034122
0.162540 0.048922 0.033530
0.195771 0.048529 0.032937
0.229003 0.048137 0.032345
0.262234 0.047744 0.031752
0.295465 0.047351 0.031160
0.328697 0.046959 0.030567
0.361928 0.046566 0.029975
0.395159 0.046173 0.029382
0.428391 0.045781 0.028790
0.461622 0.045388 0.028197
0.494853 0.044995 0.027605
0.528085 0.044603 0.027012
0.561316 0.044210 0.026420
0.594547 0.043818 0.025827
0.627779 0.043425 0.025235
0.661010 0.043032 0.024642
0.694242 0.042640 0.024050
0.727473 0.042247 0.023457
0.760704 0.041854 0.022865
0.793936 0.041462 0.022272
0.827167 0.041069 0.021680
0.860398 0.040676 0.021087
0.893630 0.040284 0.020495
0.926861 0.039891 0.019902
0.960093 0.039499 0.019310
0.993324 0.039106 0.018717
1.000000 0.038713 0.018125
1.000000 0.038321 0.017532
0.000000 0.084538 0.035294
0.029224 0.084145 0.034701
0.062456 0.083753 0.034109
0.095687 0.083360 0.033516
0.128918 0.082967 0.032924
0.162150 0.082575 0.032331
0.195381 0.082182 0.031739
0.228613 0.081789 0.031146
0.261844 0.081397 0.030554
0.295075 0.081004 0.029961
0.328307 0.080612 0.029369
0.361538 0.080219 0.028776
0.394769 0.079826 0.028183
0.428001 0.079434 0.027591
0.461232 0.079041 0.026998
0.494463 0.078648 0.026406
0.527695 0.078256 0.025813
0.560926 0.077863 0.025221
0.594157 0.077470 0.024628
0.627389 0.077078 0.024036
0.660620 0.076685 0.023443
0.693852 0.076293 0.022851
0.727083 0.075900 0.022258
0.760314 0.075507 0.021666
0.793546 0.075115 0.021073
0.826777 0.074722 0.020481
0.860008 0.074329 0.019888
0.893240 0.073937 0.019296
0.926471 0.073544 0.018703
0.959703 0.073151 0.018111
0.992934 0.072759 0.017518
1.000000 0.072366 0.016926
1.000000 0.071973 0.016333
0.000000 0.118191 0.034095
0.028834 0.117798 0.033502
0.062066 0.117406 0.032910
0.095297 0.117013 0.032317
0.128528 0.116620 0.031725
0.161760 0.116228 0.031132
0.194991 0.115835 0.030540
0.228223 0.115442 0.029947
0.261454 0.115050 0.029355
0.294685 0.114657 0.028762
0.327917 0.114264 0.028170
0.361148 0.113872 0.027577
0.394379 0.113479 0.026985
0.427611 0.113087 0.026392
0.460842 0.112694 0.025800
0.494073 0.112301 0.025207
0.527305 0.111909 0.024615
0.560536 0.111516 0.024022
0.593767 0.111123 0.023430
0.626999 0.110731 0.022837
0.660230 0.110338 0.022245
0.693462 0.109945 0.021652
0.726693 0.109553 0.021060
0.759924 0.109160 0.020467
0.793156 0.108767 0.019874
0.826387 0.108375 0.019282
0.859618 0.107982 0.018689
0.892850 0.107590 0.018097
0.926081 0.107197 0.017504
0.959313 0.106804 0.016912
0.992544 0.106412 0.016319
1.000000 0.106019 0.015727
1.000000 0.105626 0.015134
0.000000 0.151844 0.032896
0.028444 0.151451 0.032303
0.061676 0.151058 0.031711
0.094907 0.150666 0.031118
0.128138 0.150273 0.030526
0.161370 0.149881 0.029933
0.194601 0.149488 0.029341
0.227832 0.149095 0.028748
0.261064 0.148703 0.028156
0.294295 0.148310 0.027563
0.327527 0.147917 0.026971
0.360758 0.147525 0.026378
0.393989 0.147132 0.025786
0.427221 0.146739 0.025193
0.460452 0.146347 0.024601
0.493683 0.145954 0.024008
0.526915 0.145561 0.023416
0.560146 0.145169 0.022823
0.593377 0.144776 0.022231
0.626609 0.144384 0.021638
0.659840 0.143991 0.021046
0.693072 0.143598 0.020453
0.726303 0.143206 0.019861
0.759534 0.142813 0.019268
0.792766 0.142420 0.018676
0.825997 0.142028 0.018083
0.859228 0.141635 0.017491
0.892460 0.141242 0.016898
0.925691 0.140850 0.016306
0.958923 0.140457 0.015713
0.992154 0.140065 0.015121
1.000000 0.139672 0.014528
1.000000 0.139279 0.013936
0.000000 0.185497 0.031697
0.028054 0.185104 0.031105
0.061286 0.184711 0.030512
0.094517 0.184319 0.029920
0.127748 0.183926 0.029327
0.160980 0.183533 0.028735
0.194211 0.183141 0.028142
0.227442 0.182748 0.027550
0.260674 0.182355 0.026957
0.293905 0.181963 0.026365
0.327137 0.181570 0.025772
0.360368 0.181178 0.025179
0.393599 0.180785 0.024587
0.426831 0.180392 0.023994
0.460062 0.180000 0.023402
0.493293 0.179607 0.022809
0.526525 0.179214 0.022217
0.559756 0.178822 0.021624
0.592987 0.178429 0.021032
0.626219 0.178036 0.020439
0.659450 0.177644 0.019847
0.692682 0.177251 0.019254
0.725913 0.176859 0.018662
0.759144 0.176466 0.018069
0.792376 0.176073 0.017477
0.825607 0.175681 0.016884
0.858838 0.175288 0.016292
0.892070 0.174895 0.015699
0.925301 0.174503 0.015107
0.958532 0.174110 0.014514
0.991764 0.173717 0.013922
1.000000 0.173325 0.013329
1.000000 0.172932 0.012737
0.000000 0.219150 0.030498
0.027664 0.218757 0.029906
0.060896 0.218364 0.029313
0.094127 0.217972 0.028721
0.127358 0.217579 0.028128
0.160590 0.217186 0.027536
0.193821 0.216794 0.026943
0.227052 0.216401 0.026351
0.260284 0.216008 0.025758
0.293515 0.215616 0.025166
0.326747 0.215223 0.024573
0.359978 0.214830 0.023981
0.393209 0.214438 0.023388
0.426441 0.214045 0.022796
0.459672 0.213653 0.022203
0.492903 0.213260 0.021611
0.526135 0.212867 0.021018
0.559366 0.212475 0.020426
0.592597 0.212082 0.019833
0.625829 0.211689 0.019241
0.659060 0.211297 0.018648
0.692292 0.210904 0.018055
0.725523 0.210511 0.017463
0.758754 0.210119 0.016870
0.791986 0.209726 0.016278
0.825217 0.209334 0.015685
0.858448 0.208941 0.015093
0.891680 0.208548 0.014500
0.924911 0.208156 0.013908
0.958142 0.207763 0.013315
0.991374 0.207370 0.012723
1.000000 0.206978 0.012130
1.000000 0.206585 0.011538
0.000000 0.252802 0.029299
0.027274 0.252410 0.028707
0.060506 0.252017 0.028114
0.093737 0.251624 0.027522
0.126968 0.251232 0.026929
0.160200 0.250839 0.026337
0.193431 0.250447 0.025744
0.226662 0.250054 0.025152
0.259894 0.249661 0.024559
0.293125 0.249269 0.023967
0.326357 0.248876 0.023374
0.359588 0.248483 0.022782
0.392819 0.248091 0.022189
0.426051 0.247698 0.021597
0.459282 0.247305 0.021004
0.492513 0.246913 0.020412
0.525745 0.246520 0.019819
0.558976 0.246127 0.019227
0.592207 0.245735 0.018634
0.625439 0.245342 0.018042
0.658670 0.244950 0.017449
0.691901 0.244557 0.016857
0.725133 0.244164 0.016264
0.758364 0.243772 0.015672
0.791596 0.243379 0.015079
0.824827 0.242986 0.014487
0.858058 0.242594 0.013894
0.891290 0.242201 0.013302
0.924521 0.241808 0.012709
0.957752 0.241416 0.012117
0.990984 0.241023 0.011524
1.000000 0.240631 0.010931
1.000000 0.240238 0.010339
0.000000 0.286455 0.028101
0.026884 0.286063 0.027508
0.060116 0.285670 0.026916
0.093347 0.285277 0.026323
0.126578 0.284885 0.025731
0.159810 0.284492 0.025138
0.193041 0.284099 0.024546
0.226272 0.283707 0.023953
0.259504 0.283314 0.023361
0.292735 0.282921 0.022768
0.325967 0.282529 0.022175
0.359198 0.282136 0.021583
0.392429 0.281744 0.020990
0.425661 0.281351 0.020398
0.458892 0.280958 0.019805
0.492123 0.280566 0.019213
0.525355 0.280173 0.018620
0.558586 0.279780 0.018028
0.591817 0.279388 0.017435
0.625049 0.278995 0.016843
0.658280 0.278602 0.016250
0.691511 0.278210 0.015658
0.724743 0.277817 0.015065
0.757974 0.277425 0.014473
0.791206 0.277032 0.013880
0.824437 0.276639 0.013288
0.857668 0.276247 0.012695
0.890900 0.275854 0.012103
0.924131 0.275461 0.011510
0.957362 0.275069 0.010918
0.990594 0.274676 0.010325
1.000000 0.274283 0.009733
1.000000 0.273891 0.009140
0.000000 0.320108 0.026902
0.026494 0.319716 0.026309
0.059726 0.319323 0.025717
0.092957 0.318930 0.025124
0.126188 0.318538 0.024532
0.159420 0.318145 0.023939
0.192651 0.317752 0.023347
0.225882 0.317360 0.022754
0.259114 0.316967 0.022162
0.292345 0.316574 0.021569
0.325576 0.316182 0.020977
0.358808 0.315789 0.020384
0.392039 0.315396 0.019792
0.425271 0.315004 0.019199
0.458502 0.314611 0.018607
0.491733 0.314219 0.018014
0.524965 0.313826 0.017422
0.558196 0.313433 0.016829
0.591427 0.313041 0.016237
0.624659 0.312648 0.015644
0.657890 0.312255 0.015051
0.691121 0.311863 0.014459
0.724353 0.311470 0.013866
0.757584 0.311077 0.013274
0.790816 0.310685 0.012681
0.824047 0.310292 0.012089
0.857278 0.309900 0.011496
0.890510 0.309507 0.010904
0.923741 0.309114 0.010311
0.956972 0.308722 0.009719
0.990204 0.308329 0.009126
1.000000 0.307936 0.008534
1.000000 0.307544 0.007941
0.000000 0.353761 0.025703
0.026104 0.353368 0.025110
0.059336 0.352976 0.024518
0.092567 0.352583 0.023925
0.125798 0.352190 0.023333
0.159030 0.351798 0.022740
0.192261 0.351405 0.022148
0.225492 0.351013 0.021555
0.258724 0.350620 0.020963
0.291955 0.350227 0.020370
0.325186 0.349835 0.019778
0.358418 0.349442 0.019185
0.391649 0.349049 0.018593
0.424881 0.348657 0.018000
0.458112 0.348264 0.017408
0.491343 0.347871 0.016815
0.524575 0.347479 0.016223
0.557806 0.347086 0.015630
0.591037 0.346694 0.015038
0.624269 0.346301 0.014445
0.657500 0.345908 0.013853
0.690731 0.345516 0.013260
0.723963 0.345123 0.012668
0.757194 0.344730 0.012075
0.790426 0.344338 0.011483
0.823657 0.343945 0.010890
0.856888 0.343552 0.010298
0.890120 0.343160 0.009705
0.923351 0.342767 0.009113
0.956582 0.342374 0.008520
0.989814 0.341982 0.007927
1.000000 0.341589 0.007335
1.000000 0.341197 0.006742
0.000000 0.387414 0.024504
0.025714 0.387021 0.023912
0.058946 0.386629 0.023319
0.092177 0.386236 0.022727
0.125408 0.385843 0.022134
0.158640 0.385451 0.021542
0.191871 0.385058 0.020949
0.225102 0.384665 0.020356
0.258334 0.384273 0.019764
0.291565 0.383880 0.019171
0.324796 0.383487 0.018579
0.358028 0.383095 0.017986
0.391259 0.382702 0.017394
0.424491 0.382310 0.016801
0.457722 0.381917 0.016209
0.490953 0.381524 0.015616
0.524185 0.381132 0.015024
0.557416 0.380739 0.014431
0.590647 0.380346 0.013839
0.623879 0.379954 0.013246
0.657110 0.379561 0.012654
0.690341 0.379168 0.012061
0.723573 0.378776 0.011469
0.756804 0.378383 0.010876
0.790036 0.377991 0.010284
0.823267 0.377598 0.009691
0.856498 0.377205 0.009099
0.889730 0.376813 0.008506
0.922961 0.376420 0.007914
0.956192 0.376027 0.007321
0.989424 0.375635 0.006729
1.000000 0.375242 0.006136
1.000000 0.374849 0.005544
0.000000 0.421067 0.023305
0.025324 0.420674 0.022713
0.058556 0.420282 0.022120
0.091787 0.419889 0.021528
0.125018 0.419496 0.020935
0.158250 0.419104 0.020343
0.191481 0.418711 0.019750
0.224712 0.418318 0.019158
0.257944 0.417926 0.018565
0.291175 0.417533 0.017973
0.324406 0.417140 0.017380
0.357638 0.416748 0.016788
0.390869 0.416355 0.016195
0.424101 0.415962 0.015603
0.457332 0.415570 0.015010
0.490563 0.415177 0.014418
0.523795 0.414785 0.013825
0.557026 0.414392 0.013233
0.590257 0.413999 0.012640
0.623489 0.413607 0.012047
0.656720 0.413214 0.011455
0.689951 0.412821 0.010862
0.723183 0.412429 0.010270
0.756414 0.412036 0.009677
0.789646 0.411643 0.009085
0.822877 0.411251 0.008492
0.856108 0.410858 0.007900
0.889340 0.410466 0.007307
0.922571 0.410073 0.006715
0.955802 0.409680 0.006122
0.989034 0.409288 0.005530
1.000000 0.408895 0.004937
1.000000 0.408502 0.004345
0.000000 0.454720 0.022106
0.024934 0.454327 0.021514
0.058166 0.453934 0.020921
0.091397 0.453542 0.020329
0.124628 0.453149 0.019736
0.157860 0.452756 0.019144
0.191091 0.452364 0.018551
0.224322 0.451971 0.017959
0.257554 0.451579 0.017366
0.290785 0.451186 0.016774
0.324016 0.450793 0.016181
0.357248 0.450401 0.015589
0.390479 0.450008 0.014996
0.423710 0.449615 0.014404
0.456942 0.449223 0.013811
0.490173 0.448830 0.013219
0.523405 0.448437 0.012626
0.556636 0.448045 0.012034
0.589867 0.447652 0.011441
0.623099 0.447260 0.010849
0.656330 0.446867 0.010256
0.689561 0.446474 0.009664
0.722793 0.446082 0.009071
0.756024 0.445689 0.008479
0.789256 0.445296 0.007886
0.822487 0.444904 0.007294
0.855718 0.444511 0.006701
0.888950 0.444118 0.006109
0.922181 0.443726 0.005516
0.955412 0.443333 0.004923
0.988644 0.442940 0.004331
1.000000 0.442548 0.003738
1.000000 0.442155 0.003146
0.000000 0.488373 0.020908
0.024544 0.487980 0.020315
0.057775 0.487587 0.019723
0.091007 0.487195 0.019130
0.124238 0.486802 0.018538
0.157470 0.486409 0.017945
0.190701 0.486017 0.017352
0.223932 0.485624 0.016760
0.257164 0.485231 0.016167
0.290395 0.484839 0.015575
0.323626 0.484446 0.014982
0.356858 0.484054 0.014390
0.390089 0.483661 0.013797
0.423320 0.483268 0.013205
0.456552 0.482876 0.012612
0.489783 0.482483 0.012020
0.523015 0.482090 0.011427
0.556246 0.481698 0.010835
0.589477 0.481305 0.010242
0.622709 0.480912 0.009650
0.655940 0.480520 0.009057
0.689171 0.480127 0.008465
0.722403 0.479734 0.007872
0.755634 0.479342 0.007280
0.788865 0.478949 0.006687
0.822097 0.478557 0.006095
0.855328 0.478164 0.005502
0.888560 0.477771 0.004910
0.921791 0.477379 0.004317
0.955022 0.476986 0.003725
0.988254 0.476593 0.003132
1.000000 0.476201 0.002540
1.000000 0.475808 0.001947
0.000000 0.522025 0.019709
0.024154 0.521633 0.019116
0.057385 0.521240 0.018524
0.090617 0.520847 0.017931
0.123848 0.520455 0.017339
0.157080 0.520062 0.016746
0.190311 0.519670 0.016154
0.223542 0.519277 0.015561
0.256774 0.518884 0.014969
0.290005 0.518492 0.014376
0.323236 0.518099 0.013784
0.356468 0.517706 0.013191
0.389699 0.517314 0.012599
0.422930 0.516921 0.012006
0.456162 0.516528 0.011414
0.489393 0.516136 0.010821
0.522625 0.515743 0.010228
0.555856 0.515351 0.009636
0.589087 0.514958 0.009043
0.622319 0.514565 0.008451
0.655550 0.514173 0.007858
0.688781 0.513780 0.007266
0.722013 0.513387 0.006673
0.755244 0.512995 0.006081
0.788475 0.512602 0.005488
0.821707 0.512209 0.004896
0.854938 0.511817 0.004303
0.888170 0.511424 0.003711
0.921401 0.511032 0.003118
0.954632 0.510639 0.002526
0.987864 0.510246 0.001933
1.000000 0.509854 0.001341
1.000000 0.509461 0.000748
0.000000 0.555678 0.018510
0.023764 0.555286 0.017917
0.056995 0.554893 0.017325
0.090227 0.554500 0.016732
0.123458 0.554108 0.016140
0.156690 0.553715 0.015547
0.189921 0.553322 0.014955
0.223152 0.552930 0.014362
0.256384 0.552537 0.013770
0.289615 0.552145 0.013177
0.322846 0.551752 0.012585
0.356078 0.551359 0.011992
0.389309 0.550967 0.011400
0.422540 0.550574 0.010807
0.455772 0.550181 0.010215
0.489003 0.549789 0.009622
0.522235 0.549396 0.009030
0.555466 0.549003 0.008437
0.588697 0.548611 0.007845
0.621929 0.548218 0.007252
0.655160 0.547825 0.006660
0.688391 0.547433 0.006067
0.721623 0.547040 0.005475
0.754854 0.546648 0.004882
0.788085 0.546255 0.004290
0.821317 0.545862 0.003697
0.854548 0.545470 0.003104
0.887780 0.545077 0.002512
0.921011 0.544684 0.001919
0.954242 0.544292 0.001327
0.987474 0.543899 0.000734
1.000000 0.543506 0.000142
1.000000 0.543114 0.000000
0.000000 0.589331 0.017311
0.023374 0.588939 0.016719
0.056605 0.588546 0.016126
0.089837 0.588153 0.015534
0.123068 0.587761 0.014941
0.156300 0.587368 0.014348
0.189531 0.586975 0.013756
0.222762 0.586583 0.013163
0.255994 0.586190 0.012571
0.289225 0.585797 0.011978
0.322456 0.585405 0.011386
0.355688 0.585012 0.010793
0.388919 0.584619 0.010201
0.422150 0.584227 0.009608
0.455382 0.583834 0.009016
0.488613 0.583442 0.008423
0.521844 0.583049 0.007831
0.555076 0.582656 0.007238
0.588307 0.582264 0.006646
0.621539 0.581871 0.006053
0.654770 0.581478 0.005461
0.688001 0.581086 0.004868
0.721233 0.580693 0.004276
0.754464 0.580300 0.003683
0.787695 0.579908 0.003091
0.820927 0.579515 0.002498
0.854158 0.579123 0.001906
0.887390 0.578730 0.001313
0.920621 0.578337 0.000721
0.953852 0.577945 0.000128
0.987084 0.577552 0.000000
1.000000 0.577159 0.000000
1.000000 0.576767 0.000000
0.000000 0.622984 0.016112
0.022984 0.622591 0.015520
0.056215 0.622199 0.014927
0.089447 0.621806 0.014335
0.122678 0.621414 0.013742
0.155910 0.621021 0.013150
0.189141 0.620628 0.012557
0.222372 0.620236 0.011965
0.255604 0.619843 0.011372
0.288835 0.619450 0.010780
0.322066 0.619058 0.010187
0.355298 0.618665 0.009595
0.388529 0.618272 0.009002
0.421760 0.617880 0.008410
0.454992 0.617487 0.007817
0.488223 0.617095 0.007224
0.521454 0.616702 0.006632
0.554686 0.616309 0.006039
0.587917 0.615917 0.005447
0.621149 0.615524 0.004854
0.654380 0.615131 0.004262
0.687611 0.614739 0.003669
0.720843 0.614346 0.003077
0.754074 0.613953 0.002484
0.787305 0.613561 0.001892
0.820537 0.613168 0.001299
0.853768 0.612775 0.000707
0.886999 0.612383 0.000114
0.920231 0.611990 0.000000
0.953462 0.611598 0.000000
0.986694 0.611205 0.000000
1.000000 0.610812 0.000000
1.000000 0.610420 0.000000
0.000000 0.656637 0.014913
0.022594 0.656244 0.014321
0.055825 0.655852 0.013728
0.089057 0.655459 0.013136
0.122288 0.655066 0.012543
0.155519 0.654674 0.011951
0.188751 0.654281 0.011358
0.221982 0.653889 0.010766
0.255214 0.653496 0.010173
0.288445 0.653103 0.009581
0.321676 0.652711 0.008988
0.354908 0.652318 0.008396
0.388139 0.651925 0.007803
0.421370 0.651533 0.007211
0.454602 0.651140 0.006618
0.487833 0.650747 0.006026
0.521064 0.650355 0.005433
0.554296 0.649962 0.004841
0.587527 0.649569 0.004248
0.620759 0.649177 0.003656
0.653990 0.648784 0.003063
0.687221 0.648392 0.002471
0.720453 0.647999 0.001878
0.753684 0.647606 0.001286
0.786915 0.647214 0.000693
0.820147 0.646821 0.000100
0.853378 0.646428 0.000000
0.886609 0.646036 0.000000
0.919841 0.645643 0.000000
0.953072 0.645250 0.000000
0.986304 0.644858 0.000000
1.000000 0.644465 0.000000
1.000000 0.644073 0.000000
0.000000 0.690290 0.013715
0.022204 0.689897 0.013122
0.055435 0.689505 0.012529
0.088667 0.689112 0.011937
0.121898 0.688719 0.011344
0.155129 0.688327 0.010752
0.188361 0.687934 0.010159
0.221592 0.687541 0.009567
0.254824 0.687149 0.008974
0.288055 0.686756 0.008382
0.321286 0.686363 0.007789
0.354518 0.685971 0.007197
0.387749 0.685578 0.006604
0.420980 0.685186 0.006012
0.454212 0.684793 0.005419
0.487443 0.684400 0.004827
0.520674 0.684008 0.004234
0.553906 0.683615 0.003642
0.587137 0.683222 0.003049
0.620369 0.682830 0.002457
0.653600 0.682437 0.001864
0.686831 0.682044 0.001272
0.720063 0.681652 0.000679
0.753294 0.681259 0.000087
0.786525 0.680867 0.000000
0.819757 0.680474 0.000000
0.852988 0.680081 0.000000
0.886219 0.679689 0.000000
0.919451 0.679296 0.000000
0.952682 0.678903 0.000000
0.985914 0.678511 0.000000
1.000000 0.678118 0.000000
1.000000 0.677725 0.000000
0.000000 0.723943 0.012516
0.021814 0.723550 0.011923
0.055045 0.723157 0.011331
0.088277 0.722765 0.010738
0.121508 0.722372 0.010146
0.154739 0.721979 0.009553
0.187971 0.721587 0.008961
0.221202 0.721194 0.008368
0.254434 0.720802 0.007776
0.287665 0.720409 0.007183
0.320896 0.720016 0.006591
0.354128 0.719624 0.005998
0.387359 0.719231 0.005406
0.420590 0.718838 0.004813
0.453822 0.718446 0.004220
0.487053 0.718053 0.003628
0.520284 0.717660 0.003035
0.553516 0.717268 0.002443
0.586747 0.716875 0.001850
0.619979 0.716483 0.001258
0.653210 0.716090 0.000665
0.686441 0.715697 0.000073
0.719673 0.715305 0.000000
0.752904 0.714912 0.000000
0.786135 0.714519 0.000000
0.819367 0.714127 0.000000
0.852598 0.713734 0.000000
0.885829 0.713341 0.000000
0.919061 0.712949 0.000000
0.952292 0.712556 0.000000
0.985524 0.712163 0.000000
1.000000 0.711771 0.000000
1.000000 0.711378 0.000000
0.000000 0.757596 0.011317
0.021424 0.757203 0.010724
0.054655 0.756810 0.010132
0.087887 0.756418 0.009539
0.121118 0.756025 0.008947
0.154349 0.755632 0.008354
0.187581 0.755240 0.007762
0.220812 0.754847 0.007169
0.254044 0.754454 0.006577
0.287275 0.754062 0.005984
0.320506 0.753669 0.005392
0.353738 0.753277 0.004799
0.386969 0.752884 0.004207
0.420200 0.752491 0.003614
0.453432 0.752099 0.003022
0.486663 0.751706 0.002429
0.519894 0.751313 0.001837
0.553126 0.750921 0.001244
0.586357 0.750528 0.000652
0.619589 0.750135 0.000059
0.652820 0.749743 0.000000
0.686051 0.749350 0.000000
0.719283 0.748957 0.000000
0.752514 0.748565 0.000000
0.785745 0.748172 0.000000
0.818977 0.747780 0.000000
0.852208 0.747387 0.000000
0.885439 0.746994 0.000000
0.918671 0.746602 0.000000
0.951902 0.746209 0.000000
0.985133 0.745816 0.000000
1.000000 0.745424 0.000000
1.000000 0.745031 0.000000
0.000000 0.791248 0.010118
0.021034 0.790856 0.009525
0.054265 0.790463 0.008933
0.087497 0.790071 0.008340
0.120728 0.789678 0.007748
0.153959 0.789285 0.007155
0.187191 0.788893 0.006563
0.220422 0.788500 0.005970
0.253653 0.788107 0.005378
0.286885 0.787715 0.004785
0.320116 0.787322 0.004193
0.353348 0.786929 0.003600
0.386579 0.786537 0.003008
0.419810 0.786144 0.002415
0.453042 0.785751 0.001823
0.486273 0.785359 0.001230
0.519504 0.784966 0.000638
0.552736 0.784574 0.000045
0.585967 0.784181 0.000000
0.619199 0.783788 0.000000
0.652430 0.783396 0.000000
0.685661 0.783003 0.000000
0.718893 0.782610 0.000000
0.752124 0.782218 0.000000
0.785355 0.781825 0.000000
0.818587 0.781432 0.000000
0.851818 0.781040 0.000000
0.885049 0.780647 0.000000
0.918281 0.780255 0.000000
0.951512 0.779862 0.000000
0.984743 0.779469 0.000000
1.000000 0.779077 0.000000
1.000000 0.778684 0.000000
0.000000 0.824901 0.008919
0.020644 0.824509 0.008327
0.053875 0.824116 0.007734
0.087107 0.823723 0.007142
0.120338 0.823331 0.006549
0.153569 0.822938 0.005957
0.186801 0.822545 0.005364
0.220032 0.822153 0.004772
0.253263 0.821760 0.004179
0.286495 0.821368 0.003587
0.319726 0.820975 0.002994
0.352958 0.820582 0.002401
0.386189 0.820190 0.001809
0.419420 0.819797 0.001216
0.452652 0.819404 0.000624
0.485883 0.819012 0.000031
0.519114 0.818619 0.000000
0.552346 0.818226 0.000000
0.585577 0.817834 0.000000
0.618808 0.817441 0.000000
0.652040 0.817049 0.000000
0.685271 0.816656 0.000000
0.718503 0.816263 0.000000
0.751734 0.815871 0.000000
0.784965 0.815478 0.000000
0.818197 0.815085 0.000000
0.851428 0.814693 0.000000
0.884659 0.814300 0.000000
0.917891 0.813907 0.000000
0.951122 0.813515 0.000000
0.984353 0.813122 0.000000
1.000000 0.812729 0.000000
1.000000 0.812337 0.000000
0.000000 0.858554 0.007720
0.020254 0.858162 0.007128
0.053485 0.857769 0.006535
0.086717 0.857376 0.005943
0.119948 0.856984 0.005350
0.153179 0.856591 0.004758
0.186411 0.856198 0.004165
0.219642 0.855806 0.003573
0.252873 0.855413 0.002980
0.286105 0.855021 0.002388
0.319336 0.854628 0.001795
0.352568 0.854235 0.001203
0.385799 0.853843 0.000610
0.419030 0.853450 0.000018
0.452262 0.853057 0.000000
0.485493 0.852665 0.000000
0.518724 0.852272 0.000000
0.551956 0.851879 0.000000
0.585187 0.851487 0.000000
0.618418 0.851094 0.000000
0.651650 0.850701 0.000000
0.684881 0.850309 0.000000
0.718113 0.849916 0.000000
0.751344 0.849524 0.000000
0.784575 0.849131 0.000000
0.817807 0.848738 0.000000
0.851038 0.848346 0.000000
0.884269 0.847953 0.000000
0.917501 0.847560 0.000000
0.950732 0.847168 0.000000
0.983963 0.846775 0.000000
1.000000 0.846382 0.000000
1.000000 0.845990 0.000000
0.000000 0.892207 0.006521
0.019864 0.891814 0.005929
0.053095 0.891422 0.005336
0.086327 0.891029 0.004744
0.119558 0.890637 0.004151
0.152789 0.890244 0.003559
0.186021 0.889851 0.002966
0.219252 0.889459 0.002374
0.252483 0.889066 0.001781
0.285715 0.888673 0.001189
0.318946 0.888281 0.000596
0.352178 0.887888 0.000004
0.385409 0.887495 0.000000
0.418640 0.887103 0.000000
0.451872 0.886710 0.000000
0.485103 0.886318 0.000000
0.518334 0.885925 0.000000
0.551566 0.885532 0.000000
0.584797 0.885140 0.000000
0.618028 0.884747 0.000000
0.651260 0.884354 0.000000
0.684491 0.883962 0.000000
0.717723 0.883569 0.000000
0.750954 0.883176 0.000000
0.784185 0.882784 0.000000
0.817417 0.882391 0.000000
0.850648 0.881999 0.000000
0.883879 0.881606 0.000000
0.917111 0.881213 0.000000
