assets/luts/primelive_amb_film_muted.cube
TITLE "primelive Film Muted"
LUT_3D_SIZE 9
DOMAIN_MIN 0.0 0.0 0.0
DOMAIN_MAX 1.0 1.0 1.0
0.086865 0.097835 0.093835
0.186774 0.101712 0.097712
0.283348 0.105460 0.101460
0.378260 0.109143 0.105143
0.472051 0.112783 0.108783
0.564997 0.116389 0.112389
0.657266 0.119970 0.115970
0.748971 0.123529 0.119529
0.832982 0.126789 0.122789
0.100750 0.205564 0.106751
0.200659 0.209442 0.110628
0.297233 0.213189 0.114376
0.392145 0.216872 0.118059
0.485936 0.220512 0.121699
0.578882 0.224119 0.125306
0.671151 0.227699 0.128886
0.762856 0.231258 0.132445
0.846867 0.234518 0.135705
0.114173 0.309710 0.119238
0.214082 0.313587 0.123115
0.310656 0.317334 0.126863
0.405568 0.321018 0.130546
0.499359 0.324657 0.134185
0.592305 0.328264 0.137792
0.684574 0.331845 0.141373
0.776279 0.335403 0.144931
0.860290 0.338663 0.148192
0.127365 0.412064 0.131510
0.227274 0.415941 0.135387
0.323848 0.419689 0.139134
0.418760 0.423372 0.142817
0.512551 0.427011 0.146457
0.605497 0.430618 0.150064
0.697766 0.434199 0.153645
0.789471 0.437757 0.157203
0.873482 0.441018 0.160463
0.140402 0.513211 0.143637
0.240310 0.517088 0.147514
0.336885 0.520836 0.151261
0.431796 0.524519 0.154945
0.525587 0.528158 0.158584
0.618534 0.531765 0.162191
0.710803 0.535346 0.165772
0.802507 0.538904 0.169330
0.886519 0.542165 0.172590
0.153321 0.613448 0.155655
0.253230 0.617325 0.159532
0.349804 0.621072 0.163279
0.444716 0.624755 0.166962
0.538507 0.628395 0.170602
0.631453 0.632002 0.174209
0.723722 0.635583 0.177790
0.815427 0.639141 0.181348
0.899438 0.642401 0.184608
0.166146 0.712954 0.167585
0.266055 0.716832 0.171462
0.362629 0.720579 0.175210
0.457541 0.724262 0.178893
0.551332 0.727902 0.182533
0.644278 0.731509 0.186139
0.736547 0.735089 0.189720
0.828252 0.738648 0.193279
0.912263 0.741908 0.196539
0.178893 0.811853 0.179442
0.278802 0.815730 0.183319
0.375376 0.819477 0.187067
0.470288 0.823160 0.190750
0.564079 0.826800 0.194390
0.657025 0.830407 0.197997
0.749294 0.833987 0.201577
0.840999 0.837546 0.205136
0.925010 0.840806 0.208396
0.191573 0.910229 0.191237
0.291481 0.914106 0.195114
0.388056 0.917854 0.198862
0.482967 0.921537 0.202545
0.576758 0.925176 0.206185
0.669704 0.928783 0.209792
0.761974 0.932364 0.213372
0.853678 0.935922 0.216931
0.937689 0.939183 0.220191
0.088253 0.099126 0.189012
0.188162 0.103003 0.192889
0.284736 0.106751 0.196636
0.379648 0.110434 0.200319
0.473439 0.114074 0.203959
0.566385 0.117681 0.207566
0.658654 0.121261 0.211146
0.750359 0.124820 0.214705
0.834370 0.128080 0.217965
0.102138 0.206856 0.201928
0.202047 0.210733 0.205805
0.298621 0.214480 0.209553
0.393533 0.218163 0.213236
0.487324 0.221803 0.216875
0.580270 0.225410 0.220482
0.672539 0.228991 0.224063
0.764244 0.232549 0.227621
0.848255 0.235809 0.230882
0.115561 0.311001 0.214414
0.215470 0.314878 0.218291
0.312044 0.318626 0.222039
0.406956 0.322309 0.225722
0.500747 0.325948 0.229362
0.593693 0.329555 0.232969
0.685962 0.333136 0.236549
0.777667 0.336695 0.240108
0.861678 0.339955 0.243368
0.128753 0.413355 0.226686
0.228662 0.417232 0.230563
0.325236 0.420980 0.234311
0.420148 0.424663 0.237994
0.513939 0.428302 0.241634
0.606885 0.431909 0.245240
0.699154 0.435490 0.248821
0.790859 0.439049 0.252380
0.874870 0.442309 0.255640
0.141790 0.514502 0.238813
0.241698 0.518379 0.242690
0.338273 0.522127 0.246438
0.433184 0.525810 0.250121
0.526975 0.529449 0.253761
0.619922 0.533056 0.257368
0.712191 0.536637 0.260948
0.803895 0.540196 0.264507
0.887907 0.543456 0.267767
0.154709 0.614739 0.250831
0.254618 0.618616 0.254708
0.351192 0.622363 0.258456
0.446104 0.626047 0.262139
0.539895 0.629686 0.265779
0.632841 0.633293 0.269385
0.725110 0.636874 0.272966
0.816815 0.640432 0.276525
0.900826 0.643693 0.279785
0.167534 0.714246 0.262762
0.267443 0.718123 0.266639
0.364017 0.721870 0.270386
0.458929 0.725553 0.274069
0.552720 0.729193 0.277709
0.645666 0.732800 0.281316
0.737935 0.736381 0.284896
0.829640 0.739939 0.288455
0.913651 0.743199 0.291715
0.180281 0.813144 0.274619
0.280190 0.817021 0.278496
0.376764 0.820768 0.282244
0.471676 0.824452 0.285927
0.565467 0.828091 0.289566
0.658413 0.831698 0.293173
0.750682 0.835279 0.296754
0.842387 0.838837 0.300313
0.926398 0.842097 0.303573
0.192960 0.911520 0.286414
0.292869 0.915397 0.290291
0.389444 0.919145 0.294039
0.484355 0.922828 0.297722
0.578146 0.926468 0.301361
0.671092 0.930074 0.304968
0.763362 0.933655 0.308549
0.855066 0.937214 0.312107
0.939077 0.940474 0.315368
0.089595 0.100375 0.281031
0.189504 0.104252 0.284908
0.286078 0.107999 0.288656
0.380990 0.111682 0.292339
0.474781 0.115322 0.295979
0.567727 0.118929 0.299585
0.659996 0.122509 0.303166
0.751701 0.126068 0.306725
0.835712 0.129328 0.309985
0.103480 0.208104 0.293947
0.203389 0.211981 0.297824
0.299963 0.215729 0.301572
0.394874 0.219412 0.305255
0.488666 0.223051 0.308895
0.581612 0.226658 0.312502
0.673881 0.230239 0.316082
0.765586 0.233798 0.319641
0.849597 0.237058 0.322901
0.116903 0.312249 0.306434
0.216812 0.316126 0.310311
0.313386 0.319874 0.314059
0.408298 0.323557 0.317742
0.502089 0.327197 0.321381
0.595035 0.330804 0.324988
0.687304 0.334384 0.328569
0.779009 0.337943 0.332128
0.863020 0.341203 0.335388
0.130095 0.414603 0.318706
0.230004 0.418480 0.322583
0.326578 0.422228 0.326330
0.421490 0.425911 0.330014
0.515281 0.429551 0.333653
0.608227 0.433158 0.337260
0.700496 0.436738 0.340841
0.792201 0.440297 0.344399
0.876212 0.443557 0.347659
0.143132 0.515750 0.330833
0.243040 0.519627 0.334710
0.339615 0.523375 0.338457
0.434526 0.527058 0.342141
0.528317 0.530698 0.345780
0.621264 0.534305 0.349387
0.713533 0.537885 0.352968
0.805237 0.541444 0.356526
0.889249 0.544704 0.359787
0.156051 0.615987 0.342851
0.255960 0.619864 0.346728
0.352534 0.623612 0.350475
0.447446 0.627295 0.354159
0.541237 0.630935 0.357798
0.634183 0.634541 0.361405
0.726452 0.638122 0.364986
0.818157 0.641681 0.368544
0.902168 0.644941 0.371804
0.168876 0.715494 0.354781
0.268785 0.719371 0.358658
0.365359 0.723119 0.362406
0.460271 0.726802 0.366089
0.554062 0.730441 0.369729
0.647008 0.734048 0.373335
0.739277 0.737629 0.376916
0.830982 0.741188 0.380475
0.914993 0.744448 0.383735
0.181623 0.814392 0.366639
0.281532 0.818269 0.370516
0.378106 0.822017 0.374263
0.473017 0.825700 0.377946
0.566809 0.829339 0.381586
0.659755 0.832946 0.385193
0.752024 0.836527 0.388773
0.843729 0.840086 0.392332
0.927740 0.843346 0.395592
0.194302 0.912768 0.378433
0.294211 0.916645 0.382310
0.390786 0.920393 0.386058
0.485697 0.924076 0.389741
0.579488 0.927716 0.393381
0.672434 0.931323 0.396988
0.764704 0.934903 0.400568
0.856408 0.938462 0.404127
0.940419 0.941722 0.407387
0.090914 0.101601 0.371470
0.190822 0.105478 0.375347
0.287397 0.109226 0.379095
0.382308 0.112909 0.382778
0.476099 0.116549 0.386418
0.569046 0.120156 0.390025
0.661315 0.123736 0.393605
0.753020 0.127295 0.397164
0.837031 0.130555 0.400424
0.104799 0.209331 0.384387
0.204707 0.213208 0.388264
0.301282 0.216956 0.392011
0.396193 0.220639 0.395694
0.489984 0.224278 0.399334
0.582931 0.227885 0.402941
0.675200 0.231466 0.406522
0.766904 0.235024 0.410080
0.850916 0.238285 0.413340
0.118222 0.313476 0.396873
0.218130 0.317353 0.400750
0.314705 0.321101 0.404498
0.409616 0.324784 0.408181
0.503407 0.328424 0.411821
0.596354 0.332030 0.415427
0.688623 0.335611 0.419008
0.780328 0.339170 0.422567
0.864339 0.342430 0.425827
0.131414 0.415830 0.409145
0.231323 0.419707 0.413022
0.327897 0.423455 0.416770
0.422809 0.427138 0.420453
0.516600 0.430778 0.424092
0.609546 0.434385 0.427699
0.701815 0.437965 0.431280
0.793520 0.441524 0.434839
0.877531 0.444784 0.438099
0.144451 0.516977 0.421272
0.244359 0.520854 0.425149
0.340934 0.524602 0.428897
0.435845 0.528285 0.432580
0.529636 0.531925 0.436219
0.622583 0.535532 0.439826
0.714852 0.539112 0.443407
0.806556 0.542671 0.446966
0.890567 0.545931 0.450226
0.157370 0.617214 0.433290
0.257278 0.621091 0.437167
0.353853 0.624839 0.440915
0.448764 0.628522 0.444598
0.542555 0.632161 0.448237
0.635502 0.635768 0.451844
0.727771 0.639349 0.455425
0.819476 0.642908 0.458983
0.903487 0.646168 0.462244
0.170195 0.716721 0.445220
0.270104 0.720598 0.449097
0.366678 0.724346 0.452845
0.461590 0.728029 0.456528
0.555381 0.731668 0.460168
0.648327 0.735275 0.463775
0.740596 0.738856 0.467355
0.832301 0.742414 0.470914
0.916312 0.745675 0.474174
0.182942 0.815619 0.457078
0.282850 0.819496 0.460955
0.379425 0.823244 0.464702
0.474336 0.826927 0.468386
0.568127 0.830566 0.472025
0.661074 0.834173 0.475632
0.753343 0.837754 0.479213
0.845047 0.841313 0.482771
0.929059 0.844573 0.486031
0.195621 0.913995 0.468873
0.295530 0.917872 0.472750
0.392104 0.921620 0.476497
0.487016 0.925303 0.480180
0.580807 0.928943 0.483820
0.673753 0.932550 0.487427
0.766023 0.936130 0.491008
0.857727 0.939689 0.494566
0.941738 0.942949 0.497826
0.092217 0.102814 0.460844
0.192126 0.106691 0.464721
0.288700 0.110439 0.468469
0.383612 0.114122 0.472152
0.477403 0.117761 0.475791
0.570349 0.121368 0.479398
0.662618 0.124949 0.482979
0.754323 0.128507 0.486537
0.838334 0.131768 0.489798
0.106102 0.210543 0.473760
0.206011 0.214420 0.477637
0.302585 0.218168 0.481385
0.397497 0.221851 0.485068
0.491288 0.225491 0.488708
0.584234 0.229098 0.492314
0.676503 0.232678 0.495895
0.768208 0.236237 0.499454
0.852219 0.239497 0.502714
0.119525 0.314689 0.486247
0.219434 0.318566 0.490124
0.316008 0.322313 0.493871
0.410920 0.325996 0.497555
0.504711 0.329636 0.501194
0.597657 0.333243 0.504801
0.689926 0.336823 0.508382
0.781631 0.340382 0.511940
0.865642 0.343642 0.515200
0.132717 0.417043 0.498518
0.232626 0.420920 0.502396
0.329201 0.424667 0.506143
0.424112 0.428350 0.509826
0.517903 0.431990 0.513466
0.610849 0.435597 0.517073
0.703119 0.439178 0.520653
0.794823 0.442736 0.524212
0.878834 0.445996 0.527472
0.145754 0.518190 0.510646
0.245663 0.522067 0.514523
0.342237 0.525814 0.518270
0.437149 0.529497 0.521953
0.530940 0.533137 0.525593
0.623886 0.536744 0.529200
0.716155 0.540325 0.532780
0.807860 0.543883 0.536339
0.891871 0.547143 0.539599
0.158673 0.618426 0.522663
0.258582 0.622303 0.526540
0.355156 0.626051 0.530288
0.450068 0.629734 0.533971
0.543859 0.633374 0.537611
0.636805 0.636981 0.541218
0.729074 0.640561 0.544798
0.820779 0.644120 0.548357
0.904790 0.647380 0.551617
0.171498 0.717933 0.534594
0.271407 0.721810 0.538471
0.367982 0.725558 0.542219
0.462893 0.729241 0.545902
0.556684 0.732881 0.549541
0.649630 0.736488 0.553148
0.741900 0.740068 0.556729
0.833604 0.743627 0.560287
0.917615 0.746887 0.563548
0.184245 0.816831 0.546451
0.284154 0.820708 0.550328
0.380728 0.824456 0.554076
0.475640 0.828139 0.557759
0.569431 0.831779 0.561399
0.662377 0.835386 0.565006
0.754646 0.838966 0.568586
0.846351 0.842525 0.572145
0.930362 0.845785 0.575405
0.196925 0.915208 0.558246
0.296833 0.919085 0.562123
0.393408 0.922832 0.565871
0.488319 0.926515 0.569554
0.582110 0.930155 0.573194
0.675057 0.933762 0.576801
0.767326 0.937343 0.580381
0.859030 0.940901 0.583940
0.943042 0.944161 0.587200
0.093509 0.104015 0.549414
0.193417 0.107892 0.553291
0.289992 0.111640 0.557038
0.384903 0.115323 0.560722
0.478694 0.118963 0.564361
0.571641 0.122570 0.567968
0.663910 0.126150 0.571549
0.755615 0.129709 0.575107
0.839626 0.132969 0.578367
0.107394 0.211745 0.562330
0.207302 0.215622 0.566207
0.303877 0.219369 0.569955
0.398788 0.223053 0.573638
0.492579 0.226692 0.577277
0.585526 0.230299 0.580884
0.677795 0.233880 0.584465
0.769499 0.237438 0.588024
0.853511 0.240699 0.591284
0.120817 0.315890 0.574817
0.220725 0.319767 0.578694
0.317300 0.323515 0.582441
0.412211 0.327198 0.586124
0.506002 0.330838 0.589764
0.598949 0.334444 0.593371
0.691218 0.338025 0.596951
0.782923 0.341584 0.600510
0.866934 0.344844 0.603770
0.134009 0.418244 0.587088
0.233918 0.422121 0.590965
0.330492 0.425869 0.594713
0.425404 0.429552 0.598396
0.519195 0.433192 0.602036
0.612141 0.436798 0.605643
0.704410 0.440379 0.609223
0.796115 0.443938 0.612782
0.880126 0.447198 0.616042
0.147046 0.519391 0.599215
0.246954 0.523268 0.603092
0.343529 0.527016 0.606840
0.438440 0.530699 0.610523
0.532231 0.534339 0.614163
0.625178 0.537946 0.617770
0.717447 0.541526 0.621350
0.809151 0.545085 0.624909
0.893162 0.548345 0.628169
0.159965 0.619628 0.611233
0.259873 0.623505 0.615110
0.356448 0.627253 0.618858
0.451359 0.630936 0.622541
0.545150 0.634575 0.626181
0.638097 0.638182 0.629788
0.730366 0.641763 0.633368
0.822071 0.645322 0.636927
0.906082 0.648582 0.640187
0.172790 0.719135 0.623164
0.272699 0.723012 0.627041
0.369273 0.726759 0.630788
0.464185 0.730443 0.634472
0.557976 0.734082 0.638111
0.650922 0.737689 0.641718
0.743191 0.741270 0.645299
0.834896 0.744828 0.648857
0.918907 0.748089 0.652117
0.185537 0.818033 0.635021
0.285445 0.821910 0.638898
0.382020 0.825658 0.642646
0.476931 0.829341 0.646329
0.570722 0.832980 0.649969
0.663669 0.836587 0.653575
0.755938 0.840168 0.657156
0.847642 0.843726 0.660715
0.931654 0.846987 0.663975
0.198216 0.916409 0.646816
0.298125 0.920286 0.650693
0.394699 0.924034 0.654441
0.489611 0.927717 0.658124
0.583402 0.931357 0.661763
0.676348 0.934964 0.665370
0.768618 0.938544 0.668951
0.860322 0.942103 0.672510
0.944333 0.945363 0.675770
0.094791 0.105208 0.637339
0.194700 0.109085 0.641216
0.291274 0.112833 0.644964
0.386186 0.116516 0.648647
0.479977 0.120156 0.652286
0.572923 0.123762 0.655893
0.665192 0.127343 0.659474
0.756897 0.130902 0.663033
0.840908 0.134162 0.666293
0.108676 0.212938 0.650255
0.208585 0.216815 0.654132
0.305159 0.220562 0.657880
0.400071 0.224245 0.661563
0.493862 0.227885 0.665203
0.586808 0.231492 0.668810
0.679077 0.235073 0.672390
0.770782 0.238631 0.675949
0.854793 0.241891 0.679209
0.122099 0.317083 0.662742
0.222008 0.320960 0.666619
0.318582 0.324708 0.670366
0.413494 0.328391 0.674050
0.507285 0.332030 0.677689
0.600231 0.335637 0.681296
0.692500 0.339218 0.684877
0.784205 0.342776 0.688435
0.868216 0.346037 0.691696
0.135291 0.419437 0.675014
0.235200 0.423314 0.678891
0.331774 0.427062 0.682638
0.426686 0.430745 0.686321
0.520477 0.434384 0.689961
0.613423 0.437991 0.693568
0.705692 0.441572 0.697148
0.797397 0.445131 0.700707
0.881408 0.448391 0.703967
0.148328 0.520584 0.687141
0.248236 0.524461 0.691018
0.344811 0.528209 0.694765
0.439722 0.531892 0.698448
0.533513 0.535531 0.702088
0.626460 0.539138 0.705695
0.718729 0.542719 0.709276
0.810434 0.546278 0.712834
0.894445 0.549538 0.716094
0.161247 0.620821 0.699159
0.261156 0.624698 0.703036
0.357730 0.628445 0.706783
0.452642 0.632129 0.710466
0.546433 0.635768 0.714106
0.639379 0.639375 0.717713
0.731648 0.642956 0.721293
0.823353 0.646514 0.724852
0.907364 0.649774 0.728112
0.174072 0.720328 0.711089
0.273981 0.724205 0.714966
0.370555 0.727952 0.718714
0.465467 0.731635 0.722397
0.559258 0.735275 0.726036
0.652204 0.738882 0.729643
0.744474 0.742462 0.733224
0.836178 0.746021 0.736783
0.920189 0.749281 0.740043
0.186819 0.819226 0.722946
0.286728 0.823103 0.726823
0.383302 0.826850 0.730571
0.478214 0.830533 0.734254
0.572005 0.834173 0.737894
0.664951 0.837780 0.741501
0.757220 0.841361 0.745081
0.848925 0.844919 0.748640
0.932936 0.848179 0.751900
0.199499 0.917602 0.734741
0.299407 0.921479 0.738618
0.395982 0.925227 0.742366
0.490893 0.928910 0.746049
0.584684 0.932549 0.749689
0.677631 0.936156 0.753296
0.769900 0.939737 0.756876
0.861604 0.943296 0.760435
0.945615 0.946556 0.763695
0.096066 0.106394 0.724727
0.195974 0.110271 0.728604
0.292549 0.114018 0.732351
0.387460 0.117701 0.736034
0.481251 0.121341 0.739674
0.574197 0.124948 0.743281
0.666467 0.128529 0.746862
0.758171 0.132087 0.750420
0.842182 0.135347 0.753680
0.109950 0.214123 0.737643
0.209859 0.218000 0.741520
0.306434 0.221748 0.745268
0.401345 0.225431 0.748951
0.495136 0.229071 0.752590
0.588082 0.232677 0.756197
0.680352 0.236258 0.759778
0.772056 0.239817 0.763336
0.856067 0.243077 0.766597
0.123374 0.318268 0.750129
0.223282 0.322145 0.754006
0.319857 0.325893 0.757754
0.414768 0.329576 0.761437
0.508559 0.333216 0.765077
0.601505 0.336823 0.768684
0.693775 0.340403 0.772264
0.785479 0.343962 0.775823
0.869490 0.347222 0.779083
0.136566 0.420622 0.762401
0.236474 0.424499 0.766278
0.333049 0.428247 0.770026
0.427960 0.431930 0.773709
0.521751 0.435570 0.777349
0.614698 0.439177 0.780955
0.706967 0.442757 0.784536
0.798671 0.446316 0.788095
0.882683 0.449576 0.791355
0.149602 0.521769 0.774528
0.249511 0.525646 0.778405
0.346085 0.529394 0.782153
0.440997 0.533077 0.785836
0.534788 0.536717 0.789476
0.627734 0.540324 0.793083
0.720003 0.543904 0.796663
0.811708 0.547463 0.800222
0.895719 0.550723 0.803482
0.162522 0.622006 0.786546
0.262430 0.625883 0.790423
0.359005 0.629631 0.794171
0.453916 0.633314 0.797854
0.547707 0.636954 0.801494
0.640654 0.640561 0.805100
0.732923 0.644141 0.808681
0.824627 0.647700 0.812240
0.908638 0.650960 0.815500
0.175347 0.721513 0.798477
0.275255 0.725390 0.802354
0.371830 0.729138 0.806101
0.466741 0.732821 0.809784
0.560532 0.736461 0.813424
0.653479 0.740067 0.817031
0.745748 0.743648 0.820611
0.837452 0.747207 0.824170
0.921464 0.750467 0.827430
0.188093 0.820411 0.810334
0.288002 0.824288 0.814211
0.384577 0.828036 0.817959
0.479488 0.831719 0.821642
0.573279 0.835359 0.825281
0.666225 0.838965 0.828888
0.758495 0.842546 0.832469
0.850199 0.846105 0.836028
0.934210 0.849365 0.839288
0.200773 0.918787 0.822129
0.300682 0.922664 0.826006
0.397256 0.926412 0.829754
0.492167 0.930095 0.833437
0.585959 0.933735 0.837076
0.678905 0.937342 0.840683
0.771174 0.940922 0.844264
0.862879 0.944481 0.847822
0.946890 0.947741 0.851083
0.097333 0.107573 0.811653
0.197242 0.111450 0.815530
0.293816 0.115198 0.819278
0.388728 0.118881 0.822961
0.482519 0.122520 0.826601
0.575465 0.126127 0.830208
0.667734 0.129708 0.833788
0.759439 0.133266 0.837347
0.843450 0.136527 0.840607
0.111218 0.215302 0.824570
0.211127 0.219179 0.828447
0.307701 0.222927 0.832194
0.402613 0.226610 0.835877
0.496404 0.230250 0.839517
0.589350 0.233857 0.843124
0.681619 0.237437 0.846705
0.773324 0.240996 0.850263
0.857335 0.244256 0.853523
0.124641 0.319448 0.837056
0.224550 0.323325 0.840933
0.321124 0.327072 0.844681
0.416036 0.330755 0.848364
0.509827 0.334395 0.852004
0.602773 0.338002 0.855610
0.695042 0.341582 0.859191
0.786747 0.345141 0.862750
0.870758 0.348401 0.866010
0.137833 0.421802 0.849328
0.237742 0.425679 0.853205
0.334316 0.429426 0.856953
0.429228 0.433109 0.860636
0.523019 0.436749 0.864275
0.615965 0.440356 0.867882
0.708235 0.443937 0.871463
0.799939 0.447495 0.875022
0.883950 0.450755 0.878282
0.150870 0.522949 0.861455
0.250779 0.526826 0.865332
0.347353 0.530573 0.869080
0.442264 0.534256 0.872763
0.536056 0.537896 0.876402
0.629002 0.541503 0.880009
0.721271 0.545084 0.883590
0.812976 0.548642 0.887149
0.896987 0.551902 0.890409
0.163789 0.623185 0.873473
0.263698 0.627062 0.877350
0.360272 0.630810 0.881098
0.455184 0.634493 0.884781
0.548975 0.638133 0.888420
0.641921 0.641740 0.892027
0.734190 0.645320 0.895608
0.825895 0.648879 0.899167
0.909906 0.652139 0.902427
0.176614 0.722692 0.885403
0.276523 0.726569 0.889280
0.373098 0.730317 0.893028
0.468009 0.734000 0.896711
0.561800 0.737640 0.900351
0.654746 0.741247 0.903958
0.747016 0.744827 0.907538
0.838720 0.748386 0.911097
0.922731 0.751646 0.914357
0.189361 0.821590 0.897261
0.289270 0.825467 0.901138
0.385844 0.829215 0.904885
0.480756 0.832898 0.908569
0.574547 0.836538 0.912208
0.667493 0.840145 0.915815
0.759762 0.843725 0.919396
0.851467 0.847284 0.922954
0.935478 0.850544 0.926214
0.202041 0.919967 0.909056
0.301949 0.923844 0.912933
0.398524 0.927591 0.916680
0.493435 0.931275 0.920363
0.587226 0.934914 0.924003
0.680173 0.938521 0.927610
0.772442 0.942102 0.931191
0.864146 0.945660 0.934749
0.948157 0.948920 0.938009
