assets/luts/primelive_amb_rainy_bluegrey.cube
TITLE "primelive Rainy Blue-Grey"
LUT_3D_SIZE 33
DOMAIN_MIN 0.0 0.0 0.0
DOMAIN_MAX 1.0 1.0 1.0
0.027652 0.042279 0.061906
0.056050 0.042933 0.062495
0.083979 0.043576 0.063073
0.111619 0.044212 0.063646
0.139048 0.044844 0.064214
0.166311 0.045471 0.064779
0.193438 0.046096 0.065342
0.220450 0.046718 0.065901
0.247362 0.047338 0.066459
0.274185 0.047955 0.067015
0.300928 0.048571 0.067569
0.327600 0.049185 0.068122
0.354206 0.049798 0.068673
0.380752 0.050409 0.069223
0.407242 0.051019 0.069772
0.433680 0.051627 0.070320
0.460070 0.052235 0.070867
0.486414 0.052841 0.071412
0.512715 0.053447 0.071957
0.538975 0.054052 0.072502
0.565197 0.054655 0.073045
0.591382 0.055258 0.073588
0.617532 0.055860 0.074129
0.643649 0.056462 0.074671
0.669735 0.057062 0.075211
0.695789 0.057662 0.075751
0.721814 0.058261 0.076290
0.747811 0.058860 0.076829
0.773781 0.059458 0.077367
0.799725 0.060055 0.077905
0.825643 0.060652 0.078442
0.851537 0.061248 0.078978
0.877407 0.061844 0.079514
0.030145 0.073072 0.063946
0.058543 0.073726 0.064535
0.086473 0.074369 0.065114
0.114113 0.075005 0.065686
0.141541 0.075637 0.066255
0.168805 0.076265 0.066820
0.195932 0.076889 0.067382
0.222944 0.077511 0.067941
0.249855 0.078131 0.068499
0.276678 0.078748 0.069055
0.303422 0.079364 0.069609
0.330093 0.079978 0.070162
0.356700 0.080591 0.070713
0.383246 0.081202 0.071263
0.409736 0.081812 0.071812
0.436174 0.082420 0.072360
0.462563 0.083028 0.072907
0.488907 0.083635 0.073453
0.515208 0.084240 0.073998
0.541469 0.084845 0.074542
0.567690 0.085448 0.075085
0.593876 0.086051 0.075628
0.620026 0.086653 0.076170
0.646143 0.087255 0.076711
0.672228 0.087855 0.077251
0.698283 0.088455 0.077791
0.724308 0.089054 0.078331
0.750305 0.089653 0.078869
0.776275 0.090251 0.079407
0.802218 0.090848 0.079945
0.828137 0.091445 0.080482
0.854030 0.092041 0.081019
0.879901 0.092637 0.081555
0.032597 0.103349 0.065952
0.060995 0.104003 0.066541
0.088925 0.104646 0.067120
0.116564 0.105283 0.067692
0.143993 0.105914 0.068261
0.171257 0.106542 0.068826
0.198384 0.107166 0.069388
0.225396 0.107788 0.069947
0.252307 0.108408 0.070505
0.279130 0.109026 0.071061
0.305874 0.109641 0.071615
0.332545 0.110255 0.072168
0.359151 0.110868 0.072719
0.385697 0.111479 0.073269
0.412187 0.112089 0.073818
0.438626 0.112698 0.074366
0.465015 0.113305 0.074913
0.491359 0.113912 0.075459
0.517660 0.114517 0.076004
0.543920 0.115122 0.076548
0.570142 0.115726 0.077091
0.596328 0.116329 0.077634
0.622478 0.116931 0.078176
0.648595 0.117532 0.078717
0.674680 0.118133 0.079257
0.700735 0.118733 0.079797
0.726760 0.119332 0.080337
0.752757 0.119930 0.080875
0.778727 0.120528 0.081413
0.804670 0.121126 0.081951
0.830588 0.121722 0.082488
0.856482 0.122318 0.083025
0.882352 0.122914 0.083561
0.035023 0.133309 0.067937
0.063421 0.133963 0.068526
0.091351 0.134606 0.069105
0.118990 0.135242 0.069677
0.146419 0.135874 0.070246
0.173683 0.136502 0.070811
0.200810 0.137126 0.071373
0.227822 0.137748 0.071932
0.254733 0.138368 0.072490
0.281556 0.138985 0.073046
0.308300 0.139601 0.073600
0.334971 0.140215 0.074153
0.361578 0.140828 0.074704
0.388123 0.141439 0.075254
0.414614 0.142049 0.075803
0.441052 0.142658 0.076351
0.467441 0.143265 0.076898
0.493785 0.143872 0.077444
0.520086 0.144477 0.077989
0.546347 0.145082 0.078533
0.572568 0.145686 0.079076
0.598754 0.146289 0.079619
0.624904 0.146891 0.080161
0.651021 0.147492 0.080702
0.677106 0.148093 0.081242
0.703161 0.148692 0.081782
0.729186 0.149292 0.082322
0.755183 0.149890 0.082860
0.781153 0.150488 0.083398
0.807096 0.151085 0.083936
0.833015 0.151682 0.084473
0.858908 0.152278 0.085010
0.884778 0.152874 0.085546
0.037431 0.163039 0.069907
0.065829 0.163693 0.070496
0.093758 0.164336 0.071074
0.121398 0.164972 0.071647
0.148827 0.165604 0.072215
0.176090 0.166232 0.072780
0.203217 0.166856 0.073342
0.230229 0.167478 0.073902
0.257141 0.168098 0.074460
0.283964 0.168715 0.075016
0.310707 0.169331 0.075570
0.337379 0.169945 0.076123
0.363985 0.170558 0.076674
0.390531 0.171169 0.077224
0.417021 0.171779 0.077773
0.443459 0.172387 0.078321
0.469849 0.172995 0.078868
0.496193 0.173602 0.079413
0.522494 0.174207 0.079958
0.548754 0.174812 0.080503
0.574976 0.175416 0.081046
0.601161 0.176018 0.081589
0.627311 0.176620 0.082130
0.653428 0.177222 0.082672
0.679514 0.177822 0.083212
0.705568 0.178422 0.083752
0.731593 0.179021 0.084291
0.757590 0.179620 0.084830
0.783560 0.180218 0.085368
0.809504 0.180815 0.085906
0.835422 0.181412 0.086443
0.861316 0.182008 0.086979
0.887186 0.182604 0.087515
0.039824 0.192589 0.071865
0.068222 0.193243 0.072453
0.096151 0.193886 0.073032
0.123791 0.194522 0.073605
0.151220 0.195153 0.074173
0.178483 0.195781 0.074738
0.205610 0.196406 0.075300
0.232622 0.197028 0.075860
0.259534 0.197647 0.076418
0.286356 0.198265 0.076973
0.313100 0.198881 0.077528
0.339772 0.199495 0.078080
0.366378 0.200107 0.078632
0.392924 0.200718 0.079182
0.419414 0.201328 0.079731
0.445852 0.201937 0.080278
0.472242 0.202545 0.080825
0.498586 0.203151 0.081371
0.524887 0.203757 0.081916
0.551147 0.204361 0.082460
0.577369 0.204965 0.083004
0.603554 0.205568 0.083546
0.629704 0.206170 0.084088
0.655821 0.206771 0.084629
0.681906 0.207372 0.085170
0.707961 0.207972 0.085710
0.733986 0.208571 0.086249
0.759983 0.209170 0.086788
0.785953 0.209768 0.087326
0.811897 0.210365 0.087864
0.837815 0.210962 0.088401
0.863709 0.211558 0.088937
0.889579 0.212153 0.089473
0.042204 0.221990 0.073813
0.070602 0.222644 0.074401
0.098532 0.223287 0.074980
0.126172 0.223923 0.075553
0.153600 0.224555 0.076121
0.180864 0.225183 0.076686
0.207991 0.225807 0.077248
0.235003 0.226429 0.077808
0.261914 0.227049 0.078366
0.288737 0.227666 0.078921
0.315481 0.228282 0.079476
0.342153 0.228896 0.080028
0.368759 0.229509 0.080580
0.395305 0.230120 0.081130
0.421795 0.230730 0.081679
0.448233 0.231339 0.082226
0.474622 0.231946 0.082773
0.500966 0.232553 0.083319
0.527267 0.233158 0.083864
0.553528 0.233763 0.084408
0.579750 0.234367 0.084952
0.605935 0.234970 0.085494
0.632085 0.235572 0.086036
0.658202 0.236173 0.086577
0.684287 0.236773 0.087118
0.710342 0.237373 0.087658
0.736367 0.237973 0.088197
0.762364 0.238571 0.088736
0.788334 0.239169 0.089274
0.814277 0.239766 0.089811
0.840196 0.240363 0.090349
0.866090 0.240959 0.090885
0.891960 0.241555 0.091421
0.044575 0.251266 0.075753
0.072973 0.251920 0.076341
0.100903 0.252563 0.076920
0.128542 0.253199 0.077493
0.155971 0.253831 0.078061
0.183235 0.254459 0.078626
0.210362 0.255083 0.079188
0.237374 0.255705 0.079748
0.264285 0.256325 0.080305
0.291108 0.256942 0.080861
0.317852 0.257558 0.081415
0.344523 0.258172 0.081968
0.371130 0.258785 0.082519
0.397675 0.259396 0.083069
0.424165 0.260006 0.083618
0.450604 0.260614 0.084166
0.476993 0.261222 0.084713
0.503337 0.261829 0.085259
0.529638 0.262434 0.085804
0.555898 0.263039 0.086348
0.582120 0.263642 0.086891
0.608306 0.264245 0.087434
0.634456 0.264847 0.087976
0.660573 0.265449 0.088517
0.686658 0.266049 0.089058
0.712713 0.266649 0.089597
0.738738 0.267248 0.090137
0.764735 0.267847 0.090675
0.790705 0.268445 0.091214
0.816648 0.269042 0.091751
0.842566 0.269639 0.092288
0.868460 0.270235 0.092825
0.894330 0.270831 0.093361
0.046937 0.280433 0.077685
0.075335 0.281087 0.078273
0.103265 0.281730 0.078852
0.130904 0.282366 0.079425
0.158333 0.282998 0.079993
0.185596 0.283625 0.080558
0.212724 0.284250 0.081120
0.239736 0.284872 0.081680
0.266647 0.285491 0.082238
0.293470 0.286109 0.082794
0.320213 0.286725 0.083348
0.346885 0.287339 0.083900
0.373491 0.287951 0.084452
0.400037 0.288563 0.085002
0.426527 0.289172 0.085551
0.452965 0.289781 0.086099
0.479355 0.290389 0.086645
0.505699 0.290995 0.087191
0.532000 0.291601 0.087736
0.558260 0.292205 0.088280
0.584482 0.292809 0.088824
0.610667 0.293412 0.089366
0.636818 0.294014 0.089908
0.662935 0.294615 0.090449
0.689020 0.295216 0.090990
0.715074 0.295816 0.091530
0.741100 0.296415 0.092069
0.767097 0.297014 0.092608
0.793066 0.297612 0.093146
0.819010 0.298209 0.093684
0.844928 0.298806 0.094221
0.870822 0.299402 0.094757
0.896692 0.299997 0.095293
0.049291 0.309503 0.079611
0.077689 0.310157 0.080200
0.105619 0.310800 0.080778
0.133258 0.311436 0.081351
0.160687 0.312068 0.081919
0.187951 0.312696 0.082484
0.215078 0.313320 0.083046
0.242090 0.313942 0.083606
0.269001 0.314562 0.084164
0.295824 0.315179 0.084720
0.322568 0.315795 0.085274
0.349239 0.316409 0.085827
0.375845 0.317022 0.086378
0.402391 0.317633 0.086928
0.428881 0.318243 0.087477
0.455320 0.318852 0.088025
0.481709 0.319459 0.088571
0.508053 0.320066 0.089117
0.534354 0.320671 0.089662
0.560614 0.321276 0.090207
0.586836 0.321880 0.090750
0.613021 0.322482 0.091292
0.639172 0.323085 0.091834
0.665289 0.323686 0.092376
0.691374 0.324286 0.092916
0.717429 0.324886 0.093456
0.743454 0.325486 0.093995
0.769451 0.326084 0.094534
0.795421 0.326682 0.095072
0.821364 0.327279 0.095610
0.847282 0.327876 0.096147
0.873176 0.328472 0.096683
0.899046 0.329068 0.097219
0.051638 0.338487 0.081531
0.080036 0.339141 0.082120
0.107966 0.339784 0.082699
0.135605 0.340421 0.083271
0.163034 0.341052 0.083840
0.190298 0.341680 0.084405
0.217425 0.342304 0.084967
0.244437 0.342926 0.085527
0.271348 0.343546 0.086084
0.298171 0.344164 0.086640
0.324915 0.344779 0.087194
0.351586 0.345393 0.087747
0.378193 0.346006 0.088298
0.404738 0.346617 0.088848
0.431229 0.347227 0.089397
0.457667 0.347836 0.089945
0.484056 0.348443 0.090492
0.510400 0.349050 0.091038
0.536701 0.349655 0.091583
0.562962 0.350260 0.092127
0.589183 0.350864 0.092670
0.615369 0.351467 0.093213
0.641519 0.352069 0.093755
0.667636 0.352670 0.094296
0.693721 0.353271 0.094836
0.719776 0.353871 0.095376
0.745801 0.354470 0.095916
0.771798 0.355068 0.096454
0.797768 0.355666 0.096992
0.823711 0.356264 0.097530
0.849629 0.356860 0.098067
0.875523 0.357456 0.098604
0.901393 0.358052 0.099140
0.053979 0.367394 0.083447
0.082377 0.368047 0.084035
0.110307 0.368691 0.084614
0.137946 0.369327 0.085187
0.165375 0.369958 0.085755
0.192638 0.370586 0.086320
0.219766 0.371211 0.086882
0.246777 0.371833 0.087442
0.273689 0.372452 0.087999
0.300512 0.373070 0.088555
0.327255 0.373686 0.089109
0.353927 0.374300 0.089662
0.380533 0.374912 0.090213
0.407079 0.375523 0.090763
0.433569 0.376133 0.091312
0.460007 0.376742 0.091860
0.486397 0.377350 0.092407
0.512741 0.377956 0.092953
0.539042 0.378562 0.093498
0.565302 0.379166 0.094042
0.591524 0.379770 0.094585
0.617709 0.380373 0.095128
0.643860 0.380975 0.095670
0.669977 0.381576 0.096211
0.696062 0.382177 0.096752
0.722116 0.382777 0.097291
0.748142 0.383376 0.097831
0.774139 0.383975 0.098369
0.800108 0.384572 0.098908
0.826052 0.385170 0.099445
0.851970 0.385767 0.099982
0.877864 0.386363 0.100519
0.903734 0.386958 0.101055
0.056314 0.396229 0.085357
0.084712 0.396882 0.085946
0.112642 0.397526 0.086524
0.140281 0.398162 0.087097
0.167710 0.398793 0.087665
0.194973 0.399421 0.088230
0.222101 0.400046 0.088792
0.249113 0.400668 0.089352
0.276024 0.401287 0.089910
0.302847 0.401905 0.090466
0.329590 0.402521 0.091020
0.356262 0.403135 0.091572
0.382868 0.403747 0.092124
0.409414 0.404358 0.092674
0.435904 0.404968 0.093223
0.462342 0.405577 0.093771
0.488732 0.406185 0.094317
0.515076 0.406791 0.094863
0.541377 0.407397 0.095408
0.567637 0.408001 0.095953
0.593859 0.408605 0.096496
0.620044 0.409208 0.097038
0.646195 0.409810 0.097580
0.672312 0.410411 0.098122
0.698397 0.411012 0.098662
0.724451 0.411612 0.099202
0.750477 0.412211 0.099741
0.776474 0.412810 0.100280
0.802443 0.413407 0.100818
0.828387 0.414005 0.101356
0.854305 0.414602 0.101893
0.880199 0.415198 0.102429
0.906069 0.415793 0.102965
0.058644 0.424998 0.087263
0.087042 0.425652 0.087852
0.114971 0.426295 0.088430
0.142611 0.426931 0.089003
0.170040 0.427563 0.089572
0.197303 0.428191 0.090136
0.224430 0.428815 0.090699
0.251442 0.429437 0.091258
0.278354 0.430057 0.091816
0.305177 0.430674 0.092372
0.331920 0.431290 0.092926
0.358592 0.431904 0.093479
0.385198 0.432517 0.094030
0.411744 0.433128 0.094580
0.438234 0.433738 0.095129
0.464672 0.434347 0.095677
0.491062 0.434954 0.096224
0.517406 0.435561 0.096769
0.543707 0.436166 0.097314
0.569967 0.436771 0.097859
0.596189 0.437375 0.098402
0.622374 0.437977 0.098945
0.648524 0.438580 0.099486
0.674641 0.439181 0.100028
0.700727 0.439781 0.100568
0.726781 0.440381 0.101108
0.752806 0.440981 0.101647
0.778803 0.441579 0.102186
0.804773 0.442177 0.102724
0.830717 0.442774 0.103262
0.856635 0.443371 0.103799
0.882529 0.443967 0.104335
0.908399 0.444563 0.104871
0.060968 0.453707 0.089165
0.089367 0.454361 0.089754
0.117296 0.455004 0.090333
0.144936 0.455640 0.090905
0.172365 0.456272 0.091474
0.199628 0.456900 0.092039
0.226755 0.457524 0.092601
0.253767 0.458146 0.093160
0.280678 0.458766 0.093718
0.307501 0.459383 0.094274
0.334245 0.459999 0.094828
0.360917 0.460613 0.095381
0.387523 0.461226 0.095932
0.414069 0.461837 0.096482
0.440559 0.462447 0.097031
0.466997 0.463056 0.097579
0.493387 0.463663 0.098126
0.519730 0.464270 0.098672
0.546031 0.464875 0.099217
0.572292 0.465480 0.099761
0.598514 0.466084 0.100304
0.624699 0.466686 0.100847
0.650849 0.467289 0.101389
0.676966 0.467890 0.101930
0.703051 0.468490 0.102470
0.729106 0.469090 0.103010
0.755131 0.469689 0.103549
0.781128 0.470288 0.104088
0.807098 0.470886 0.104626
0.833041 0.471483 0.105164
0.858960 0.472080 0.105701
0.884854 0.472676 0.106238
0.910724 0.473272 0.106774
0.063289 0.482360 0.091064
0.091687 0.483014 0.091652
0.119616 0.483657 0.092231
0.147256 0.484293 0.092804
0.174685 0.484924 0.093372
0.201948 0.485552 0.093937
0.229075 0.486177 0.094499
0.256087 0.486799 0.095059
0.282999 0.487418 0.095616
0.309822 0.488036 0.096172
0.336565 0.488652 0.096726
0.363237 0.489266 0.097279
0.389843 0.489878 0.097830
0.416389 0.490489 0.098380
0.442879 0.491099 0.098929
0.469317 0.491708 0.099477
0.495707 0.492316 0.100024
0.522051 0.492922 0.100570
0.548352 0.493528 0.101115
0.574612 0.494132 0.101659
0.600834 0.494736 0.102202
0.627019 0.495339 0.102745
0.653169 0.495941 0.103287
0.679286 0.496542 0.103828
0.705372 0.497143 0.104369
0.731426 0.497743 0.104909
0.757451 0.498342 0.105448
0.783448 0.498941 0.105987
0.809418 0.499539 0.106525
0.835362 0.500136 0.107062
0.861280 0.500733 0.107599
0.887174 0.501329 0.108136
0.913044 0.501924 0.108672
0.065605 0.510959 0.092959
0.094003 0.511613 0.093547
0.121932 0.512256 0.094126
0.149572 0.512893 0.094699
0.177001 0.513524 0.095267
0.204264 0.514152 0.095832
0.231391 0.514777 0.096394
0.258403 0.515398 0.096954
0.285315 0.516018 0.097511
0.312138 0.516636 0.098067
0.338881 0.517251 0.098621
0.365553 0.517865 0.099174
0.392159 0.518478 0.099725
0.418705 0.519089 0.100275
0.445195 0.519699 0.100824
0.471633 0.520308 0.101372
0.498023 0.520915 0.101919
0.524367 0.521522 0.102465
0.550668 0.522128 0.103010
0.576928 0.522732 0.103554
0.603150 0.523336 0.104097
0.629335 0.523939 0.104640
0.655485 0.524541 0.105182
0.681602 0.525142 0.105723
0.707688 0.525743 0.106264
0.733742 0.526343 0.106803
0.759767 0.526942 0.107343
0.785764 0.527540 0.107881
0.811734 0.528138 0.108420
0.837678 0.528736 0.108957
0.863596 0.529332 0.109494
0.889490 0.529929 0.110031
0.915360 0.530524 0.110567
0.067917 0.539510 0.094850
0.096315 0.540164 0.095439
0.124244 0.540807 0.096017
0.151884 0.541443 0.096590
0.179313 0.542075 0.097158
0.206576 0.542702 0.097723
0.233703 0.543327 0.098286
0.260715 0.543949 0.098845
0.287627 0.544568 0.099403
0.314450 0.545186 0.099959
0.341193 0.545802 0.100513
0.367865 0.546416 0.101066
0.394471 0.547028 0.101617
0.421017 0.547640 0.102167
0.447507 0.548249 0.102716
0.473945 0.548858 0.103264
0.500335 0.549466 0.103811
0.526679 0.550072 0.104356
0.552980 0.550678 0.104901
0.579240 0.551283 0.105446
0.605462 0.551886 0.105989
0.631647 0.552489 0.106532
0.657797 0.553091 0.107073
0.683914 0.553693 0.107615
0.709999 0.554293 0.108155
0.736054 0.554893 0.108695
0.762079 0.555492 0.109234
0.788076 0.556091 0.109773
0.814046 0.556689 0.110311
0.839990 0.557286 0.110849
0.865908 0.557883 0.111386
0.891802 0.558479 0.111922
0.917672 0.559075 0.112458
0.070225 0.568014 0.096739
0.098623 0.568667 0.097327
0.126553 0.569310 0.097906
0.154192 0.569947 0.098479
0.181621 0.570578 0.099047
0.208884 0.571206 0.099612
0.236012 0.571831 0.100174
0.263023 0.572453 0.100734
0.289935 0.573072 0.101291
0.316758 0.573690 0.101847
0.343501 0.574305 0.102401
0.370173 0.574920 0.102954
0.396779 0.575532 0.103505
0.423325 0.576143 0.104055
0.449815 0.576753 0.104604
0.476253 0.577362 0.105152
0.502643 0.577969 0.105699
0.528987 0.578576 0.106245
0.555288 0.579182 0.106790
0.581548 0.579786 0.107334
0.607770 0.580390 0.107877
0.633955 0.580993 0.108420
0.660106 0.581595 0.108962
0.686223 0.582196 0.109503
0.712308 0.582797 0.110044
0.738362 0.583397 0.110584
0.764387 0.583996 0.111123
0.790384 0.584594 0.111662
0.816354 0.585192 0.112200
0.842298 0.585790 0.112737
0.868216 0.586386 0.113274
0.894110 0.586983 0.113811
0.919980 0.587578 0.114347
0.072529 0.596473 0.098624
0.100927 0.597127 0.099213
0.128857 0.597770 0.099791
0.156497 0.598406 0.100364
0.183925 0.599038 0.100933
0.211189 0.599666 0.101498
0.238316 0.600290 0.102060
0.265328 0.600912 0.102619
0.292239 0.601532 0.103177
0.319062 0.602149 0.103733
0.345806 0.602765 0.104287
0.372478 0.603379 0.104840
0.399084 0.603992 0.105391
0.425630 0.604603 0.105941
0.452120 0.605213 0.106490
0.478558 0.605821 0.107038
0.504947 0.606429 0.107585
0.531291 0.607036 0.108131
0.557592 0.607641 0.108676
0.583853 0.608246 0.109220
0.610075 0.608850 0.109763
0.636260 0.609452 0.110306
0.662410 0.610055 0.110848
0.688527 0.610656 0.111389
0.714612 0.611256 0.111929
0.740667 0.611856 0.112469
0.766692 0.612455 0.113008
0.792689 0.613054 0.113547
0.818659 0.613652 0.114085
0.844602 0.614249 0.114623
0.870521 0.614846 0.115160
0.896415 0.615442 0.115696
0.922285 0.616038 0.116233
0.074831 0.624891 0.100507
0.103229 0.625545 0.101096
0.131158 0.626188 0.101674
0.158798 0.626824 0.102247
0.186227 0.627456 0.102815
0.213490 0.628083 0.103380
0.240617 0.628708 0.103942
0.267629 0.629330 0.104502
0.294541 0.629950 0.105060
0.321364 0.630567 0.105616
0.348107 0.631183 0.106170
0.374779 0.631797 0.106722
0.401385 0.632409 0.107274
0.427931 0.633021 0.107824
0.454421 0.633631 0.108373
0.480859 0.634239 0.108921
0.507249 0.634847 0.109467
0.533593 0.635453 0.110013
0.559894 0.636059 0.110558
0.586154 0.636664 0.111103
0.612376 0.637267 0.111646
0.638561 0.637870 0.112188
0.664711 0.638472 0.112730
0.690828 0.639074 0.113272
0.716913 0.639674 0.113812
0.742968 0.640274 0.114352
0.768993 0.640873 0.114891
0.794990 0.641472 0.115430
0.820960 0.642070 0.115968
0.846904 0.642667 0.116506
0.872822 0.643264 0.117043
0.898716 0.643860 0.117579
0.924586 0.644456 0.118115
0.077129 0.653269 0.102387
0.105527 0.653923 0.102976
0.133456 0.654566 0.103554
0.161096 0.655202 0.104127
0.188525 0.655834 0.104696
0.215788 0.656461 0.105261
0.242915 0.657086 0.105823
0.269927 0.657708 0.106382
0.296839 0.658328 0.106940
0.323662 0.658945 0.107496
0.350405 0.659561 0.108050
0.377077 0.660175 0.108603
0.403683 0.660788 0.109154
0.430229 0.661399 0.109704
0.456719 0.662009 0.110253
0.483157 0.662617 0.110801
0.509547 0.663225 0.111348
0.535891 0.663831 0.111894
0.562192 0.664437 0.112439
0.588452 0.665042 0.112983
0.614674 0.665645 0.113526
0.640859 0.666248 0.114069
0.667009 0.666850 0.114611
0.693126 0.667452 0.115152
0.719212 0.668052 0.115692
0.745266 0.668652 0.116232
0.771291 0.669251 0.116771
0.797288 0.669850 0.117310
0.823258 0.670448 0.117848
0.849202 0.671045 0.118386
0.875120 0.671642 0.118923
0.901014 0.672238 0.119459
0.926884 0.672834 0.119996
0.079424 0.681609 0.104265
0.107822 0.682263 0.104853
0.135751 0.682906 0.105432
0.163391 0.683542 0.106005
0.190820 0.684174 0.106573
0.218083 0.684802 0.107138
0.245210 0.685426 0.107700
0.272222 0.686048 0.108260
0.299134 0.686668 0.108818
0.325956 0.687285 0.109374
0.352700 0.687901 0.109928
0.379372 0.688515 0.110480
0.405978 0.689128 0.111032
0.432524 0.689739 0.111582
0.459014 0.690349 0.112131
0.485452 0.690958 0.112679
0.511842 0.691565 0.113225
0.538186 0.692172 0.113771
0.564487 0.692777 0.114316
0.590747 0.693382 0.114860
0.616969 0.693986 0.115404
0.643154 0.694588 0.115946
0.669304 0.695191 0.116488
0.695421 0.695792 0.117029
0.721506 0.696392 0.117570
0.747561 0.696992 0.118110
0.773586 0.697592 0.118649
0.799583 0.698190 0.119188
0.825553 0.698788 0.119726
0.851497 0.699385 0.120264
0.877415 0.699982 0.120801
0.903309 0.700578 0.121337
0.929179 0.701174 0.121873
0.081716 0.709913 0.106140
0.110114 0.710567 0.106729
0.138043 0.711210 0.107307
0.165683 0.711846 0.107880
0.193112 0.712478 0.108449
0.220375 0.713106 0.109013
0.247502 0.713730 0.109576
0.274514 0.714352 0.110135
0.301426 0.714972 0.110693
0.328248 0.715589 0.111249
0.354992 0.716205 0.111803
0.381664 0.716819 0.112356
0.408270 0.717432 0.112907
0.434816 0.718043 0.113457
0.461306 0.718653 0.114006
0.487744 0.719262 0.114554
0.514134 0.719869 0.115101
0.540478 0.720476 0.115647
0.566779 0.721081 0.116192
0.593039 0.721686 0.116736
0.619261 0.722290 0.117279
0.645446 0.722893 0.117822
0.671596 0.723495 0.118364
0.697713 0.724096 0.118905
0.723798 0.724697 0.119445
0.749853 0.725296 0.119985
0.775878 0.725896 0.120524
0.801875 0.726494 0.121063
0.827845 0.727092 0.121601
0.853789 0.727689 0.122139
0.879707 0.728286 0.122676
0.905601 0.728882 0.123212
0.931471 0.729478 0.123749
0.084005 0.738183 0.108013
0.112403 0.738837 0.108602
0.140333 0.739480 0.109180
0.167972 0.740116 0.109753
0.195401 0.740747 0.110322
0.222664 0.741375 0.110886
0.249792 0.742000 0.111449
0.276803 0.742622 0.112008
0.303715 0.743241 0.112566
0.330538 0.743859 0.113122
0.357281 0.744475 0.113676
0.383953 0.745089 0.114229
0.410559 0.745701 0.114780
0.437105 0.746312 0.115330
0.463595 0.746922 0.115879
0.490033 0.747531 0.116427
0.516423 0.748139 0.116974
0.542767 0.748745 0.117520
0.569068 0.749351 0.118065
0.595328 0.749955 0.118609
0.621550 0.750559 0.119152
0.647735 0.751162 0.119695
0.673886 0.751764 0.120236
0.700003 0.752365 0.120778
0.726088 0.752966 0.121318
0.752142 0.753566 0.121858
0.778167 0.754165 0.122397
0.804164 0.754764 0.122936
0.830134 0.755362 0.123474
0.856078 0.755959 0.124012
0.881996 0.756556 0.124549
0.907890 0.757152 0.125085
0.933760 0.757747 0.125622
0.086291 0.766419 0.109884
0.114689 0.767073 0.110472
0.142619 0.767716 0.111051
0.170259 0.768352 0.111624
0.197687 0.768984 0.112192
0.224951 0.769611 0.112757
0.252078 0.770236 0.113319
0.279090 0.770858 0.113879
0.306001 0.771478 0.114437
0.332824 0.772095 0.114993
0.359568 0.772711 0.115547
0.386240 0.773325 0.116099
0.412846 0.773938 0.116651
0.439392 0.774549 0.117201
0.465882 0.775159 0.117750
0.492320 0.775767 0.118298
0.518709 0.776375 0.118844
0.545053 0.776982 0.119390
0.571354 0.777587 0.119935
0.597615 0.778192 0.120479
0.623837 0.778795 0.121023
0.650022 0.779398 0.121565
0.676172 0.780000 0.122107
0.702289 0.780602 0.122648
0.728374 0.781202 0.123189
0.754429 0.781802 0.123729
0.780454 0.782401 0.124268
0.806451 0.783000 0.124807
0.832421 0.783598 0.125345
0.858364 0.784195 0.125883
0.884283 0.784792 0.126420
0.910176 0.785388 0.126956
0.936047 0.785984 0.127492
0.088575 0.794623 0.111753
0.116973 0.795277 0.112341
0.144903 0.795920 0.112920
0.172543 0.796557 0.113493
0.199971 0.797188 0.114061
0.227235 0.797816 0.114626
0.254362 0.798441 0.115188
0.281374 0.799062 0.115748
0.308285 0.799682 0.116305
0.335108 0.800300 0.116861
0.361852 0.800915 0.117415
0.388523 0.801529 0.117968
0.415130 0.802142 0.118519
0.441676 0.802753 0.119070
0.468166 0.803363 0.119618
0.494604 0.803972 0.120166
0.520993 0.804579 0.120713
0.547337 0.805186 0.121259
0.573638 0.805792 0.121804
0.599899 0.806396 0.122348
0.626120 0.807000 0.122891
0.652306 0.807603 0.123434
0.678456 0.808205 0.123976
0.704573 0.808806 0.124517
0.730658 0.809407 0.125058
0.756713 0.810007 0.125598
0.782738 0.810606 0.126137
