assets/luts/primelive_dongri.cube
TITLE "primelive_dongri"
LUT_3D_SIZE 33
0.255200 0.255200 0.255200
0.278494 0.255341 0.255341
0.301788 0.255483 0.255483
0.325081 0.255624 0.255624
0.348375 0.255765 0.255765
0.371669 0.255906 0.255906
0.394963 0.256048 0.256048
0.418256 0.256189 0.256189
0.441550 0.256330 0.256330
0.464844 0.256471 0.256471
0.488138 0.256613 0.256613
0.511432 0.256754 0.256754
0.534725 0.256895 0.256895
0.558019 0.257037 0.257037
0.581313 0.257178 0.257178
0.604607 0.257319 0.257319
0.627900 0.257460 0.257460
0.651194 0.257602 0.257602
0.674488 0.257743 0.257743
0.697782 0.257884 0.257884
0.721076 0.258026 0.258026
0.744369 0.258167 0.258167
0.767663 0.258308 0.258308
0.790957 0.258449 0.258449
0.814251 0.258591 0.258591
0.837544 0.258732 0.258732
0.860838 0.258873 0.258873
0.884132 0.259014 0.259014
0.907426 0.259156 0.259156
0.930720 0.259297 0.259297
0.954013 0.259438 0.259438
0.977307 0.259580 0.259580
1.000000 0.259721 0.259721
0.255480 0.278853 0.255480
0.278774 0.278994 0.255621
0.302068 0.279136 0.255763
0.325361 0.279277 0.255904
0.348655 0.279418 0.256045
0.371949 0.279559 0.256186
0.395243 0.279701 0.256328
0.418536 0.279842 0.256469
0.441830 0.279983 0.256610
0.465124 0.280124 0.256751
0.488418 0.280266 0.256893
0.511712 0.280407 0.257034
0.535005 0.280548 0.257175
0.558299 0.280690 0.257317
0.581593 0.280831 0.257458
0.604887 0.280972 0.257599
0.628180 0.281113 0.257740
0.651474 0.281255 0.257882
0.674768 0.281396 0.258023
0.698062 0.281537 0.258164
0.721356 0.281679 0.258306
0.744649 0.281820 0.258447
0.767943 0.281961 0.258588
0.791237 0.282102 0.258729
0.814531 0.282244 0.258871
0.837824 0.282385 0.259012
0.861118 0.282526 0.259153
0.884412 0.282667 0.259294
0.907706 0.282809 0.259436
0.931000 0.282950 0.259577
0.954293 0.283091 0.259718
0.977587 0.283233 0.259860
1.000000 0.283374 0.260001
0.255760 0.302506 0.255760
0.279054 0.302647 0.255901
0.302348 0.302789 0.256043
0.325641 0.302930 0.256184
0.348935 0.303071 0.256325
0.372229 0.303212 0.256466
0.395523 0.303354 0.256608
0.418816 0.303495 0.256749
0.442110 0.303636 0.256890
0.465404 0.303777 0.257031
0.488698 0.303919 0.257173
0.511992 0.304060 0.257314
0.535285 0.304201 0.257455
0.558579 0.304343 0.257597
0.581873 0.304484 0.257738
0.605167 0.304625 0.257879
0.628460 0.304766 0.258020
0.651754 0.304908 0.258162
0.675048 0.305049 0.258303
0.698342 0.305190 0.258444
0.721636 0.305332 0.258586
0.744929 0.305473 0.258727
0.768223 0.305614 0.258868
0.791517 0.305755 0.259009
0.814811 0.305897 0.259151
0.838104 0.306038 0.259292
0.861398 0.306179 0.259433
0.884692 0.306320 0.259574
0.907986 0.306462 0.259716
0.931280 0.306603 0.259857
0.954573 0.306744 0.259998
0.977867 0.306886 0.260140
1.000000 0.307027 0.260281
0.256040 0.326159 0.256040
0.279334 0.326300 0.256181
0.302628 0.326442 0.256323
0.325921 0.326583 0.256464
0.349215 0.326724 0.256605
0.372509 0.326865 0.256746
0.395803 0.327007 0.256888
0.419096 0.327148 0.257029
0.442390 0.327289 0.257170
0.465684 0.327430 0.257311
0.488978 0.327572 0.257453
0.512272 0.327713 0.257594
0.535565 0.327854 0.257735
0.558859 0.327996 0.257877
0.582153 0.328137 0.258018
0.605447 0.328278 0.258159
0.628740 0.328419 0.258300
0.652034 0.328561 0.258442
0.675328 0.328702 0.258583
0.698622 0.328843 0.258724
0.721916 0.328985 0.258866
0.745209 0.329126 0.259007
0.768503 0.329267 0.259148
0.791797 0.329408 0.259289
0.815091 0.329550 0.259431
0.838384 0.329691 0.259572
0.861678 0.329832 0.259713
0.884972 0.329973 0.259854
0.908266 0.330115 0.259996
0.931560 0.330256 0.260137
0.954853 0.330397 0.260278
0.978147 0.330539 0.260420
1.000000 0.330680 0.260561
0.256320 0.349812 0.256320
0.279614 0.349953 0.256461
0.302908 0.350095 0.256603
0.326201 0.350236 0.256744
0.349495 0.350377 0.256885
0.372789 0.350518 0.257026
0.396083 0.350660 0.257168
0.419376 0.350801 0.257309
0.442670 0.350942 0.257450
0.465964 0.351083 0.257591
0.489258 0.351225 0.257733
0.512552 0.351366 0.257874
0.535845 0.351507 0.258015
0.559139 0.351649 0.258157
0.582433 0.351790 0.258298
0.605727 0.351931 0.258439
0.629020 0.352072 0.258580
0.652314 0.352214 0.258722
0.675608 0.352355 0.258863
0.698902 0.352496 0.259004
0.722196 0.352638 0.259146
0.745489 0.352779 0.259287
0.768783 0.352920 0.259428
0.792077 0.353061 0.259569
0.815371 0.353203 0.259711
0.838664 0.353344 0.259852
0.861958 0.353485 0.259993
0.885252 0.353626 0.260134
0.908546 0.353768 0.260276
0.931840 0.353909 0.260417
0.955133 0.354050 0.260558
0.978427 0.354192 0.260700
1.000000 0.354333 0.260841
0.256600 0.373465 0.256600
0.279894 0.373606 0.256741
0.303188 0.373748 0.256883
0.326481 0.373889 0.257024
0.349775 0.374030 0.257165
0.373069 0.374171 0.257306
0.396363 0.374313 0.257448
0.419656 0.374454 0.257589
0.442950 0.374595 0.257730
0.466244 0.374736 0.257871
0.489538 0.374878 0.258013
0.512832 0.375019 0.258154
0.536125 0.375160 0.258295
0.559419 0.375302 0.258437
0.582713 0.375443 0.258578
0.606007 0.375584 0.258719
0.629300 0.375725 0.258860
0.652594 0.375867 0.259002
0.675888 0.376008 0.259143
0.699182 0.376149 0.259284
0.722476 0.376291 0.259426
0.745769 0.376432 0.259567
0.769063 0.376573 0.259708
0.792357 0.376714 0.259849
0.815651 0.376856 0.259991
0.838944 0.376997 0.260132
0.862238 0.377138 0.260273
0.885532 0.377279 0.260414
0.908826 0.377421 0.260556
0.932120 0.377562 0.260697
0.955413 0.377703 0.260838
0.978707 0.377845 0.260980
1.000000 0.377986 0.261121
0.256880 0.397118 0.256880
0.280174 0.397259 0.257021
0.303468 0.397401 0.257163
0.326761 0.397542 0.257304
0.350055 0.397683 0.257445
0.373349 0.397824 0.257586
0.396643 0.397966 0.257728
0.419936 0.398107 0.257869
0.443230 0.398248 0.258010
0.466524 0.398389 0.258151
0.489818 0.398531 0.258293
0.513112 0.398672 0.258434
0.536405 0.398813 0.258575
0.559699 0.398955 0.258717
0.582993 0.399096 0.258858
0.606287 0.399237 0.258999
0.629580 0.399378 0.259140
0.652874 0.399520 0.259282
0.676168 0.399661 0.259423
0.699462 0.399802 0.259564
0.722756 0.399944 0.259706
0.746049 0.400085 0.259847
0.769343 0.400226 0.259988
0.792637 0.400367 0.260129
0.815931 0.400509 0.260271
0.839224 0.400650 0.260412
0.862518 0.400791 0.260553
0.885812 0.400932 0.260694
0.909106 0.401074 0.260836
0.932400 0.401215 0.260977
0.955693 0.401356 0.261118
0.978987 0.401498 0.261260
1.000000 0.401639 0.261401
0.257160 0.420771 0.257160
0.280454 0.420912 0.257301
0.303748 0.421054 0.257443
0.327041 0.421195 0.257584
0.350335 0.421336 0.257725
0.373629 0.421477 0.257866
0.396923 0.421619 0.258008
0.420216 0.421760 0.258149
0.443510 0.421901 0.258290
0.466804 0.422042 0.258431
0.490098 0.422184 0.258573
0.513392 0.422325 0.258714
0.536685 0.422466 0.258855
0.559979 0.422608 0.258997
0.583273 0.422749 0.259138
0.606567 0.422890 0.259279
0.629860 0.423031 0.259420
0.653154 0.423173 0.259562
0.676448 0.423314 0.259703
0.699742 0.423455 0.259844
0.723036 0.423596 0.259986
0.746329 0.423738 0.260127
0.769623 0.423879 0.260268
0.792917 0.424020 0.260409
0.816211 0.424162 0.260551
0.839504 0.424303 0.260692
0.862798 0.424444 0.260833
0.886092 0.424585 0.260974
0.909386 0.424727 0.261116
0.932680 0.424868 0.261257
0.955973 0.425009 0.261398
0.979267 0.425151 0.261540
1.000000 0.425292 0.261681
0.257440 0.444424 0.257440
0.280734 0.444565 0.257581
0.304028 0.444707 0.257723
0.327321 0.444848 0.257864
0.350615 0.444989 0.258005
0.373909 0.445130 0.258146
0.397203 0.445272 0.258288
0.420496 0.445413 0.258429
0.443790 0.445554 0.258570
0.467084 0.445695 0.258711
0.490378 0.445837 0.258853
0.513672 0.445978 0.258994
0.536965 0.446119 0.259135
0.560259 0.446261 0.259277
0.583553 0.446402 0.259418
0.606847 0.446543 0.259559
0.630140 0.446684 0.259700
0.653434 0.446826 0.259842
0.676728 0.446967 0.259983
0.700022 0.447108 0.260124
0.723316 0.447250 0.260266
0.746609 0.447391 0.260407
0.769903 0.447532 0.260548
0.793197 0.447673 0.260689
0.816491 0.447815 0.260831
0.839784 0.447956 0.260972
0.863078 0.448097 0.261113
0.886372 0.448238 0.261254
0.909666 0.448380 0.261396
0.932960 0.448521 0.261537
0.956253 0.448662 0.261678
0.979547 0.448804 0.261820
1.000000 0.448945 0.261961
0.257720 0.468077 0.257720
0.281014 0.468218 0.257861
0.304308 0.468360 0.258003
0.327601 0.468501 0.258144
0.350895 0.468642 0.258285
0.374189 0.468783 0.258426
0.397483 0.468925 0.258568
0.420776 0.469066 0.258709
0.444070 0.469207 0.258850
0.467364 0.469348 0.258991
0.490658 0.469490 0.259133
0.513952 0.469631 0.259274
0.537245 0.469772 0.259415
0.560539 0.469914 0.259557
0.583833 0.470055 0.259698
0.607127 0.470196 0.259839
0.630420 0.470337 0.259980
0.653714 0.470479 0.260122
0.677008 0.470620 0.260263
0.700302 0.470761 0.260404
0.723596 0.470903 0.260546
0.746889 0.471044 0.260687
0.770183 0.471185 0.260828
0.793477 0.471326 0.260969
0.816771 0.471468 0.261111
0.840064 0.471609 0.261252
0.863358 0.471750 0.261393
0.886652 0.471891 0.261534
0.909946 0.472033 0.261676
0.933240 0.472174 0.261817
0.956533 0.472315 0.261958
0.979827 0.472457 0.262100
1.000000 0.472598 0.262241
0.258000 0.491730 0.258000
0.281294 0.491871 0.258141
0.304588 0.492013 0.258283
0.327881 0.492154 0.258424
0.351175 0.492295 0.258565
0.374469 0.492436 0.258706
0.397763 0.492578 0.258848
0.421056 0.492719 0.258989
0.444350 0.492860 0.259130
0.467644 0.493001 0.259271
0.490938 0.493143 0.259413
0.514232 0.493284 0.259554
0.537525 0.493425 0.259695
0.560819 0.493567 0.259837
0.584113 0.493708 0.259978
0.607407 0.493849 0.260119
0.630700 0.493990 0.260260
0.653994 0.494132 0.260402
0.677288 0.494273 0.260543
0.700582 0.494414 0.260684
0.723876 0.494556 0.260826
0.747169 0.494697 0.260967
0.770463 0.494838 0.261108
0.793757 0.494979 0.261249
0.817051 0.495121 0.261391
0.840344 0.495262 0.261532
0.863638 0.495403 0.261673
0.886932 0.495544 0.261814
0.910226 0.495686 0.261956
0.933520 0.495827 0.262097
0.956813 0.495968 0.262238
0.980107 0.496110 0.262380
1.000000 0.496251 0.262521
0.258280 0.515383 0.258280
0.281574 0.515524 0.258421
0.304868 0.515666 0.258563
0.328161 0.515807 0.258704
0.351455 0.515948 0.258845
0.374749 0.516089 0.258986
0.398043 0.516231 0.259128
0.421336 0.516372 0.259269
0.444630 0.516513 0.259410
0.467924 0.516654 0.259551
0.491218 0.516796 0.259693
0.514512 0.516937 0.259834
0.537805 0.517078 0.259975
0.561099 0.517220 0.260117
0.584393 0.517361 0.260258
0.607687 0.517502 0.260399
0.630980 0.517643 0.260540
0.654274 0.517785 0.260682
0.677568 0.517926 0.260823
0.700862 0.518067 0.260964
0.724156 0.518209 0.261106
0.747449 0.518350 0.261247
0.770743 0.518491 0.261388
0.794037 0.518632 0.261529
0.817331 0.518774 0.261671
0.840624 0.518915 0.261812
0.863918 0.519056 0.261953
0.887212 0.519197 0.262094
0.910506 0.519339 0.262236
0.933800 0.519480 0.262377
0.957093 0.519621 0.262518
0.980387 0.519763 0.262660
1.000000 0.519904 0.262801
0.258560 0.539036 0.258560
0.281854 0.539177 0.258701
0.305148 0.539319 0.258843
0.328441 0.539460 0.258984
0.351735 0.539601 0.259125
0.375029 0.539742 0.259266
0.398323 0.539884 0.259408
0.421616 0.540025 0.259549
0.444910 0.540166 0.259690
0.468204 0.540308 0.259831
0.491498 0.540449 0.259973
0.514792 0.540590 0.260114
0.538085 0.540731 0.260255
0.561379 0.540873 0.260397
0.584673 0.541014 0.260538
0.607967 0.541155 0.260679
0.631260 0.541296 0.260820
0.654554 0.541438 0.260962
0.677848 0.541579 0.261103
0.701142 0.541720 0.261244
0.724436 0.541862 0.261386
0.747729 0.542003 0.261527
0.771023 0.542144 0.261668
0.794317 0.542285 0.261809
0.817611 0.542427 0.261951
0.840904 0.542568 0.262092
0.864198 0.542709 0.262233
0.887492 0.542850 0.262374
0.910786 0.542992 0.262516
0.934080 0.543133 0.262657
0.957373 0.543274 0.262798
0.980667 0.543416 0.262940
1.000000 0.543557 0.263081
0.258840 0.562689 0.258840
0.282134 0.562830 0.258981
0.305428 0.562971 0.259123
0.328721 0.563113 0.259264
0.352015 0.563254 0.259405
0.375309 0.563395 0.259546
0.398603 0.563537 0.259688
0.421896 0.563678 0.259829
0.445190 0.563819 0.259970
0.468484 0.563960 0.260111
0.491778 0.564102 0.260253
0.515072 0.564243 0.260394
0.538365 0.564384 0.260535
0.561659 0.564526 0.260677
0.584953 0.564667 0.260818
0.608247 0.564808 0.260959
0.631540 0.564949 0.261100
0.654834 0.565091 0.261242
0.678128 0.565232 0.261383
0.701422 0.565373 0.261524
0.724716 0.565514 0.261666
0.748009 0.565656 0.261807
0.771303 0.565797 0.261948
0.794597 0.565938 0.262089
0.817891 0.566080 0.262231
0.841184 0.566221 0.262372
0.864478 0.566362 0.262513
0.887772 0.566503 0.262654
0.911066 0.566645 0.262796
0.934360 0.566786 0.262937
0.957653 0.566927 0.263078
0.980947 0.567069 0.263220
1.000000 0.567210 0.263361
0.259120 0.586342 0.259120
0.282414 0.586483 0.259261
0.305708 0.586625 0.259403
0.329001 0.586766 0.259544
0.352295 0.586907 0.259685
0.375589 0.587048 0.259826
0.398883 0.587190 0.259968
0.422176 0.587331 0.260109
0.445470 0.587472 0.260250
0.468764 0.587613 0.260391
0.492058 0.587755 0.260533
0.515352 0.587896 0.260674
0.538645 0.588037 0.260815
0.561939 0.588179 0.260957
0.585233 0.588320 0.261098
0.608527 0.588461 0.261239
0.631820 0.588602 0.261380
0.655114 0.588744 0.261522
0.678408 0.588885 0.261663
0.701702 0.589026 0.261804
0.724996 0.589168 0.261946
0.748289 0.589309 0.262087
0.771583 0.589450 0.262228
0.794877 0.589591 0.262369
0.818171 0.589733 0.262511
0.841464 0.589874 0.262652
0.864758 0.590015 0.262793
0.888052 0.590156 0.262934
0.911346 0.590298 0.263076
0.934640 0.590439 0.263217
0.957933 0.590580 0.263358
0.981227 0.590722 0.263500
1.000000 0.590863 0.263641
0.259400 0.609995 0.259400
0.282694 0.610136 0.259541
0.305988 0.610278 0.259683
0.329281 0.610419 0.259824
0.352575 0.610560 0.259965
0.375869 0.610701 0.260106
0.399163 0.610843 0.260248
0.422456 0.610984 0.260389
0.445750 0.611125 0.260530
0.469044 0.611267 0.260671
0.492338 0.611408 0.260813
0.515632 0.611549 0.260954
0.538925 0.611690 0.261095
0.562219 0.611832 0.261237
0.585513 0.611973 0.261378
0.608807 0.612114 0.261519
0.632100 0.612255 0.261660
0.655394 0.612397 0.261802
0.678688 0.612538 0.261943
0.701982 0.612679 0.262084
0.725276 0.612821 0.262226
0.748569 0.612962 0.262367
0.771863 0.613103 0.262508
0.795157 0.613244 0.262649
0.818451 0.613386 0.262791
0.841744 0.613527 0.262932
0.865038 0.613668 0.263073
0.888332 0.613810 0.263214
0.911626 0.613951 0.263356
0.934920 0.614092 0.263497
0.958213 0.614233 0.263638
0.981507 0.614375 0.263780
1.000000 0.614516 0.263921
0.259680 0.633648 0.259680
0.282974 0.633789 0.259821
0.306268 0.633930 0.259963
0.329561 0.634072 0.260104
0.352855 0.634213 0.260245
0.376149 0.634354 0.260386
0.399443 0.634496 0.260528
0.422736 0.634637 0.260669
0.446030 0.634778 0.260810
0.469324 0.634919 0.260951
0.492618 0.635061 0.261093
0.515912 0.635202 0.261234
0.539205 0.635343 0.261375
0.562499 0.635485 0.261517
0.585793 0.635626 0.261658
0.609087 0.635767 0.261799
0.632380 0.635908 0.261940
0.655674 0.636050 0.262082
0.678968 0.636191 0.262223
0.702262 0.636332 0.262364
0.725556 0.636473 0.262506
0.748849 0.636615 0.262647
0.772143 0.636756 0.262788
0.795437 0.636897 0.262929
0.818731 0.637039 0.263071
0.842024 0.637180 0.263212
0.865318 0.637321 0.263353
0.888612 0.637462 0.263494
0.911906 0.637604 0.263636
0.935200 0.637745 0.263777
0.958493 0.637886 0.263918
0.981787 0.638028 0.264060
1.000000 0.638169 0.264201
0.259960 0.657301 0.259960
0.283254 0.657442 0.260101
0.306548 0.657584 0.260243
0.329841 0.657725 0.260384
0.353135 0.657866 0.260525
0.376429 0.658007 0.260666
0.399723 0.658149 0.260808
0.423016 0.658290 0.260949
0.446310 0.658431 0.261090
0.469604 0.658572 0.261231
0.492898 0.658714 0.261373
0.516192 0.658855 0.261514
0.539485 0.658996 0.261655
0.562779 0.659138 0.261797
0.586073 0.659279 0.261938
0.609367 0.659420 0.262079
0.632660 0.659561 0.262220
0.655954 0.659703 0.262362
0.679248 0.659844 0.262503
0.702542 0.659985 0.262644
0.725836 0.660127 0.262786
0.749129 0.660268 0.262927
0.772423 0.660409 0.263068
0.795717 0.660550 0.263209
0.819011 0.660692 0.263351
0.842304 0.660833 0.263492
0.865598 0.660974 0.263633
0.888892 0.661115 0.263774
0.912186 0.661257 0.263916
0.935480 0.661398 0.264057
0.958773 0.661539 0.264198
0.982067 0.661681 0.264340
1.000000 0.661822 0.264481
0.260240 0.680954 0.260240
0.283534 0.681095 0.260381
0.306828 0.681236 0.260523
0.330121 0.681378 0.260664
0.353415 0.681519 0.260805
0.376709 0.681660 0.260946
0.400003 0.681802 0.261088
0.423296 0.681943 0.261229
0.446590 0.682084 0.261370
0.469884 0.682225 0.261511
0.493178 0.682367 0.261653
0.516472 0.682508 0.261794
0.539765 0.682649 0.261935
0.563059 0.682791 0.262077
0.586353 0.682932 0.262218
0.609647 0.683073 0.262359
0.632940 0.683214 0.262500
0.656234 0.683356 0.262642
0.679528 0.683497 0.262783
0.702822 0.683638 0.262924
0.726116 0.683779 0.263066
0.749409 0.683921 0.263207
0.772703 0.684062 0.263348
0.795997 0.684203 0.263489
0.819291 0.684345 0.263631
0.842584 0.684486 0.263772
0.865878 0.684627 0.263913
0.889172 0.684768 0.264054
0.912466 0.684910 0.264196
0.935760 0.685051 0.264337
0.959053 0.685192 0.264478
0.982347 0.685334 0.264620
1.000000 0.685475 0.264761
0.260520 0.704607 0.260520
0.283814 0.704748 0.260661
0.307108 0.704889 0.260803
0.330401 0.705031 0.260944
0.353695 0.705172 0.261085
0.376989 0.705313 0.261226
0.400283 0.705455 0.261368
0.423576 0.705596 0.261509
0.446870 0.705737 0.261650
0.470164 0.705878 0.261791
0.493458 0.706020 0.261933
0.516752 0.706161 0.262074
0.540045 0.706302 0.262215
0.563339 0.706444 0.262357
0.586633 0.706585 0.262498
0.609927 0.706726 0.262639
0.633220 0.706867 0.262780
0.656514 0.707009 0.262922
0.679808 0.707150 0.263063
0.703102 0.707291 0.263204
0.726396 0.707432 0.263345
0.749689 0.707574 0.263487
0.772983 0.707715 0.263628
0.796277 0.707856 0.263769
0.819571 0.707998 0.263911
0.842864 0.708139 0.264052
0.866158 0.708280 0.264193
0.889452 0.708421 0.264334
0.912746 0.708563 0.264476
0.936040 0.708704 0.264617
0.959333 0.708845 0.264758
0.982627 0.708987 0.264900
1.000000 0.709128 0.265041
0.260800 0.728260 0.260800
0.284094 0.728401 0.260941
0.307388 0.728543 0.261083
0.330681 0.728684 0.261224
0.353975 0.728825 0.261365
0.377269 0.728966 0.261506
0.400563 0.729108 0.261648
0.423856 0.729249 0.261789
0.447150 0.729390 0.261930
0.470444 0.729532 0.262071
0.493738 0.729673 0.262213
0.517032 0.729814 0.262354
0.540325 0.729955 0.262495
0.563619 0.730097 0.262637
0.586913 0.730238 0.262778
0.610207 0.730379 0.262919
0.633500 0.730520 0.263060
0.656794 0.730662 0.263202
0.680088 0.730803 0.263343
0.703382 0.730944 0.263484
0.726676 0.731086 0.263625
0.749969 0.731227 0.263767
0.773263 0.731368 0.263908
0.796557 0.731509 0.264049
0.819851 0.731651 0.264191
0.843144 0.731792 0.264332
0.866438 0.731933 0.264473
0.889732 0.732074 0.264614
0.913026 0.732216 0.264756
0.936320 0.732357 0.264897
0.959613 0.732498 0.265038
0.982907 0.732640 0.265180
1.000000 0.732781 0.265321
0.261080 0.751913 0.261080
0.284374 0.752054 0.261221
0.307668 0.752196 0.261363
0.330961 0.752337 0.261504
0.354255 0.752478 0.261645
0.377549 0.752619 0.261786
0.400843 0.752761 0.261928
0.424136 0.752902 0.262069
0.447430 0.753043 0.262210
0.470724 0.753184 0.262351
0.494018 0.753326 0.262493
0.517312 0.753467 0.262634
0.540605 0.753608 0.262775
0.563899 0.753750 0.262917
0.587193 0.753891 0.263058
0.610487 0.754032 0.263199
0.633780 0.754173 0.263340
0.657074 0.754315 0.263482
0.680368 0.754456 0.263623
0.703662 0.754597 0.263764
0.726956 0.754739 0.263905
0.750249 0.754880 0.264047
0.773543 0.755021 0.264188
0.796837 0.755162 0.264329
0.820131 0.755304 0.264471
0.843424 0.755445 0.264612
0.866718 0.755586 0.264753
0.890012 0.755727 0.264894
0.913306 0.755869 0.265036
0.936600 0.756010 0.265177
0.959893 0.756151 0.265318
0.983187 0.756293 0.265460
1.000000 0.756434 0.265601
0.261360 0.775566 0.261360
0.284654 0.775707 0.261501
0.307948 0.775848 0.261643
0.331241 0.775990 0.261784
0.354535 0.776131 0.261925
0.377829 0.776272 0.262066
0.401123 0.776414 0.262208
0.424416 0.776555 0.262349
0.447710 0.776696 0.262490
0.471004 0.776837 0.262631
0.494298 0.776979 0.262773
0.517591 0.777120 0.262914
0.540885 0.777261 0.263055
0.564179 0.777403 0.263197
0.587473 0.777544 0.263338
0.610767 0.777685 0.263479
0.634060 0.777826 0.263620
0.657354 0.777968 0.263762
0.680648 0.778109 0.263903
0.703942 0.778250 0.264044
0.727236 0.778391 0.264185
0.750529 0.778533 0.264327
0.773823 0.778674 0.264468
0.797117 0.778815 0.264609
0.820411 0.778957 0.264751
0.843704 0.779098 0.264892
0.866998 0.779239 0.265033
0.890292 0.779380 0.265174
0.913586 0.779522 0.265316
0.936880 0.779663 0.265457
0.960173 0.779804 0.265598
0.983467 0.779946 0.265740
1.000000 0.780087 0.265881
0.261640 0.799219 0.261640
0.284934 0.799360 0.261781
0.308228 0.799502 0.261923
0.331521 0.799643 0.262064
0.354815 0.799784 0.262205
0.378109 0.799925 0.262346
0.401403 0.800067 0.262488
0.424696 0.800208 0.262629
0.447990 0.800349 0.262770
0.471284 0.800491 0.262911
0.494578 0.800632 0.263053
0.517871 0.800773 0.263194
0.541165 0.800914 0.263335
0.564459 0.801056 0.263477
0.587753 0.801197 0.263618
0.611047 0.801338 0.263759
0.634340 0.801479 0.263900
0.657634 0.801621 0.264042
0.680928 0.801762 0.264183
0.704222 0.801903 0.264324
0.727516 0.802045 0.264465
0.750809 0.802186 0.264607
0.774103 0.802327 0.264748
0.797397 0.802468 0.264889
0.820691 0.802610 0.265031
0.843984 0.802751 0.265172
0.867278 0.802892 0.265313
0.890572 0.803034 0.265454
0.913866 0.803175 0.265596
0.937160 0.803316 0.265737
0.960453 0.803457 0.265878
0.983747 0.803599 0.266020
1.000000 0.803740 0.266161
0.261920 0.822872 0.261920
0.285214 0.823013 0.262061
0.308508 0.823155 0.262203
0.331801 0.823296 0.262344
0.355095 0.823437 0.262485
0.378389 0.823578 0.262626
0.401683 0.823720 0.262768
0.424976 0.823861 0.262909
0.448270 0.824002 0.263050
0.471564 0.824143 0.263191
0.494858 0.824285 0.263333
0.518151 0.824426 0.263474
0.541445 0.824567 0.263615
0.564739 0.824709 0.263757
0.588033 0.824850 0.263898
0.611327 0.824991 0.264039
0.634620 0.825132 0.264180
0.657914 0.825274 0.264322
0.681208 0.825415 0.264463
0.704502 0.825556 0.264604
0.727796 0.825698 0.264745
0.751089 0.825839 0.264887
0.774383 0.825980 0.265028
0.797677 0.826121 0.265169
0.820971 0.826263 0.265311
0.844264 0.826404 0.265452
0.867558 0.826545 0.265593
0.890852 0.826686 0.265734
0.914146 0.826828 0.265876
0.937440 0.826969 0.266017
0.960733 0.827110 0.266158
0.984027 0.827252 0.266300
1.000000 0.827393 0.266441
0.262200 0.846525 0.262200
0.285494 0.846666 0.262341
0.308788 0.846807 0.262482
0.332081 0.846949 0.262624
0.355375 0.847090 0.262765
0.378669 0.847231 0.262906
0.401963 0.847373 0.263048
0.425256 0.847514 0.263189
0.448550 0.847655 0.263330
0.471844 0.847796 0.263471
0.495138 0.847938 0.263613
0.518431 0.848079 0.263754
0.541725 0.848220 0.263895
0.565019 0.848362 0.264037
0.588313 0.848503 0.264178
0.611607 0.848644 0.264319
0.634900 0.848785 0.264460
0.658194 0.848927 0.264602
0.681488 0.849068 0.264743
0.704782 0.849209 0.264884
0.728076 0.849350 0.265025
0.751369 0.849492 0.265167
0.774663 0.849633 0.265308
0.797957 0.849774 0.265449
0.821251 0.849916 0.265591
0.844544 0.850057 0.265732
0.867838 0.850198 0.265873
0.891132 0.850339 0.266014
0.914426 0.850481 0.266156
0.937720 0.850622 0.266297
0.961013 0.850763 0.266438
0.984307 0.850905 0.266580
1.000000 0.851046 0.266721
0.262480 0.870178 0.262480
0.285774 0.870319 0.262621
0.309067 0.870460 0.262762
0.332361 0.870602 0.262904
0.355655 0.870743 0.263045
0.378949 0.870884 0.263186
0.402243 0.871026 0.263328
0.425536 0.871167 0.263469
0.448830 0.871308 0.263610
0.472124 0.871449 0.263751
0.495418 0.871591 0.263893
0.518711 0.871732 0.264034
0.542005 0.871873 0.264175
0.565299 0.872015 0.264317
0.588593 0.872156 0.264458
0.611887 0.872297 0.264599
0.635180 0.872438 0.264740
0.658474 0.872580 0.264882
0.681768 0.872721 0.265023
0.705062 0.872862 0.265164
0.728356 0.873003 0.265305
0.751649 0.873145 0.265447
0.774943 0.873286 0.265588
0.798237 0.873427 0.265729
0.821531 0.873569 0.265871
0.844824 0.873710 0.266012
0.868118 0.873851 0.266153
0.891412 0.873992 0.266294
0.914706 0.874134 0.266436
