assets/luts/primelive_amb_jp_fresh.cube
TITLE "primelive JP Fresh"
LUT_3D_SIZE 9
DOMAIN_MIN 0.0 0.0 0.0
DOMAIN_MAX 1.0 1.0 1.0
0.066962 0.073729 0.076996
0.199055 0.074691 0.077858
0.318581 0.075562 0.078638
0.432333 0.076390 0.079379
0.542329 0.077191 0.080097
0.649557 0.077972 0.080796
0.754603 0.078737 0.081481
0.857855 0.079489 0.082155
0.955357 0.080200 0.082791
0.070553 0.208628 0.079908
0.202646 0.209590 0.080770
0.322173 0.210460 0.081550
0.435925 0.211289 0.082291
0.545920 0.212090 0.083009
0.653148 0.212871 0.083708
0.758194 0.213636 0.084393
0.861446 0.214388 0.085067
0.958948 0.215098 0.085703
0.073803 0.330676 0.082543
0.205896 0.331638 0.083405
0.325422 0.332508 0.084184
0.439174 0.333337 0.084926
0.549170 0.334138 0.085643
0.656397 0.334919 0.086343
0.761444 0.335684 0.087028
0.864695 0.336436 0.087701
0.962198 0.337146 0.088337
0.076895 0.446824 0.085050
0.208988 0.447786 0.085912
0.328514 0.448657 0.086691
0.442266 0.449485 0.087433
0.552262 0.450286 0.088151
0.659490 0.451067 0.088850
0.764536 0.451832 0.089535
0.867788 0.452584 0.090209
0.965290 0.453294 0.090845
0.079885 0.559135 0.087475
0.211978 0.560097 0.088336
0.331504 0.560968 0.089116
0.445256 0.561796 0.089858
0.555252 0.562598 0.090575
0.662480 0.563379 0.091274
0.767526 0.564144 0.091960
0.870778 0.564896 0.092633
0.968280 0.565606 0.093269
0.082800 0.668620 0.089838
0.214893 0.669582 0.090700
0.334419 0.670453 0.091479
0.448171 0.671281 0.092221
0.558167 0.672082 0.092938
0.665395 0.672863 0.093638
0.770441 0.673628 0.094323
0.873693 0.674380 0.094996
0.971195 0.675090 0.095632
0.085655 0.775876 0.092153
0.217748 0.776838 0.093015
0.337275 0.777709 0.093794
0.451027 0.778537 0.094536
0.561022 0.779339 0.095254
0.668250 0.780120 0.095953
0.773296 0.780885 0.096638
0.876548 0.781637 0.097312
0.974050 0.782347 0.097948
0.088462 0.881300 0.094429
0.220555 0.882262 0.095291
0.340081 0.883133 0.096070
0.453833 0.883961 0.096812
0.563829 0.884762 0.097529
0.671057 0.885543 0.098229
0.776103 0.886308 0.098914
0.879355 0.887060 0.099587
0.976857 0.887771 0.100223
0.091003 0.976745 0.096489
0.223096 0.977707 0.097351
0.342622 0.978577 0.098130
0.456374 0.979406 0.098872
0.566370 0.980207 0.099590
0.673598 0.980988 0.100289
0.778644 0.981753 0.100974
0.881896 0.982505 0.101648
0.979398 0.983215 0.102284
0.067330 0.074062 0.210790
0.199422 0.075024 0.211651
0.318949 0.075895 0.212431
0.432701 0.076723 0.213173
0.542696 0.077524 0.213890
0.649924 0.078305 0.214589
0.754971 0.079070 0.215275
0.858222 0.079822 0.215948
0.955724 0.080532 0.216584
0.070921 0.208961 0.213702
0.203014 0.209923 0.214563
0.322540 0.210793 0.215343
0.436292 0.211622 0.216085
0.546288 0.212423 0.216802
0.653516 0.213204 0.217501
0.758562 0.213969 0.218187
0.861814 0.214721 0.218860
0.959316 0.215431 0.219496
0.074170 0.331009 0.216336
0.206263 0.331971 0.217198
0.325790 0.332841 0.217977
0.439542 0.333670 0.218719
0.549537 0.334471 0.219437
0.656765 0.335252 0.220136
0.761811 0.336017 0.220821
0.865063 0.336769 0.221495
0.962565 0.337479 0.222131
0.077263 0.447157 0.218843
0.209355 0.448119 0.219705
0.328882 0.448989 0.220485
0.442634 0.449818 0.221226
0.552629 0.450619 0.221944
0.659857 0.451400 0.222643
0.764904 0.452165 0.223328
0.868155 0.452917 0.224002
0.965657 0.453627 0.224638
0.080253 0.559468 0.221268
0.212346 0.560430 0.222129
0.331872 0.561301 0.222909
0.445624 0.562129 0.223651
0.555620 0.562931 0.224368
0.662847 0.563711 0.225068
0.767894 0.564477 0.225753
0.871145 0.565229 0.226426
0.968648 0.565939 0.227062
0.083167 0.668953 0.223631
0.215260 0.669915 0.224493
0.334787 0.670785 0.225272
0.448539 0.671614 0.226014
0.558534 0.672415 0.226732
0.665762 0.673196 0.227431
0.770809 0.673961 0.228116
0.874060 0.674713 0.228790
0.971562 0.675423 0.229426
0.086023 0.776209 0.225946
0.218116 0.777171 0.226808
0.337642 0.778042 0.227588
0.451394 0.778870 0.228329
0.561390 0.779671 0.229047
0.668618 0.780452 0.229746
0.773664 0.781218 0.230431
0.876916 0.781970 0.231105
0.974418 0.782680 0.231741
0.088830 0.881633 0.228222
0.220923 0.882595 0.229084
0.340449 0.883466 0.229863
0.454201 0.884294 0.230605
0.564197 0.885095 0.231323
0.671425 0.885876 0.232022
0.776471 0.886641 0.232707
0.879722 0.887393 0.233381
0.977225 0.888103 0.234017
0.091371 0.977078 0.230282
0.223464 0.978040 0.231144
0.342990 0.978910 0.231924
0.456742 0.979739 0.232666
0.566738 0.980540 0.233383
0.673966 0.981321 0.234082
0.779012 0.982086 0.234767
0.882264 0.982838 0.235441
0.979766 0.983548 0.236077
0.067662 0.074363 0.331787
0.199755 0.075325 0.332648
0.319281 0.076196 0.333428
0.433033 0.077024 0.334170
0.543029 0.077825 0.334887
0.650257 0.078606 0.335587
0.755303 0.079371 0.336272
0.858555 0.080123 0.336945
0.956057 0.080833 0.337581
0.071253 0.209262 0.334699
0.203346 0.210224 0.335560
0.322873 0.211094 0.336340
0.436625 0.211923 0.337082
0.546620 0.212724 0.337799
0.653848 0.213505 0.338499
0.758895 0.214270 0.339184
0.862146 0.215022 0.339857
0.959648 0.215732 0.340493
0.074503 0.331310 0.337333
0.206596 0.332272 0.338195
0.326122 0.333142 0.338974
0.439874 0.333971 0.339716
0.549870 0.334772 0.340434
0.657098 0.335553 0.341133
0.762144 0.336318 0.341818
0.865396 0.337070 0.342492
0.962898 0.337780 0.343128
0.077595 0.447458 0.339840
0.209688 0.448420 0.340702
0.329214 0.449291 0.341482
0.442966 0.450119 0.342224
0.552962 0.450920 0.342941
0.660190 0.451701 0.343640
0.765236 0.452466 0.344326
0.868488 0.453218 0.344999
0.965990 0.453928 0.345635
0.080585 0.559769 0.342265
0.212678 0.560731 0.343126
0.332204 0.561602 0.343906
0.445956 0.562430 0.344648
0.555952 0.563232 0.345365
0.663180 0.564013 0.346065
0.768226 0.564778 0.346750
0.871478 0.565530 0.347423
0.968980 0.566240 0.348059
0.083500 0.669254 0.344628
0.215593 0.670216 0.345490
0.335119 0.671086 0.346269
0.448871 0.671915 0.347011
0.558867 0.672716 0.347729
0.666095 0.673497 0.348428
0.771141 0.674262 0.349113
0.874393 0.675014 0.349787
0.971895 0.675724 0.350423
0.086355 0.776510 0.346944
0.218448 0.777472 0.347805
0.337975 0.778343 0.348585
0.451727 0.779171 0.349327
0.561722 0.779973 0.350044
0.668950 0.780753 0.350743
0.773997 0.781519 0.351429
0.877248 0.782271 0.352102
0.974750 0.782981 0.352738
0.089162 0.881934 0.349219
0.221255 0.882896 0.350081
0.340781 0.883767 0.350860
0.454533 0.884595 0.351602
0.564529 0.885396 0.352320
0.671757 0.886177 0.353019
0.776803 0.886942 0.353704
0.880055 0.887694 0.354378
0.977557 0.888404 0.355014
0.091703 0.977379 0.351280
0.223796 0.978341 0.352141
0.343322 0.979211 0.352921
0.457074 0.980040 0.353663
0.567070 0.980841 0.354380
0.674298 0.981622 0.355079
0.779344 0.982387 0.355765
0.882596 0.983139 0.356438
0.980098 0.983849 0.357074
0.067978 0.074650 0.446925
0.200071 0.075612 0.447787
0.319598 0.076482 0.448566
0.433350 0.077311 0.449308
0.543345 0.078112 0.450026
0.650573 0.078893 0.450725
0.755620 0.079658 0.451410
0.858871 0.080410 0.452084
0.956373 0.081120 0.452720
0.071570 0.209548 0.449837
0.203663 0.210510 0.450699
0.323189 0.211381 0.451478
0.436941 0.212209 0.452220
0.546937 0.213010 0.452938
0.654165 0.213791 0.453637
0.759211 0.214556 0.454322
0.862463 0.215308 0.454996
0.959965 0.216019 0.455632
0.074819 0.331596 0.452472
0.206912 0.332558 0.453333
0.326438 0.333429 0.454113
0.440190 0.334257 0.454855
0.550186 0.335058 0.455572
0.657414 0.335839 0.456272
0.762460 0.336604 0.456957
0.865712 0.337356 0.457630
0.963214 0.338066 0.458266
0.077911 0.447744 0.454979
0.210004 0.448706 0.455840
0.329531 0.449577 0.456620
0.443283 0.450405 0.457362
0.553278 0.451207 0.458079
0.660506 0.451988 0.458779
0.765553 0.452753 0.459464
0.868804 0.453505 0.460137
0.966306 0.454215 0.460773
0.080901 0.560056 0.457403
0.212994 0.561018 0.458265
0.332521 0.561888 0.459044
0.446273 0.562717 0.459786
0.556268 0.563518 0.460504
0.663496 0.564299 0.461203
0.768543 0.565064 0.461888
0.871794 0.565816 0.462562
0.969296 0.566526 0.463198
0.083816 0.669540 0.459767
0.215909 0.670502 0.460628
0.335436 0.671373 0.461408
0.449188 0.672201 0.462150
0.559183 0.673003 0.462867
0.666411 0.673783 0.463567
0.771457 0.674549 0.464252
0.874709 0.675301 0.464925
0.972211 0.676011 0.465561
0.086672 0.776797 0.462082
0.218765 0.777759 0.462943
0.338291 0.778629 0.463723
0.452043 0.779458 0.464465
0.562039 0.780259 0.465182
0.669267 0.781040 0.465882
0.774313 0.781805 0.466567
0.877565 0.782557 0.467240
0.975067 0.783267 0.467876
0.089479 0.882220 0.464358
0.221572 0.883183 0.465219
0.341098 0.884053 0.465999
0.454850 0.884882 0.466741
0.564846 0.885683 0.467458
0.672073 0.886464 0.468158
0.777120 0.887229 0.468843
0.880371 0.887981 0.469516
0.977874 0.888691 0.470152
0.092020 0.977665 0.466418
0.224113 0.978627 0.467280
0.343639 0.979498 0.468059
0.457391 0.980326 0.468801
0.567387 0.981127 0.469518
0.674614 0.981908 0.470218
0.779661 0.982673 0.470903
0.882912 0.983425 0.471576
0.980415 0.984135 0.472212
0.068284 0.074926 0.558256
0.200377 0.075889 0.559117
0.319904 0.076759 0.559897
0.433656 0.077588 0.560639
0.543651 0.078389 0.561356
0.650879 0.079170 0.562056
0.755925 0.079935 0.562741
0.859177 0.080687 0.563414
0.956679 0.081397 0.564050
0.071876 0.209825 0.561168
0.203969 0.210787 0.562029
0.323495 0.211658 0.562809
0.437247 0.212486 0.563551
0.547243 0.213287 0.564268
0.654471 0.214068 0.564968
0.759517 0.214833 0.565653
0.862769 0.215585 0.566326
0.960271 0.216296 0.566962
0.075125 0.331873 0.563802
0.207218 0.332835 0.564664
0.326744 0.333706 0.565443
0.440496 0.334534 0.566185
0.550492 0.335335 0.566903
0.657720 0.336116 0.567602
0.762766 0.336881 0.568287
0.866018 0.337633 0.568961
0.963520 0.338343 0.569597
0.078217 0.448021 0.566309
0.210310 0.448983 0.567171
0.329837 0.449854 0.567951
0.443589 0.450682 0.568692
0.553584 0.451484 0.569410
0.660812 0.452265 0.570109
0.765858 0.453030 0.570794
0.869110 0.453782 0.571468
0.966612 0.454492 0.572104
0.081207 0.560333 0.568734
0.213300 0.561295 0.569595
0.332827 0.562165 0.570375
0.446579 0.562994 0.571117
0.556574 0.563795 0.571834
0.663802 0.564576 0.572534
0.768849 0.565341 0.573219
0.872100 0.566093 0.573892
0.969602 0.566803 0.574528
0.084122 0.669817 0.571097
0.216215 0.670779 0.571959
0.335742 0.671650 0.572738
0.449494 0.672478 0.573480
0.559489 0.673280 0.574198
0.666717 0.674060 0.574897
0.771763 0.674826 0.575582
0.875015 0.675578 0.576256
0.972517 0.676288 0.576892
0.086978 0.777074 0.573412
0.219071 0.778036 0.574274
0.338597 0.778906 0.575054
0.452349 0.779735 0.575796
0.562345 0.780536 0.576513
0.669573 0.781317 0.577212
0.774619 0.782082 0.577898
0.877871 0.782834 0.578571
0.975373 0.783544 0.579207
0.089784 0.882497 0.575688
0.221877 0.883460 0.576550
0.341404 0.884330 0.577329
0.455156 0.885159 0.578071
0.565151 0.885960 0.578789
0.672379 0.886741 0.579488
0.777426 0.887506 0.580173
0.880677 0.888258 0.580847
0.978179 0.888968 0.581483
0.092326 0.977942 0.577748
0.224418 0.978904 0.578610
0.343945 0.979775 0.579390
0.457697 0.980603 0.580132
0.567692 0.981404 0.580849
0.674920 0.982185 0.581548
0.779967 0.982950 0.582234
0.883218 0.983702 0.582907
0.980720 0.984412 0.583543
0.068583 0.075196 0.666782
0.200676 0.076159 0.667643
0.320202 0.077029 0.668423
0.433954 0.077858 0.669165
0.543950 0.078659 0.669882
0.651177 0.079440 0.670581
0.756224 0.080205 0.671267
0.859475 0.080957 0.671940
0.956977 0.081667 0.672576
0.072174 0.210095 0.669694
0.204267 0.211057 0.670555
0.323793 0.211928 0.671335
0.437545 0.212756 0.672077
0.547541 0.213557 0.672794
0.654769 0.214338 0.673493
0.759815 0.215103 0.674179
0.863067 0.215855 0.674852
0.960569 0.216566 0.675488
0.075423 0.332143 0.672328
0.207516 0.333105 0.673190
0.327043 0.333976 0.673969
0.440795 0.334804 0.674711
0.550790 0.335605 0.675429
0.658018 0.336386 0.676128
0.763064 0.337151 0.676813
0.866316 0.337903 0.677487
0.963818 0.338613 0.678123
0.078516 0.448291 0.674835
0.210608 0.449253 0.675697
0.330135 0.450124 0.676476
0.443887 0.450952 0.677218
0.553882 0.451754 0.677936
0.661110 0.452535 0.678635
0.766157 0.453300 0.679320
0.869408 0.454052 0.679994
0.966910 0.454762 0.680630
0.081506 0.560603 0.677260
0.213599 0.561565 0.678121
0.333125 0.562435 0.678901
0.446877 0.563264 0.679643
0.556873 0.564065 0.680360
0.664100 0.564846 0.681060
0.769147 0.565611 0.681745
0.872398 0.566363 0.682418
0.969901 0.567073 0.683054
0.084420 0.670087 0.679623
0.216513 0.671049 0.680485
0.336040 0.671920 0.681264
0.449792 0.672748 0.682006
0.559787 0.673550 0.682724
0.667015 0.674330 0.683423
0.772062 0.675096 0.684108
0.875313 0.675848 0.684782
0.972815 0.676558 0.685418
0.087276 0.777344 0.681938
0.219369 0.778306 0.682800
0.338895 0.779176 0.683580
0.452647 0.780005 0.684321
0.562643 0.780806 0.685039
0.669871 0.781587 0.685738
0.774917 0.782352 0.686423
0.878169 0.783104 0.687097
0.975671 0.783814 0.687733
0.090083 0.882767 0.684214
0.222176 0.883730 0.685076
0.341702 0.884600 0.685855
0.455454 0.885429 0.686597
0.565450 0.886230 0.687315
0.672678 0.887011 0.688014
0.777724 0.887776 0.688699
0.880976 0.888528 0.689373
0.978478 0.889238 0.690009
0.092624 0.978212 0.686274
0.224717 0.979174 0.687136
0.344243 0.980045 0.687916
0.457995 0.980873 0.688657
0.567991 0.981674 0.689375
0.675219 0.982455 0.690074
0.780265 0.983220 0.690759
0.883517 0.983972 0.691433
0.981019 0.984682 0.692069
0.068875 0.075461 0.773097
0.200968 0.076423 0.773959
0.320494 0.077294 0.774739
0.434246 0.078122 0.775480
0.544242 0.078923 0.776198
0.651470 0.079704 0.776897
0.756516 0.080469 0.777582
0.859768 0.081221 0.778256
0.957270 0.081931 0.778892
0.072466 0.210360 0.776009
0.204559 0.211322 0.776871
0.324085 0.212192 0.777651
0.437837 0.213021 0.778392
0.547833 0.213822 0.779110
0.655061 0.214603 0.779809
0.760107 0.215368 0.780494
0.863359 0.216120 0.781168
0.960861 0.216830 0.781804
0.075715 0.332408 0.778644
0.207808 0.333370 0.779506
0.327335 0.334240 0.780285
0.441087 0.335069 0.781027
0.551082 0.335870 0.781744
0.658310 0.336651 0.782444
0.763357 0.337416 0.783129
0.866608 0.338168 0.783802
0.964110 0.338878 0.784438
0.078808 0.448556 0.781151
0.210901 0.449518 0.782013
0.330427 0.450388 0.782792
0.444179 0.451217 0.783534
0.554175 0.452018 0.784252
0.661403 0.452799 0.784951
0.766449 0.453564 0.785636
0.869700 0.454316 0.786310
0.967203 0.455026 0.786946
0.081798 0.560867 0.783576
0.213891 0.561829 0.784437
0.333417 0.562700 0.785217
0.447169 0.563528 0.785959
0.557165 0.564329 0.786676
0.664393 0.565110 0.787375
0.769439 0.565876 0.788061
0.872691 0.566628 0.788734
0.970193 0.567338 0.789370
0.084713 0.670352 0.785939
0.216806 0.671314 0.786801
0.336332 0.672184 0.787580
0.450084 0.673013 0.788322
0.560080 0.673814 0.789039
0.667307 0.674595 0.789739
0.772354 0.675360 0.790424
0.875605 0.676112 0.791097
0.973108 0.676822 0.791733
0.087568 0.777608 0.788254
0.219661 0.778570 0.789116
0.339187 0.779441 0.789895
0.452939 0.780269 0.790637
0.562935 0.781070 0.791355
0.670163 0.781851 0.792054
0.775209 0.782617 0.792739
0.878461 0.783369 0.793413
0.975963 0.784079 0.794049
0.090375 0.883032 0.790530
0.222468 0.883994 0.791392
0.341994 0.884865 0.792171
0.455746 0.885693 0.792913
0.565742 0.886494 0.793630
0.672970 0.887275 0.794330
0.778016 0.888040 0.795015
0.881268 0.888792 0.795688
0.978770 0.889502 0.796324
0.092916 0.978477 0.792590
0.225009 0.979439 0.793452
0.344535 0.980309 0.794231
0.458287 0.981138 0.794973
0.568283 0.981939 0.795691
0.675511 0.982720 0.796390
0.780557 0.983485 0.797075
0.883809 0.984237 0.797749
0.981311 0.984947 0.798385
0.069162 0.075721 0.877596
0.201255 0.076683 0.878457
0.320781 0.077554 0.879237
0.434533 0.078382 0.879979
0.544529 0.079183 0.880696
0.651757 0.079964 0.881395
0.756803 0.080729 0.882081
0.860055 0.081481 0.882754
0.957557 0.082191 0.883390
0.072753 0.210620 0.880508
0.204846 0.211582 0.881369
0.324373 0.212452 0.882149
0.438125 0.213281 0.882891
0.548120 0.214082 0.883608
0.655348 0.214863 0.884307
0.760394 0.215628 0.884993
0.863646 0.216380 0.885666
0.961148 0.217090 0.886302
0.076003 0.332668 0.883142
0.208096 0.333630 0.884004
0.327622 0.334500 0.884783
0.441374 0.335329 0.885525
0.551370 0.336130 0.886243
0.658597 0.336911 0.886942
0.763644 0.337676 0.887627
0.866895 0.338428 0.888301
0.964398 0.339138 0.888937
0.079095 0.448816 0.885649
0.211188 0.449778 0.886511
0.330714 0.450648 0.887290
0.444466 0.451477 0.888032
0.554462 0.452278 0.888750
0.661690 0.453059 0.889449
0.766736 0.453824 0.890134
0.869988 0.454576 0.890808
0.967490 0.455286 0.891444
0.082085 0.561127 0.888074
0.214178 0.562089 0.888935
0.333704 0.562960 0.889715
0.447456 0.563788 0.890457
0.557452 0.564589 0.891174
0.664680 0.565370 0.891874
0.769726 0.566136 0.892559
0.872978 0.566888 0.893232
0.970480 0.567598 0.893868
0.085000 0.670612 0.890437
0.217093 0.671574 0.891299
0.336619 0.672444 0.892078
0.450371 0.673273 0.892820
0.560367 0.674074 0.893538
0.667595 0.674855 0.894237
0.772641 0.675620 0.894922
0.875893 0.676372 0.895596
0.973395 0.677082 0.896232
0.087855 0.777868 0.892752
0.219948 0.778830 0.893614
0.339475 0.779701 0.894394
0.453227 0.780529 0.895135
0.563222 0.781330 0.895853
0.670450 0.782111 0.896552
0.775496 0.782877 0.897237
0.878748 0.783629 0.897911
0.976250 0.784339 0.898547
0.090662 0.883292 0.895028
0.222755 0.884254 0.895890
0.342281 0.885125 0.896669
0.456033 0.885953 0.897411
0.566029 0.886754 0.898129
0.673257 0.887535 0.898828
0.778303 0.888300 0.899513
0.881555 0.889052 0.900187
0.979057 0.889762 0.900823
0.093203 0.978736 0.897088
0.225296 0.979699 0.897950
0.344822 0.980569 0.898730
0.458574 0.981398 0.899471
0.568570 0.982199 0.900189
0.675798 0.982980 0.900888
0.780844 0.983745 0.901573
0.884096 0.984497 0.902247
0.981598 0.985207 0.902883
0.069389 0.075927 0.960213
0.201482 0.076889 0.961074
0.321008 0.077759 0.961854
0.434760 0.078588 0.962596
0.544756 0.079389 0.963313
0.651984 0.080170 0.964013
0.757030 0.080935 0.964698
0.860282 0.081687 0.965371
0.957784 0.082397 0.966007
0.072980 0.210825 0.963125
0.205073 0.211787 0.963986
0.324600 0.212658 0.964766
0.438352 0.213486 0.965508
0.548347 0.214287 0.966225
0.655575 0.215068 0.966925
0.760621 0.215833 0.967610
0.863873 0.216586 0.968283
0.961375 0.217296 0.968919
0.076230 0.332873 0.965759
0.208323 0.333835 0.966621
0.327849 0.334706 0.967400
0.441601 0.335534 0.968142
0.551597 0.336335 0.968860
0.658824 0.337116 0.969559
0.763871 0.337881 0.970244
0.867122 0.338633 0.970918
0.964625 0.339344 0.971554
0.079322 0.449021 0.968266
0.211415 0.449983 0.969128
0.330941 0.450854 0.969908
0.444693 0.451682 0.970650
0.554689 0.452484 0.971367
0.661917 0.453265 0.972066
0.766963 0.454030 0.972752
0.870215 0.454782 0.973425
0.967717 0.455492 0.974061
0.082312 0.561333 0.970691
0.214405 0.562295 0.971552
0.333931 0.563165 0.972332
0.447683 0.563994 0.973074
0.557679 0.564795 0.973791
0.664907 0.565576 0.974491
0.769953 0.566341 0.975176
0.873205 0.567093 0.975849
0.970707 0.567803 0.976485
0.085227 0.670817 0.973054
0.217320 0.671779 0.973916
0.336846 0.672650 0.974695
0.450598 0.673478 0.975437
0.560594 0.674280 0.976155
0.667822 0.675061 0.976854
0.772868 0.675826 0.977539
0.876120 0.676578 0.978213
0.973622 0.677288 0.978849
0.088082 0.778074 0.975370
0.220175 0.779036 0.976231
0.339702 0.779906 0.977011
0.453454 0.780735 0.977753
0.563449 0.781536 0.978470
0.670677 0.782317 0.979169
0.775723 0.783082 0.979855
0.878975 0.783834 0.980528
0.976477 0.784544 0.981164
0.090889 0.883498 0.977645
0.222982 0.884460 0.978507
0.342508 0.885330 0.979286
0.456260 0.886159 0.980028
0.566256 0.886960 0.980746
0.673484 0.887741 0.981445
0.778530 0.888506 0.982130
0.881782 0.889258 0.982804
0.979284 0.889968 0.983440
0.093430 0.978942 0.979706
0.225523 0.979904 0.980567
0.345049 0.980775 0.981347
0.458801 0.981603 0.982089
0.568797 0.982404 0.982806
0.676025 0.983185 0.983505
0.781071 0.983950 0.984191
0.884323 0.984702 0.984864
0.981825 0.985413 0.985500
