assets/luts/primelive_qingtou.cube
TITLE "primelive_qingtou"
LUT_3D_SIZE 33
0.095200 0.095200 0.095200
0.124756 0.094856 0.094856
0.154312 0.094512 0.094512
0.183868 0.094168 0.094168
0.213425 0.093825 0.093825
0.242981 0.093481 0.093481
0.272537 0.093137 0.093137
0.302093 0.092793 0.092793
0.331649 0.092449 0.092449
0.361205 0.092105 0.092105
0.390761 0.091762 0.091762
0.420318 0.091418 0.091418
0.449874 0.091074 0.091074
0.479430 0.090730 0.090730
0.508986 0.090386 0.090386
0.538542 0.090042 0.090042
0.568098 0.089698 0.089698
0.597655 0.089355 0.089355
0.627211 0.089011 0.089011
0.656767 0.088667 0.088667
0.686323 0.088323 0.088323
0.715879 0.087979 0.087979
0.745435 0.087635 0.087635
0.774991 0.087291 0.087291
0.804548 0.086948 0.086948
0.834104 0.086604 0.086604
0.863660 0.086260 0.086260
0.893216 0.085916 0.085916
0.922772 0.085572 0.085572
0.952328 0.085228 0.085228
0.981885 0.084885 0.084885
1.000000 0.084541 0.084541
1.000000 0.084197 0.084197
0.094491 0.125886 0.094491
0.124047 0.125542 0.094147
0.153604 0.125198 0.093804
0.183160 0.124855 0.093460
0.212716 0.124511 0.093116
0.242272 0.124167 0.092772
0.271828 0.123823 0.092428
0.301384 0.123479 0.092084
0.330940 0.123135 0.091740
0.360497 0.122792 0.091397
0.390053 0.122448 0.091053
0.419609 0.122104 0.090709
0.449165 0.121760 0.090365
0.478721 0.121416 0.090021
0.508277 0.121072 0.089677
0.537833 0.120728 0.089333
0.567390 0.120385 0.088990
0.596946 0.120041 0.088646
0.626502 0.119697 0.088302
0.656058 0.119353 0.087958
0.685614 0.119009 0.087614
0.715170 0.118665 0.087270
0.744726 0.118321 0.086927
0.774283 0.117978 0.086583
0.803839 0.117634 0.086239
0.833395 0.117290 0.085895
0.862951 0.116946 0.085551
0.892507 0.116602 0.085207
0.922063 0.116258 0.084863
0.951620 0.115915 0.084520
0.981176 0.115571 0.084176
1.000000 0.115227 0.083832
1.000000 0.114883 0.083488
0.093782 0.156572 0.093782
0.123339 0.156229 0.093439
0.152895 0.155885 0.093095
0.182451 0.155541 0.092751
0.212007 0.155197 0.092407
0.241563 0.154853 0.092063
0.271119 0.154509 0.091719
0.300675 0.154165 0.091375
0.330232 0.153822 0.091032
0.359788 0.153478 0.090688
0.389344 0.153134 0.090344
0.418900 0.152790 0.090000
0.448456 0.152446 0.089656
0.478012 0.152102 0.089312
0.507569 0.151759 0.088968
0.537125 0.151415 0.088625
0.566681 0.151071 0.088281
0.596237 0.150727 0.087937
0.625793 0.150383 0.087593
0.655349 0.150039 0.087249
0.684905 0.149695 0.086905
0.714462 0.149352 0.086562
0.744018 0.149008 0.086218
0.773574 0.148664 0.085874
0.803130 0.148320 0.085530
0.832686 0.147976 0.085186
0.862242 0.147632 0.084842
0.891798 0.147288 0.084498
0.921355 0.146945 0.084155
0.950911 0.146601 0.083811
0.980467 0.146257 0.083467
1.000000 0.145913 0.083123
1.000000 0.145569 0.082779
0.093074 0.187259 0.093074
0.122630 0.186915 0.092730
0.152186 0.186571 0.092386
0.181742 0.186227 0.092042
0.211298 0.185883 0.091698
0.240854 0.185539 0.091354
0.270411 0.185195 0.091010
0.299967 0.184852 0.090667
0.329523 0.184508 0.090323
0.359079 0.184164 0.089979
0.388635 0.183820 0.089635
0.418191 0.183476 0.089291
0.447747 0.183132 0.088947
0.477304 0.182789 0.088604
0.506860 0.182445 0.088260
0.536416 0.182101 0.087916
0.565972 0.181757 0.087572
0.595528 0.181413 0.087228
0.625084 0.181069 0.086884
0.654640 0.180725 0.086540
0.684197 0.180382 0.086197
0.713753 0.180038 0.085853
0.743309 0.179694 0.085509
0.772865 0.179350 0.085165
0.802421 0.179006 0.084821
0.831977 0.178662 0.084477
0.861533 0.178318 0.084133
0.891090 0.177975 0.083790
0.920646 0.177631 0.083446
0.950202 0.177287 0.083102
0.979758 0.176943 0.082758
1.000000 0.176599 0.082414
1.000000 0.176255 0.082070
0.092365 0.217945 0.092365
0.121921 0.217601 0.092021
0.151477 0.217257 0.091677
0.181033 0.216913 0.091333
0.210589 0.216569 0.090989
0.240146 0.216226 0.090646
0.269702 0.215882 0.090302
0.299258 0.215538 0.089958
0.328814 0.215194 0.089614
0.358370 0.214850 0.089270
0.387926 0.214506 0.088926
0.417482 0.214162 0.088582
0.447039 0.213819 0.088239
0.476595 0.213475 0.087895
0.506151 0.213131 0.087551
0.535707 0.212787 0.087207
0.565263 0.212443 0.086863
0.594819 0.212099 0.086519
0.624375 0.211755 0.086175
0.653932 0.211412 0.085832
0.683488 0.211068 0.085488
0.713044 0.210724 0.085144
0.742600 0.210380 0.084800
0.772156 0.210036 0.084456
0.801712 0.209692 0.084112
0.831269 0.209349 0.083769
0.860825 0.209005 0.083425
0.890381 0.208661 0.083081
0.919937 0.208317 0.082737
0.949493 0.207973 0.082393
0.979049 0.207629 0.082049
1.000000 0.207285 0.081705
1.000000 0.206942 0.081362
0.091656 0.248631 0.091656
0.121212 0.248287 0.091312
0.150768 0.247943 0.090968
0.180324 0.247599 0.090624
0.209881 0.247256 0.090281
0.239437 0.246912 0.089937
0.268993 0.246568 0.089593
0.298549 0.246224 0.089249
0.328105 0.245880 0.088905
0.357661 0.245536 0.088561
0.387217 0.245192 0.088217
0.416774 0.244849 0.087874
0.446330 0.244505 0.087530
0.475886 0.244161 0.087186
0.505442 0.243817 0.086842
0.534998 0.243473 0.086498
0.564554 0.243129 0.086154
0.594111 0.242786 0.085811
0.623667 0.242442 0.085467
0.653223 0.242098 0.085123
0.682779 0.241754 0.084779
0.712335 0.241410 0.084435
0.741891 0.241066 0.084091
0.771447 0.240722 0.083747
0.801004 0.240379 0.083404
0.830560 0.240035 0.083060
0.860116 0.239691 0.082716
0.889672 0.239347 0.082372
0.919228 0.239003 0.082028
0.948784 0.238659 0.081684
0.978341 0.238315 0.081340
1.000000 0.237972 0.080997
1.000000 0.237628 0.080653
0.090947 0.279317 0.090947
0.120503 0.278973 0.090603
0.150059 0.278629 0.090259
0.179616 0.278286 0.089916
0.209172 0.277942 0.089572
0.238728 0.277598 0.089228
0.268284 0.277254 0.088884
0.297840 0.276910 0.088540
0.327396 0.276566 0.088196
0.356953 0.276223 0.087853
0.386509 0.275879 0.087509
0.416065 0.275535 0.087165
0.445621 0.275191 0.086821
0.475177 0.274847 0.086477
0.504733 0.274503 0.086133
0.534289 0.274159 0.085789
0.563846 0.273816 0.085446
0.593402 0.273472 0.085102
0.622958 0.273128 0.084758
0.652514 0.272784 0.084414
0.682070 0.272440 0.084070
0.711626 0.272096 0.083726
0.741182 0.271752 0.083382
0.770739 0.271409 0.083039
0.800295 0.271065 0.082695
0.829851 0.270721 0.082351
0.859407 0.270377 0.082007
0.888963 0.270033 0.081663
0.918519 0.269689 0.081319
0.948076 0.269346 0.080976
0.977632 0.269002 0.080632
1.000000 0.268658 0.080288
1.000000 0.268314 0.079944
0.090238 0.310003 0.090238
0.119795 0.309660 0.089895
0.149351 0.309316 0.089551
0.178907 0.308972 0.089207
0.208463 0.308628 0.088863
0.238019 0.308284 0.088519
0.267575 0.307940 0.088175
0.297131 0.307596 0.087831
0.326688 0.307253 0.087488
0.356244 0.306909 0.087144
0.385800 0.306565 0.086800
0.415356 0.306221 0.086456
0.444912 0.305877 0.086112
0.474468 0.305533 0.085768
0.504024 0.305189 0.085424
0.533581 0.304846 0.085081
0.563137 0.304502 0.084737
0.592693 0.304158 0.084393
0.622249 0.303814 0.084049
0.651805 0.303470 0.083705
0.681361 0.303126 0.083361
0.710918 0.302783 0.083018
0.740474 0.302439 0.082674
0.770030 0.302095 0.082330
0.799586 0.301751 0.081986
0.829142 0.301407 0.081642
0.858698 0.301063 0.081298
0.888254 0.300719 0.080954
0.917811 0.300376 0.080611
0.947367 0.300032 0.080267
0.976923 0.299688 0.079923
1.000000 0.299344 0.079579
1.000000 0.299000 0.079235
0.089530 0.340690 0.089530
0.119086 0.340346 0.089186
0.148642 0.340002 0.088842
0.178198 0.339658 0.088498
0.207754 0.339314 0.088154
0.237310 0.338970 0.087810
0.266866 0.338626 0.087466
0.296423 0.338283 0.087123
0.325979 0.337939 0.086779
0.355535 0.337595 0.086435
0.385091 0.337251 0.086091
0.414647 0.336907 0.085747
0.444203 0.336563 0.085403
0.473760 0.336220 0.085060
0.503316 0.335876 0.084716
0.532872 0.335532 0.084372
0.562428 0.335188 0.084028
0.591984 0.334844 0.083684
0.621540 0.334500 0.083340
0.651096 0.334156 0.082996
0.680653 0.333813 0.082653
0.710209 0.333469 0.082309
0.739765 0.333125 0.081965
0.769321 0.332781 0.081621
0.798877 0.332437 0.081277
0.828433 0.332093 0.080933
0.857989 0.331749 0.080589
0.887546 0.331406 0.080246
0.917102 0.331062 0.079902
0.946658 0.330718 0.079558
0.976214 0.330374 0.079214
1.000000 0.330030 0.078870
1.000000 0.329686 0.078526
0.088821 0.371376 0.088821
0.118377 0.371032 0.088477
0.147933 0.370688 0.088133
0.177489 0.370344 0.087789
0.207045 0.370000 0.087445
0.236602 0.369657 0.087102
0.266158 0.369313 0.086758
0.295714 0.368969 0.086414
0.325270 0.368625 0.086070
0.354826 0.368281 0.085726
0.384382 0.367937 0.085382
0.413938 0.367593 0.085038
0.443495 0.367250 0.084695
0.473051 0.366906 0.084351
0.502607 0.366562 0.084007
0.532163 0.366218 0.083663
0.561719 0.365874 0.083319
0.591275 0.365530 0.082975
0.620831 0.365186 0.082631
0.650388 0.364843 0.082288
0.679944 0.364499 0.081944
0.709500 0.364155 0.081600
0.739056 0.363811 0.081256
0.768612 0.363467 0.080912
0.798168 0.363123 0.080568
0.827725 0.362780 0.080225
0.857281 0.362436 0.079881
0.886837 0.362092 0.079537
0.916393 0.361748 0.079193
0.945949 0.361404 0.078849
0.975505 0.361060 0.078505
1.000000 0.360716 0.078161
1.000000 0.360373 0.077818
0.088112 0.402062 0.088112
0.117668 0.401718 0.087768
0.147224 0.401374 0.087424
0.176780 0.401030 0.087080
0.206337 0.400687 0.086737
0.235893 0.400343 0.086393
0.265449 0.399999 0.086049
0.295005 0.399655 0.085705
0.324561 0.399311 0.085361
0.354117 0.398967 0.085017
0.383673 0.398623 0.084673
0.413230 0.398280 0.084330
0.442786 0.397936 0.083986
0.472342 0.397592 0.083642
0.501898 0.397248 0.083298
0.531454 0.396904 0.082954
0.561010 0.396560 0.082610
0.590567 0.396217 0.082267
0.620123 0.395873 0.081923
0.649679 0.395529 0.081579
0.679235 0.395185 0.081235
0.708791 0.394841 0.080891
0.738347 0.394497 0.080547
0.767903 0.394153 0.080203
0.797460 0.393810 0.079860
0.827016 0.393466 0.079516
0.856572 0.393122 0.079172
0.886128 0.392778 0.078828
0.915684 0.392434 0.078484
0.945240 0.392090 0.078140
0.974796 0.391746 0.077796
1.000000 0.391403 0.077453
1.000000 0.391059 0.077109
0.087403 0.432748 0.087403
0.116959 0.432404 0.087059
0.146515 0.432060 0.086715
0.176072 0.431717 0.086372
0.205628 0.431373 0.086028
0.235184 0.431029 0.085684
0.264740 0.430685 0.085340
0.294296 0.430341 0.084996
0.323852 0.429997 0.084652
0.353409 0.429654 0.084309
0.382965 0.429310 0.083965
0.412521 0.428966 0.083621
0.442077 0.428622 0.083277
0.471633 0.428278 0.082933
0.501189 0.427934 0.082589
0.530745 0.427590 0.082245
0.560302 0.427247 0.081902
0.589858 0.426903 0.081558
0.619414 0.426559 0.081214
0.648970 0.426215 0.080870
0.678526 0.425871 0.080526
0.708082 0.425527 0.080182
0.737638 0.425183 0.079838
0.767195 0.424840 0.079495
0.796751 0.424496 0.079151
0.826307 0.424152 0.078807
0.855863 0.423808 0.078463
0.885419 0.423464 0.078119
0.914975 0.423120 0.077775
0.944532 0.422777 0.077432
0.974088 0.422433 0.077088
1.000000 0.422089 0.076744
1.000000 0.421745 0.076400
0.086694 0.463434 0.086694
0.116251 0.463090 0.086351
0.145807 0.462747 0.086007
0.175363 0.462403 0.085663
0.204919 0.462059 0.085319
0.234475 0.461715 0.084975
0.264031 0.461371 0.084631
0.293587 0.461027 0.084287
0.323144 0.460684 0.083944
0.352700 0.460340 0.083600
0.382256 0.459996 0.083256
0.411812 0.459652 0.082912
0.441368 0.459308 0.082568
0.470924 0.458964 0.082224
0.500480 0.458620 0.081880
0.530037 0.458277 0.081537
0.559593 0.457933 0.081193
0.589149 0.457589 0.080849
0.618705 0.457245 0.080505
0.648261 0.456901 0.080161
0.677817 0.456557 0.079817
0.707374 0.456213 0.079474
0.736930 0.455870 0.079130
0.766486 0.455526 0.078786
0.796042 0.455182 0.078442
0.825598 0.454838 0.078098
0.855154 0.454494 0.077754
0.884710 0.454150 0.077410
0.914267 0.453807 0.077067
0.943823 0.453463 0.076723
0.973379 0.453119 0.076379
1.000000 0.452775 0.076035
1.000000 0.452431 0.075691
0.085986 0.494121 0.085986
0.115542 0.493777 0.085642
0.145098 0.493433 0.085298
0.174654 0.493089 0.084954
0.204210 0.492745 0.084610
0.233766 0.492401 0.084266
0.263322 0.492057 0.083922
0.292879 0.491714 0.083579
0.322435 0.491370 0.083235
0.351991 0.491026 0.082891
0.381547 0.490682 0.082547
0.411103 0.490338 0.082203
0.440659 0.489994 0.081859
0.470216 0.489651 0.081516
0.499772 0.489307 0.081172
0.529328 0.488963 0.080828
0.558884 0.488619 0.080484
0.588440 0.488275 0.080140
0.617996 0.487931 0.079796
0.647552 0.487587 0.079452
0.677109 0.487244 0.079109
0.706665 0.486900 0.078765
0.736221 0.486556 0.078421
0.765777 0.486212 0.078077
0.795333 0.485868 0.077733
0.824889 0.485524 0.077389
0.854445 0.485180 0.077045
0.884002 0.484837 0.076702
0.913558 0.484493 0.076358
0.943114 0.484149 0.076014
0.972670 0.483805 0.075670
1.000000 0.483461 0.075326
1.000000 0.483117 0.074982
0.085277 0.524807 0.085277
0.114833 0.524463 0.084933
0.144389 0.524119 0.084589
0.173945 0.523775 0.084245
0.203501 0.523431 0.083901
0.233058 0.523087 0.083558
0.262614 0.522744 0.083214
0.292170 0.522400 0.082870
0.321726 0.522056 0.082526
0.351282 0.521712 0.082182
0.380838 0.521368 0.081838
0.410394 0.521024 0.081494
0.439951 0.520681 0.081151
0.469507 0.520337 0.080807
0.499063 0.519993 0.080463
0.528619 0.519649 0.080119
0.558175 0.519305 0.079775
0.587731 0.518961 0.079431
0.617287 0.518617 0.079087
0.646844 0.518274 0.078744
0.676400 0.517930 0.078400
0.705956 0.517586 0.078056
0.735512 0.517242 0.077712
0.765068 0.516898 0.077368
0.794624 0.516554 0.077024
0.824181 0.516210 0.076681
0.853737 0.515867 0.076337
0.883293 0.515523 0.075993
0.912849 0.515179 0.075649
0.942405 0.514835 0.075305
0.971961 0.514491 0.074961
1.000000 0.514147 0.074617
1.000000 0.513804 0.074274
0.084568 0.555493 0.084568
0.114124 0.555149 0.084224
0.143680 0.554805 0.083880
0.173236 0.554461 0.083536
0.202793 0.554117 0.083193
0.232349 0.553774 0.082849
0.261905 0.553430 0.082505
0.291461 0.553086 0.082161
0.321017 0.552742 0.081817
0.350573 0.552398 0.081473
0.380129 0.552054 0.081129
0.409686 0.551711 0.080786
0.439242 0.551367 0.080442
0.468798 0.551023 0.080098
0.498354 0.550679 0.079754
0.527910 0.550335 0.079410
0.557466 0.549991 0.079066
0.587022 0.549647 0.078723
0.616579 0.549304 0.078379
0.646135 0.548960 0.078035
0.675691 0.548616 0.077691
0.705247 0.548272 0.077347
0.734803 0.547928 0.077003
0.764359 0.547584 0.076659
0.793916 0.547240 0.076316
0.823472 0.546897 0.075972
0.853028 0.546553 0.075628
0.882584 0.546209 0.075284
0.912140 0.545865 0.074940
0.941696 0.545521 0.074596
0.971252 0.545177 0.074252
1.000000 0.544834 0.073909
1.000000 0.544490 0.073565
0.083859 0.586179 0.083859
0.113415 0.585835 0.083515
0.142971 0.585491 0.083171
0.172528 0.585148 0.082828
0.202084 0.584804 0.082484
0.231640 0.584460 0.082140
0.261196 0.584116 0.081796
0.290752 0.583772 0.081452
0.320308 0.583428 0.081108
0.349865 0.583084 0.080765
0.379421 0.582741 0.080421
0.408977 0.582397 0.080077
0.438533 0.582053 0.079733
0.468089 0.581709 0.079389
0.497645 0.581365 0.079045
0.527201 0.581021 0.078701
0.556758 0.580678 0.078358
0.586314 0.580334 0.078014
0.615870 0.579990 0.077670
0.645426 0.579646 0.077326
0.674982 0.579302 0.076982
0.704538 0.578958 0.076638
0.734094 0.578614 0.076294
0.763651 0.578271 0.075951
0.793207 0.577927 0.075607
0.822763 0.577583 0.075263
0.852319 0.577239 0.074919
0.881875 0.576895 0.074575
0.911431 0.576551 0.074231
0.940988 0.576207 0.073888
0.970544 0.575864 0.073544
1.000000 0.575520 0.073200
1.000000 0.575176 0.072856
0.083150 0.616865 0.083150
0.112707 0.616521 0.082807
0.142263 0.616178 0.082463
0.171819 0.615834 0.082119
0.201375 0.615490 0.081775
0.230931 0.615146 0.081431
0.260487 0.614802 0.081087
0.290043 0.614458 0.080743
0.319600 0.614115 0.080400
0.349156 0.613771 0.080056
0.378712 0.613427 0.079712
0.408268 0.613083 0.079368
0.437824 0.612739 0.079024
0.467380 0.612395 0.078680
0.496936 0.612051 0.078336
0.526493 0.611708 0.077993
0.556049 0.611364 0.077649
0.585605 0.611020 0.077305
0.615161 0.610676 0.076961
0.644717 0.610332 0.076617
0.674273 0.609988 0.076273
0.703830 0.609644 0.075930
0.733386 0.609301 0.075586
0.762942 0.608957 0.075242
0.792498 0.608613 0.074898
0.822054 0.608269 0.074554
0.851610 0.607925 0.074210
0.881166 0.607581 0.073866
0.910723 0.607238 0.073523
0.940279 0.606894 0.073179
0.969835 0.606550 0.072835
0.999391 0.606206 0.072491
1.000000 0.605862 0.072147
0.082442 0.647552 0.082442
0.111998 0.647208 0.082098
0.141554 0.646864 0.081754
0.171110 0.646520 0.081410
0.200666 0.646176 0.081066
0.230222 0.645832 0.080722
0.259778 0.645488 0.080378
0.289335 0.645145 0.080035
0.318891 0.644801 0.079691
0.348447 0.644457 0.079347
0.378003 0.644113 0.079003
0.407559 0.643769 0.078659
0.437115 0.643425 0.078315
0.466672 0.643081 0.077972
0.496228 0.642738 0.077628
0.525784 0.642394 0.077284
0.555340 0.642050 0.076940
0.584896 0.641706 0.076596
0.614452 0.641362 0.076252
0.644008 0.641018 0.075908
0.673565 0.640675 0.075565
0.703121 0.640331 0.075221
0.732677 0.639987 0.074877
0.762233 0.639643 0.074533
0.791789 0.639299 0.074189
0.821345 0.638955 0.073845
0.850901 0.638611 0.073501
0.880458 0.638268 0.073158
0.910014 0.637924 0.072814
0.939570 0.637580 0.072470
0.969126 0.637236 0.072126
0.998682 0.636892 0.071782
1.000000 0.636548 0.071438
0.081733 0.678238 0.081733
0.111289 0.677894 0.081389
0.140845 0.677550 0.081045
0.170401 0.677206 0.080701
0.199957 0.676862 0.080357
0.229513 0.676518 0.080014
0.259070 0.676175 0.079670
0.288626 0.675831 0.079326
0.318182 0.675487 0.078982
0.347738 0.675143 0.078638
0.377294 0.674799 0.078294
0.406850 0.674455 0.077950
0.436407 0.674111 0.077607
0.465963 0.673768 0.077263
0.495519 0.673424 0.076919
0.525075 0.673080 0.076575
0.554631 0.672736 0.076231
0.584187 0.672392 0.075887
0.613743 0.672048 0.075543
0.643300 0.671705 0.075200
0.672856 0.671361 0.074856
0.702412 0.671017 0.074512
0.731968 0.670673 0.074168
0.761524 0.670329 0.073824
0.791080 0.669985 0.073480
0.820637 0.669641 0.073137
0.850193 0.669298 0.072793
0.879749 0.668954 0.072449
0.909305 0.668610 0.072105
0.938861 0.668266 0.071761
0.968417 0.667922 0.071417
0.997973 0.667578 0.071073
1.000000 0.667234 0.070730
0.081024 0.708924 0.081024
0.110580 0.708580 0.080680
0.140136 0.708236 0.080336
0.169692 0.707892 0.079992
0.199249 0.707549 0.079649
0.228805 0.707205 0.079305
0.258361 0.706861 0.078961
0.287917 0.706517 0.078617
0.317473 0.706173 0.078273
0.347029 0.705829 0.077929
0.376585 0.705485 0.077585
0.406142 0.705142 0.077242
0.435698 0.704798 0.076898
0.465254 0.704454 0.076554
0.494810 0.704110 0.076210
0.524366 0.703766 0.075866
0.553922 0.703422 0.075522
0.583478 0.703078 0.075179
0.613035 0.702735 0.074835
0.642591 0.702391 0.074491
0.672147 0.702047 0.074147
0.701703 0.701703 0.073803
0.731259 0.701359 0.073459
0.760815 0.701015 0.073115
0.790372 0.700672 0.072772
0.819928 0.700328 0.072428
0.849484 0.699984 0.072084
0.879040 0.699640 0.071740
0.908596 0.699296 0.071396
0.938152 0.698952 0.071052
0.967708 0.698608 0.070708
0.997265 0.698265 0.070365
1.000000 0.697921 0.070021
0.080315 0.739610 0.080315
0.109871 0.739266 0.079971
0.139427 0.738922 0.079627
0.168984 0.738579 0.079284
0.198540 0.738235 0.078940
0.228096 0.737891 0.078596
0.257652 0.737547 0.078252
0.287208 0.737203 0.077908
0.316764 0.736859 0.077564
0.346320 0.736515 0.077221
0.375877 0.736172 0.076877
0.405433 0.735828 0.076533
0.434989 0.735484 0.076189
0.464545 0.735140 0.075845
0.494101 0.734796 0.075501
0.523657 0.734452 0.075157
0.553214 0.734109 0.074814
0.582770 0.733765 0.074470
0.612326 0.733421 0.074126
0.641882 0.733077 0.073782
0.671438 0.732733 0.073438
0.700994 0.732389 0.073094
0.730550 0.732045 0.072750
0.760107 0.731702 0.072407
0.789663 0.731358 0.072063
0.819219 0.731014 0.071719
0.848775 0.730670 0.071375
0.878331 0.730326 0.071031
0.907887 0.729982 0.070687
0.937444 0.729638 0.070344
0.967000 0.729295 0.070000
0.996556 0.728951 0.069656
1.000000 0.728607 0.069312
0.079606 0.770296 0.079606
0.109163 0.769952 0.079262
0.138719 0.769609 0.078919
0.168275 0.769265 0.078575
0.197831 0.768921 0.078231
0.227387 0.768577 0.077887
0.256943 0.768233 0.077543
0.286499 0.767889 0.077199
0.316056 0.767546 0.076856
0.345612 0.767202 0.076512
0.375168 0.766858 0.076168
0.404724 0.766514 0.075824
0.434280 0.766170 0.075480
0.463836 0.765826 0.075136
0.493392 0.765482 0.074792
0.522949 0.765139 0.074449
0.552505 0.764795 0.074105
0.582061 0.764451 0.073761
0.611617 0.764107 0.073417
0.641173 0.763763 0.073073
0.670729 0.763419 0.072729
0.700285 0.763075 0.072385
0.729842 0.762732 0.072042
0.759398 0.762388 0.071698
0.788954 0.762044 0.071354
0.818510 0.761700 0.071010
0.848066 0.761356 0.070666
0.877622 0.761012 0.070322
0.907179 0.760669 0.069979
0.936735 0.760325 0.069635
0.966291 0.759981 0.069291
0.995847 0.759637 0.068947
1.000000 0.759293 0.068603
0.078898 0.800983 0.078898
0.108454 0.800639 0.078554
0.138010 0.800295 0.078210
0.167566 0.799951 0.077866
0.197122 0.799607 0.077522
0.226678 0.799263 0.077178
0.256234 0.798919 0.076834
0.285791 0.798576 0.076491
0.315347 0.798232 0.076147
0.344903 0.797888 0.075803
0.374459 0.797544 0.075459
0.404015 0.797200 0.075115
0.433571 0.796856 0.074771
0.463127 0.796513 0.074427
0.492684 0.796169 0.074084
0.522240 0.795825 0.073740
0.551796 0.795481 0.073396
0.581352 0.795137 0.073052
0.610908 0.794793 0.072708
0.640464 0.794449 0.072364
0.670021 0.794106 0.072021
0.699577 0.793762 0.071677
0.729133 0.793418 0.071333
0.758689 0.793074 0.070989
0.788245 0.792730 0.070645
0.817801 0.792386 0.070301
0.847357 0.792042 0.069957
0.876914 0.791699 0.069614
0.906470 0.791355 0.069270
0.936026 0.791011 0.068926
0.965582 0.790667 0.068582
0.995138 0.790323 0.068238
1.000000 0.789979 0.067894
0.078189 0.831669 0.078189
0.107745 0.831325 0.077845
0.137301 0.830981 0.077501
0.166857 0.830637 0.077157
0.196413 0.830293 0.076813
0.225969 0.829949 0.076469
0.255526 0.829606 0.076126
0.285082 0.829262 0.075782
0.314638 0.828918 0.075438
0.344194 0.828574 0.075094
0.373750 0.828230 0.074750
0.403306 0.827886 0.074406
0.432863 0.827543 0.074063
0.462419 0.827199 0.073719
0.491975 0.826855 0.073375
0.521531 0.826511 0.073031
0.551087 0.826167 0.072687
0.580643 0.825823 0.072343
0.610199 0.825479 0.071999
0.639756 0.825136 0.071656
0.669312 0.824792 0.071312
0.698868 0.824448 0.070968
0.728424 0.824104 0.070624
0.757980 0.823760 0.070280
0.787536 0.823416 0.069936
0.817092 0.823072 0.069592
0.846649 0.822729 0.069249
0.876205 0.822385 0.068905
0.905761 0.822041 0.068561
0.935317 0.821697 0.068217
0.964873 0.821353 0.067873
0.994429 0.821009 0.067529
1.000000 0.820666 0.067186
0.077480 0.862355 0.077480
0.107036 0.862011 0.077136
0.136592 0.861667 0.076792
0.166148 0.861323 0.076448
0.195705 0.860980 0.076105
0.225261 0.860636 0.075761
0.254817 0.860292 0.075417
0.284373 0.859948 0.075073
0.313929 0.859604 0.074729
0.343485 0.859260 0.074385
0.373041 0.858916 0.074041
0.402598 0.858573 0.073698
0.432154 0.858229 0.073354
0.461710 0.857885 0.073010
0.491266 0.857541 0.072666
0.520822 0.857197 0.072322
0.550378 0.856853 0.071978
0.579934 0.856509 0.071634
0.609491 0.856166 0.071291
0.639047 0.855822 0.070947
0.668603 0.855478 0.070603
0.698159 0.855134 0.070259
0.727715 0.854790 0.069915
0.757271 0.854446 0.069571
0.786828 0.854103 0.069228
0.816384 0.853759 0.068884
0.845940 0.853415 0.068540
0.875496 0.853071 0.068196
0.905052 0.852727 0.067852
0.934608 0.852383 0.067508
0.964164 0.852039 0.067164
0.993721 0.851696 0.066821
1.000000 0.851352 0.066477
0.076771 0.893041 0.076771
0.106327 0.892697 0.076427
0.135883 0.892353 0.076083
0.165440 0.892010 0.075740
0.194996 0.891666 0.075396
0.224552 0.891322 0.075052
0.254108 0.890978 0.074708
0.283664 0.890634 0.074364
0.313220 0.890290 0.074020
0.342776 0.889946 0.073676
0.372333 0.889603 0.073333
0.401889 0.889259 0.072989
0.431445 0.888915 0.072645
0.461001 0.888571 0.072301
0.490557 0.888227 0.071957
0.520113 0.887883 0.071613
0.549670 0.887540 0.071270
0.579226 0.887196 0.070926
0.608782 0.886852 0.070582
0.638338 0.886508 0.070238
0.667894 0.886164 0.069894
0.697450 0.885820 0.069550
0.727006 0.885476 0.069206
0.756563 0.885133 0.068863
0.786119 0.884789 0.068519
0.815675 0.884445 0.068175
0.845231 0.884101 0.067831
0.874787 0.883757 0.067487
0.904343 0.883413 0.067143
