assets/luts/primelive_weifeng.cube
TITLE "primelive_weifeng"
LUT_3D_SIZE 5
0.117500 0.117500 0.117500
0.331211 0.118796 0.118796
0.544922 0.120092 0.120092
0.758634 0.121389 0.121389
0.972345 0.122685 0.122685
0.120119 0.338782 0.120119
0.333831 0.340078 0.121416
0.547542 0.341374 0.122712
0.761253 0.342670 0.124008
0.974964 0.343967 0.125304
0.122739 0.560064 0.122739
0.336450 0.561360 0.124035
0.550161 0.562656 0.125331
0.763872 0.563952 0.126627
0.977584 0.565249 0.127924
0.125358 0.781346 0.125358
0.339070 0.782642 0.126655
0.552781 0.783938 0.127951
0.766492 0.785234 0.129247
0.980203 0.786531 0.130543
0.127978 1.000000 0.127978
0.341689 1.000000 0.129274
0.555400 1.000000 0.130570
0.769111 1.000000 0.131866
0.982823 1.000000 0.133163
0.118023 0.118023 0.342933
0.331734 0.119319 0.344229
0.545446 0.120616 0.345526
0.759157 0.121912 0.346822
0.972868 0.123208 0.348118
0.120643 0.339305 0.345553
0.334354 0.340601 0.346849
0.548065 0.341898 0.348145
0.761776 0.343194 0.349441
0.975487 0.344490 0.350737
0.123262 0.560587 0.348172
0.336973 0.561883 0.349468
0.550685 0.563180 0.350765
0.764396 0.564476 0.352061
0.978107 0.565772 0.353357
0.125882 0.781869 0.350792
0.339593 0.783165 0.352088
0.553304 0.784462 0.353384
0.767015 0.785758 0.354680
0.980726 0.787054 0.355976
0.128501 1.000000 0.353411
0.342212 1.000000 0.354707
0.555924 1.000000 0.356004
0.769635 1.000000 0.357300
0.983346 1.000000 0.358596
0.118547 0.118547 0.568367
0.332258 0.119843 0.569663
0.545969 0.121139 0.570959
0.759680 0.122435 0.572255
0.973391 0.123731 0.573551
0.121166 0.339828 0.570986
0.334877 0.341125 0.572282
0.548588 0.342421 0.573578
0.762300 0.343717 0.574875
0.976011 0.345013 0.576171
0.123786 0.561110 0.573606
0.337497 0.562407 0.574902
0.551208 0.563703 0.576198
0.764919 0.564999 0.577494
0.978630 0.566295 0.578790
0.126405 0.782392 0.576225
0.340116 0.783689 0.577521
0.553827 0.784985 0.578817
0.767539 0.786281 0.580114
0.981250 0.787577 0.581410
0.129024 1.000000 0.578845
0.342736 1.000000 0.580141
0.556447 1.000000 0.581437
0.770158 1.000000 0.582733
0.983869 1.000000 0.584029
0.119070 0.119070 0.793800
0.332781 0.120366 0.795096
0.546492 0.121662 0.796392
0.760203 0.122958 0.797688
0.973914 0.124254 0.798985
0.121689 0.340352 0.796419
0.335400 0.341648 0.797716
0.549112 0.342944 0.799012
0.762823 0.344240 0.800308
0.976534 0.345536 0.801604
0.124309 0.561634 0.799039
0.338020 0.562930 0.800335
0.551731 0.564226 0.801631
0.765442 0.565522 0.802927
0.979153 0.566818 0.804224
0.126928 0.782916 0.801658
0.340639 0.784212 0.802955
0.554351 0.785508 0.804251
0.768062 0.786804 0.805547
0.981773 0.788100 0.806843
0.129548 1.000000 0.804278
0.343259 1.000000 0.805574
0.556970 1.000000 0.806870
0.770681 1.000000 0.808166
0.984392 1.000000 0.809463
0.119593 0.119593 1.000000
0.333304 0.120889 1.000000
0.547015 0.122185 1.000000
0.760727 0.123482 1.000000
0.974438 0.124778 1.000000
0.122213 0.340875 1.000000
0.335924 0.342171 1.000000
0.549635 0.343467 1.000000
0.763346 0.344764 1.000000
0.977057 0.346060 1.000000
0.124832 0.562157 1.000000
0.338543 0.563453 1.000000
0.552254 0.564749 1.000000
0.765966 0.566045 1.000000
0.979677 0.567342 1.000000
0.127452 0.783439 1.000000
0.341163 0.784735 1.000000
0.554874 0.786031 1.000000
0.768585 0.787328 1.000000
0.982296 0.788624 1.000000
0.130071 1.000000 1.000000
0.343782 1.000000 1.000000
0.557493 1.000000 1.000000
0.771205 1.000000 1.000000
0.984916 1.000000 1.000000
