assets/luts/primelive_meihuo.cube
TITLE "primelive_meihuo"
LUT_3D_SIZE 33
0.000000 0.000000 0.000000
0.002493 0.000000 0.000000
0.042587 0.000000 0.000000
0.082680 0.000000 0.000000
0.122773 0.000000 0.000000
0.162867 0.000000 0.000000
0.202960 0.000000 0.000000
0.243054 0.000000 0.000000
0.283147 0.000000 0.000000
0.323240 0.000000 0.000000
0.363334 0.000000 0.000000
0.403427 0.000000 0.000000
0.443520 0.000000 0.000000
0.483614 0.000000 0.000000
0.523707 0.000000 0.000000
0.563801 0.000000 0.000000
0.603894 0.000000 0.000000
0.643987 0.000000 0.000000
0.684081 0.000000 0.000000
0.724174 0.000000 0.000000
0.764267 0.000000 0.000000
0.804361 0.000000 0.000000
0.844454 0.000000 0.000000
0.884547 0.000000 0.000000
0.924641 0.000000 0.000000
0.964734 0.000000 0.000000
1.000000 0.000000 0.000000
1.000000 0.000000 0.000000
1.000000 0.000000 0.000000
1.000000 0.000000 0.000000
1.000000 0.000000 0.000000
1.000000 0.000000 0.000000
1.000000 0.000000 0.000000
0.000000 0.000000 0.000000
0.000000 0.000000 0.000000
0.039300 0.000000 0.000000
0.079393 0.000000 0.000000
0.119486 0.000000 0.000000
0.159580 0.000000 0.000000
0.199673 0.000000 0.000000
0.239766 0.000000 0.000000
0.279860 0.000000 0.000000
0.319953 0.000000 0.000000
0.360046 0.000000 0.000000
0.400140 0.000000 0.000000
0.440233 0.000000 0.000000
0.480327 0.000000 0.000000
0.520420 0.000000 0.000000
0.560513 0.000000 0.000000
0.600607 0.000000 0.000000
0.640700 0.000000 0.000000
0.680793 0.000000 0.000000
0.720887 0.000000 0.000000
0.760980 0.000000 0.000000
0.801073 0.000000 0.000000
0.841167 0.000000 0.000000
0.881260 0.000000 0.000000
0.921354 0.000000 0.000000
0.961447 0.000000 0.000000
1.000000 0.000000 0.000000
1.000000 0.000000 0.000000
1.000000 0.000000 0.000000
1.000000 0.000000 0.000000
1.000000 0.000000 0.000000
1.000000 0.000000 0.000000
1.000000 0.000000 0.000000
0.000000 0.037026 0.000000
0.000000 0.035301 0.000000
0.036012 0.033576 0.000000
0.076106 0.031852 0.000000
0.116199 0.030127 0.000000
0.156292 0.028402 0.000000
0.196386 0.026678 0.000000
0.236479 0.024953 0.000000
0.276573 0.023229 0.000000
0.316666 0.021504 0.000000
0.356759 0.019779 0.000000
0.396853 0.018055 0.000000
0.436946 0.016330 0.000000
0.477039 0.014605 0.000000
0.517133 0.012881 0.000000
0.557226 0.011156 0.000000
0.597319 0.009431 0.000000
0.637413 0.007707 0.000000
0.677506 0.005982 0.000000
0.717600 0.004258 0.000000
0.757693 0.002533 0.000000
0.797786 0.000808 0.000000
0.837880 0.000000 0.000000
0.877973 0.000000 0.000000
0.918066 0.000000 0.000000
0.958160 0.000000 0.000000
0.998253 0.000000 0.000000
1.000000 0.000000 0.000000
1.000000 0.000000 0.000000
1.000000 0.000000 0.000000
1.000000 0.000000 0.000000
1.000000 0.000000 0.000000
1.000000 0.000000 0.000000
0.000000 0.074338 0.000000
0.000000 0.072614 0.000000
0.032725 0.070889 0.000000
0.072818 0.069164 0.000000
0.112912 0.067440 0.000000
0.153005 0.065715 0.000000
0.193099 0.063991 0.000000
0.233192 0.062266 0.000000
0.273285 0.060541 0.000000
0.313379 0.058817 0.000000
0.353472 0.057092 0.000000
0.393565 0.055367 0.000000
0.433659 0.053643 0.000000
0.473752 0.051918 0.000000
0.513846 0.050194 0.000000
0.553939 0.048469 0.000000
0.594032 0.046744 0.000000
0.634126 0.045020 0.000000
0.674219 0.043295 0.000000
0.714312 0.041570 0.000000
0.754406 0.039846 0.000000
0.794499 0.038121 0.000000
0.834592 0.036396 0.000000
0.874686 0.034672 0.000000
0.914779 0.032947 0.000000
0.954873 0.031223 0.000000
0.994966 0.029498 0.000000
1.000000 0.027773 0.000000
1.000000 0.026049 0.000000
1.000000 0.024324 0.000000
1.000000 0.022599 0.000000
1.000000 0.020875 0.000000
1.000000 0.019150 0.000000
0.000000 0.111651 0.000000
0.000000 0.109927 0.000000
0.029438 0.108202 0.000000
0.069531 0.106477 0.000000
0.109625 0.104753 0.000000
0.149718 0.103028 0.000000
0.189811 0.101303 0.000000
0.229905 0.099579 0.000000
0.269998 0.097854 0.000000
0.310091 0.096129 0.000000
0.350185 0.094405 0.000000
0.390278 0.092680 0.000000
0.430372 0.090956 0.000000
0.470465 0.089231 0.000000
0.510558 0.087506 0.000000
0.550652 0.085782 0.000000
0.590745 0.084057 0.000000
0.630838 0.082332 0.000000
0.670932 0.080608 0.000000
0.711025 0.078883 0.000000
0.751118 0.077159 0.000000
0.791212 0.075434 0.000000
0.831305 0.073709 0.000000
0.871399 0.071985 0.000000
0.911492 0.070260 0.000000
0.951585 0.068535 0.000000
0.991679 0.066811 0.000000
1.000000 0.065086 0.000000
1.000000 0.063361 0.000000
1.000000 0.061637 0.000000
1.000000 0.059912 0.000000
1.000000 0.058188 0.000000
1.000000 0.056463 0.000000
0.000000 0.148964 0.000000
0.000000 0.147239 0.000000
0.026151 0.145515 0.000000
0.066244 0.143790 0.000000
0.106337 0.142065 0.000000
0.146431 0.140341 0.000000
0.186524 0.138616 0.000000
0.226618 0.136892 0.000000
0.266711 0.135167 0.000000
0.306804 0.133442 0.000000
0.346898 0.131718 0.000000
0.386991 0.129993 0.000000
0.427084 0.128268 0.000000
0.467178 0.126544 0.000000
0.507271 0.124819 0.000000
0.547365 0.123094 0.000000
0.587458 0.121370 0.000000
0.627551 0.119645 0.000000
0.667645 0.117921 0.000000
0.707738 0.116196 0.000000
0.747831 0.114471 0.000000
0.787925 0.112747 0.000000
0.828018 0.111022 0.000000
0.868111 0.109297 0.000000
0.908205 0.107573 0.000000
0.948298 0.105848 0.000000
0.988391 0.104124 0.000000
1.000000 0.102399 0.000000
1.000000 0.100674 0.000000
1.000000 0.098950 0.000000
1.000000 0.097225 0.000000
1.000000 0.095500 0.000000
1.000000 0.093776 0.000000
0.000000 0.186277 0.000000
0.000000 0.184552 0.000000
0.022864 0.182828 0.000000
0.062957 0.181103 0.000000
0.103050 0.179378 0.000000
0.143144 0.177654 0.000000
0.183237 0.175929 0.000000
0.223330 0.174204 0.000000
0.263424 0.172480 0.000000
0.303517 0.170755 0.000000
0.343610 0.169030 0.000000
0.383704 0.167306 0.000000
0.423797 0.165581 0.000000
0.463891 0.163857 0.000000
0.503984 0.162132 0.000000
0.544077 0.160407 0.000000
0.584171 0.158683 0.000000
0.624264 0.156958 0.000000
0.664357 0.155233 0.000000
0.704451 0.153509 0.000000
0.744544 0.151784 0.000000
0.784637 0.150059 0.000000
0.824731 0.148335 0.000000
0.864824 0.146610 0.000000
0.904918 0.144886 0.000000
0.945011 0.143161 0.000000
0.985104 0.141436 0.000000
1.000000 0.139712 0.000000
1.000000 0.137987 0.000000
1.000000 0.136262 0.000000
1.000000 0.134538 0.000000
1.000000 0.132813 0.000000
1.000000 0.131089 0.000000
0.000000 0.223590 0.000000
0.000000 0.221865 0.000000
0.019576 0.220140 0.000000
0.059670 0.218416 0.000000
0.099763 0.216691 0.000000
0.139856 0.214966 0.000000
0.179950 0.213242 0.000000
0.220043 0.211517 0.000000
0.260137 0.209793 0.000000
0.300230 0.208068 0.000000
0.340323 0.206343 0.000000
0.380417 0.204619 0.000000
0.420510 0.202894 0.000000
0.460603 0.201169 0.000000
0.500697 0.199445 0.000000
0.540790 0.197720 0.000000
0.580883 0.195995 0.000000
0.620977 0.194271 0.000000
0.661070 0.192546 0.000000
0.701164 0.190822 0.000000
0.741257 0.189097 0.000000
0.781350 0.187372 0.000000
0.821444 0.185648 0.000000
0.861537 0.183923 0.000000
0.901630 0.182198 0.000000
0.941724 0.180474 0.000000
0.981817 0.178749 0.000000
1.000000 0.177025 0.000000
1.000000 0.175300 0.000000
1.000000 0.173575 0.000000
1.000000 0.171851 0.000000
1.000000 0.170126 0.000000
1.000000 0.168401 0.000000
0.000000 0.260902 0.000000
0.000000 0.259178 0.000000
0.016289 0.257453 0.000000
0.056382 0.255729 0.000000
0.096476 0.254004 0.000000
0.136569 0.252279 0.000000
0.176663 0.250555 0.000000
0.216756 0.248830 0.000000
0.256849 0.247105 0.000000
0.296943 0.245381 0.000000
0.337036 0.243656 0.000000
0.377129 0.241931 0.000000
0.417223 0.240207 0.000000
0.457316 0.238482 0.000000
0.497410 0.236758 0.000000
0.537503 0.235033 0.000000
0.577596 0.233308 0.000000
0.617690 0.231584 0.000000
0.657783 0.229859 0.000000
0.697876 0.228134 0.000000
0.737970 0.226410 0.000000
0.778063 0.224685 0.000000
0.818156 0.222961 0.000000
0.858250 0.221236 0.000000
0.898343 0.219511 0.000000
0.938437 0.217787 0.000000
0.978530 0.216062 0.000000
1.000000 0.214337 0.000000
1.000000 0.212613 0.000000
1.000000 0.210888 0.000000
1.000000 0.209163 0.000000
1.000000 0.207439 0.000000
1.000000 0.205714 0.000000
0.000000 0.298215 0.000000
0.000000 0.296491 0.000000
0.013002 0.294766 0.000000
0.053095 0.293041 0.000000
0.093189 0.291317 0.000000
0.133282 0.289592 0.000000
0.173375 0.287867 0.000000
0.213469 0.286143 0.000000
0.253562 0.284418 0.000000
0.293655 0.282694 0.000000
0.333749 0.280969 0.000000
0.373842 0.279244 0.000000
0.413936 0.277520 0.000000
0.454029 0.275795 0.000000
0.494122 0.274070 0.000000
0.534216 0.272346 0.000000
0.574309 0.270621 0.000000
0.614402 0.268896 0.000000
0.654496 0.267172 0.000000
0.694589 0.265447 0.000000
0.734682 0.263723 0.000000
0.774776 0.261998 0.000000
0.814869 0.260273 0.000000
0.854963 0.258549 0.000000
0.895056 0.256824 0.000000
0.935149 0.255099 0.000000
0.975243 0.253375 0.000000
1.000000 0.251650 0.000000
1.000000 0.249926 0.000000
1.000000 0.248201 0.000000
1.000000 0.246476 0.000000
1.000000 0.244752 0.000000
1.000000 0.243027 0.000000
0.000000 0.335528 0.000000
0.000000 0.333803 0.000000
0.009715 0.332079 0.000000
0.049808 0.330354 0.000000
0.089901 0.328629 0.000000
0.129995 0.326905 0.000000
0.170088 0.325180 0.000000
0.210182 0.323456 0.000000
0.250275 0.321731 0.000000
0.290368 0.320006 0.000000
0.330462 0.318282 0.000000
0.370555 0.316557 0.000000
0.410648 0.314832 0.000000
0.450742 0.313108 0.000000
0.490835 0.311383 0.000000
0.530929 0.309659 0.000000
0.571022 0.307934 0.000000
0.611115 0.306209 0.000000
0.651209 0.304485 0.000000
0.691302 0.302760 0.000000
0.731395 0.301035 0.000000
0.771489 0.299311 0.000000
0.811582 0.297586 0.000000
0.851675 0.295861 0.000000
0.891769 0.294137 0.000000
0.931862 0.292412 0.000000
0.971955 0.290688 0.000000
1.000000 0.288963 0.000000
1.000000 0.287238 0.000000
1.000000 0.285514 0.000000
1.000000 0.283789 0.000000
1.000000 0.282064 0.000000
1.000000 0.280340 0.000000
0.000000 0.372841 0.000000
0.000000 0.371116 0.000000
0.006428 0.369392 0.000000
0.046521 0.367667 0.000000
0.086614 0.365942 0.000000
0.126708 0.364218 0.000000
0.166801 0.362493 0.000000
0.206894 0.360768 0.000000
0.246988 0.359044 0.000000
0.287081 0.357319 0.000000
0.327174 0.355594 0.000000
0.367268 0.353870 0.000000
0.407361 0.352145 0.000000
0.447455 0.350421 0.000000
0.487548 0.348696 0.000000
0.527641 0.346971 0.000000
0.567735 0.345247 0.000000
0.607828 0.343522 0.000000
0.647921 0.341797 0.000000
0.688015 0.340073 0.000000
0.728108 0.338348 0.000000
0.768201 0.336624 0.000000
0.808295 0.334899 0.000000
0.848388 0.333174 0.000000
0.888482 0.331450 0.000000
0.928575 0.329725 0.000000
0.968668 0.328000 0.000000
1.000000 0.326276 0.000000
1.000000 0.324551 0.000000
1.000000 0.322826 0.000000
1.000000 0.321102 0.000000
1.000000 0.319377 0.000000
1.000000 0.317653 0.000000
0.000000 0.410154 0.000000
0.000000 0.408429 0.000000
0.003140 0.406704 0.000000
0.043234 0.404980 0.000000
0.083327 0.403255 0.000000
0.123420 0.401530 0.000000
0.163514 0.399806 0.000000
0.203607 0.398081 0.000000
0.243701 0.396357 0.000000
0.283794 0.394632 0.000000
0.323887 0.392907 0.000000
0.363981 0.391183 0.000000
0.404074 0.389458 0.000000
0.444167 0.387733 0.000000
0.484261 0.386009 0.000000
0.524354 0.384284 0.000000
0.564447 0.382559 0.000000
0.604541 0.380835 0.000000
0.644634 0.379110 0.000000
0.684728 0.377386 0.000000
0.724821 0.375661 0.000000
0.764914 0.373936 0.000000
0.805008 0.372212 0.000000
0.845101 0.370487 0.000000
0.885194 0.368762 0.000000
0.925288 0.367038 0.000000
0.965381 0.365313 0.000000
1.000000 0.363589 0.000000
1.000000 0.361864 0.000000
1.000000 0.360139 0.000000
1.000000 0.358415 0.000000
1.000000 0.356690 0.000000
1.000000 0.354965 0.000000
0.000000 0.447466 0.000000
0.000000 0.445742 0.000000
0.000000 0.444017 0.000000
0.039946 0.442293 0.000000
0.080040 0.440568 0.000000
0.120133 0.438843 0.000000
0.160227 0.437119 0.000000
0.200320 0.435394 0.000000
0.240413 0.433669 0.000000
0.280507 0.431945 0.000000
0.320600 0.430220 0.000000
0.360693 0.428495 0.000000
0.400787 0.426771 0.000000
0.440880 0.425046 0.000000
0.480974 0.423322 0.000000
0.521067 0.421597 0.000000
0.561160 0.419872 0.000000
0.601254 0.418148 0.000000
0.641347 0.416423 0.000000
0.681440 0.414698 0.000000
0.721534 0.412974 0.000000
0.761627 0.411249 0.000000
0.801720 0.409525 0.000000
0.841814 0.407800 0.000000
0.881907 0.406075 0.000000
0.922001 0.404351 0.000000
0.962094 0.402626 0.000000
1.000000 0.400901 0.000000
1.000000 0.399177 0.000000
1.000000 0.397452 0.000000
1.000000 0.395727 0.000000
1.000000 0.394003 0.000000
1.000000 0.392278 0.000000
0.000000 0.484779 0.000000
0.000000 0.483055 0.000000
0.000000 0.481330 0.000000
0.036659 0.479605 0.000000
0.076753 0.477881 0.000000
0.116846 0.476156 0.000000
0.156939 0.474431 0.000000
0.197033 0.472707 0.000000
0.237126 0.470982 0.000000
0.277219 0.469258 0.000000
0.317313 0.467533 0.000000
0.357406 0.465808 0.000000
0.397500 0.464084 0.000000
0.437593 0.462359 0.000000
0.477686 0.460634 0.000000
0.517780 0.458910 0.000000
0.557873 0.457185 0.000000
0.597966 0.455460 0.000000
0.638060 0.453736 0.000000
0.678153 0.452011 0.000000
0.718246 0.450287 0.000000
0.758340 0.448562 0.000000
0.798433 0.446837 0.000000
0.838527 0.445113 0.000000
0.878620 0.443388 0.000000
0.918713 0.441663 0.000000
0.958807 0.439939 0.000000
0.998900 0.438214 0.000000
1.000000 0.436490 0.000000
1.000000 0.434765 0.000000
1.000000 0.433040 0.000000
1.000000 0.431316 0.000000
1.000000 0.429591 0.000000
0.000000 0.522092 0.000000
0.000000 0.520367 0.000000
0.000000 0.518643 0.000000
0.033372 0.516918 0.000000
0.073465 0.515193 0.000000
0.113559 0.513469 0.000000
0.153652 0.511744 0.000000
0.193746 0.510020 0.000000
0.233839 0.508295 0.000000
0.273932 0.506570 0.000000
0.314026 0.504846 0.000000
0.354119 0.503121 0.000000
0.394212 0.501396 0.000000
0.434306 0.499672 0.000000
0.474399 0.497947 0.000000
0.514493 0.496223 0.000000
0.554586 0.494498 0.000000
0.594679 0.492773 0.000000
0.634773 0.491049 0.000000
0.674866 0.489324 0.000000
0.714959 0.487599 0.000000
0.755053 0.485875 0.000000
0.795146 0.484150 0.000000
0.835239 0.482425 0.000000
0.875333 0.480701 0.000000
0.915426 0.478976 0.000000
0.955519 0.477252 0.000000
0.995613 0.475527 0.000000
1.000000 0.473802 0.000000
1.000000 0.472078 0.000000
1.000000 0.470353 0.000000
1.000000 0.468628 0.000000
1.000000 0.466904 0.000000
0.000000 0.559405 0.000000
0.000000 0.557680 0.000000
0.000000 0.555955 0.000000
0.030085 0.554231 0.000000
0.070178 0.552506 0.000000
0.110272 0.550782 0.000000
0.150365 0.549057 0.000000
0.190458 0.547332 0.000000
0.230552 0.545608 0.000000
0.270645 0.543883 0.000000
0.310738 0.542158 0.000000
0.350832 0.540434 0.000000
0.390925 0.538709 0.000000
0.431019 0.536985 0.000000
0.471112 0.535260 0.000000
0.511205 0.533535 0.000000
0.551299 0.531811 0.000000
0.591392 0.530086 0.000000
0.631485 0.528361 0.000000
0.671579 0.526637 0.000000
0.711672 0.524912 0.000000
0.751765 0.523187 0.000000
0.791859 0.521463 0.000000
0.831952 0.519738 0.000000
0.872046 0.518014 0.000000
0.912139 0.516289 0.000000
0.952232 0.514564 0.000000
0.992326 0.512840 0.000000
1.000000 0.511115 0.000000
1.000000 0.509390 0.000000
1.000000 0.507666 0.000000
1.000000 0.505941 0.000000
1.000000 0.504217 0.000000
0.000000 0.596718 0.000000
0.000000 0.594993 0.000000
0.000000 0.593268 0.000000
0.026798 0.591544 0.000000
0.066891 0.589819 0.000000
0.106984 0.588094 0.000000
0.147078 0.586370 0.000000
0.187171 0.584645 0.000000
0.227265 0.582921 0.000000
0.267358 0.581196 0.000000
0.307451 0.579471 0.000000
0.347545 0.577747 0.000000
0.387638 0.576022 0.000000
0.427731 0.574297 0.000000
0.467825 0.572573 0.000000
0.507918 0.570848 0.000000
0.548011 0.569123 0.000000
0.588105 0.567399 0.000000
0.628198 0.565674 0.000000
0.668292 0.563950 0.000000
0.708385 0.562225 0.000000
0.748478 0.560500 0.000000
0.788572 0.558776 0.000000
0.828665 0.557051 0.000000
0.868758 0.555326 0.000000
0.908852 0.553602 0.000000
0.948945 0.551877 0.000000
0.989038 0.550153 0.000000
1.000000 0.548428 0.000000
1.000000 0.546703 0.000000
1.000000 0.544979 0.000000
1.000000 0.543254 0.000000
1.000000 0.541529 0.000000
0.000000 0.634030 0.000000
0.000000 0.632306 0.000000
0.000000 0.630581 0.000000
0.023511 0.628856 0.000000
0.063604 0.627132 0.000000
0.103697 0.625407 0.000000
0.143791 0.623683 0.000000
0.183884 0.621958 0.000000
0.223977 0.620233 0.000000
0.264071 0.618509 0.000000
0.304164 0.616784 0.000000
0.344257 0.615059 0.000000
0.384351 0.613335 0.000000
0.424444 0.611610 0.000000
0.464538 0.609886 0.000000
0.504631 0.608161 0.000000
0.544724 0.606436 0.000000
0.584818 0.604712 0.000000
0.624911 0.602987 0.000000
0.665004 0.601262 0.000000
0.705098 0.599538 0.000000
0.745191 0.597813 0.000000
0.785284 0.596088 0.000000
0.825378 0.594364 0.000000
0.865471 0.592639 0.000000
0.905565 0.590915 0.000000
0.945658 0.589190 0.000000
0.985751 0.587465 0.000000
1.000000 0.585741 0.000000
1.000000 0.584016 0.000000
1.000000 0.582291 0.000000
1.000000 0.580567 0.000000
1.000000 0.578842 0.000000
0.000000 0.671343 0.000000
0.000000 0.669619 0.000000
0.000000 0.667894 0.000000
0.020223 0.666169 0.000000
0.060317 0.664445 0.000000
0.100410 0.662720 0.000000
0.140503 0.660995 0.000000
0.180597 0.659271 0.000000
0.220690 0.657546 0.000000
0.260783 0.655821 0.000000
0.300877 0.654097 0.000000
0.340970 0.652372 0.000000
0.381064 0.650648 0.000000
0.421157 0.648923 0.000000
0.461250 0.647198 0.000000
0.501344 0.645474 0.000000
0.541437 0.643749 0.000000
0.581530 0.642024 0.000000
0.621624 0.640300 0.000000
0.661717 0.638575 0.000000
0.701810 0.636851 0.000000
0.741904 0.635126 0.000000
0.781997 0.633401 0.000000
0.822091 0.631677 0.000000
0.862184 0.629952 0.000000
0.902277 0.628227 0.000000
0.942371 0.626503 0.000000
0.982464 0.624778 0.000000
1.000000 0.623053 0.000000
1.000000 0.621329 0.000000
1.000000 0.619604 0.000000
1.000000 0.617880 0.000000
1.000000 0.616155 0.000000
0.000000 0.708656 0.000000
0.000000 0.706931 0.000000
0.000000 0.705207 0.000000
0.016936 0.703482 0.000000
0.057029 0.701757 0.000000
0.097123 0.700033 0.000000
0.137216 0.698308 0.000000
0.177310 0.696584 0.000000
0.217403 0.694859 0.000000
0.257496 0.693134 0.000000
0.297590 0.691410 0.000000
0.337683 0.689685 0.000000
0.377776 0.687960 0.000000
0.417870 0.686236 0.000000
0.457963 0.684511 0.000000
0.498057 0.682787 0.000000
0.538150 0.681062 0.000000
0.578243 0.679337 0.000000
0.618337 0.677613 0.000000
0.658430 0.675888 0.000000
0.698523 0.674163 0.000000
0.738617 0.672439 0.000000
0.778710 0.670714 0.000000
0.818803 0.668989 0.000000
0.858897 0.667265 0.000000
0.898990 0.665540 0.000000
0.939083 0.663816 0.000000
0.979177 0.662091 0.000000
1.000000 0.660366 0.000000
1.000000 0.658642 0.000000
1.000000 0.656917 0.000000
1.000000 0.655192 0.000000
1.000000 0.653468 0.000000
0.000000 0.745969 0.000000
0.000000 0.744244 0.000000
0.000000 0.742520 0.000000
0.013649 0.740795 0.000000
0.053742 0.739070 0.000000
0.093836 0.737346 0.000000
0.133929 0.735621 0.000000
0.174022 0.733896 0.000000
0.214116 0.732172 0.000000
0.254209 0.730447 0.000000
0.294302 0.728722 0.000000
0.334396 0.726998 0.000000
0.374489 0.725273 0.000000
0.414583 0.723549 0.000000
0.454676 0.721824 0.000000
0.494769 0.720099 0.000000
0.534863 0.718375 0.000000
0.574956 0.716650 0.000000
0.615049 0.714925 0.000000
0.655143 0.713201 0.000000
0.695236 0.711476 0.000000
0.735329 0.709752 0.000000
0.775423 0.708027 0.000000
0.815516 0.706302 0.000000
0.855610 0.704578 0.000000
0.895703 0.702853 0.000000
0.935796 0.701128 0.000000
0.975890 0.699404 0.000000
1.000000 0.697679 0.000000
1.000000 0.695954 0.000000
1.000000 0.694230 0.000000
1.000000 0.692505 0.000000
1.000000 0.690781 0.000000
0.000000 0.783282 0.000000
0.000000 0.781557 0.000000
0.000000 0.779832 0.000000
0.010362 0.778108 0.000000
0.050455 0.776383 0.000000
0.090548 0.774658 0.000000
0.130642 0.772934 0.000000
0.170735 0.771209 0.000000
0.210829 0.769485 0.000000
0.250922 0.767760 0.000000
0.291015 0.766035 0.000000
0.331109 0.764311 0.000000
0.371202 0.762586 0.000000
0.411295 0.760861 0.000000
0.451389 0.759137 0.000000
0.491482 0.757412 0.000000
0.531575 0.755687 0.000000
0.571669 0.753963 0.000000
0.611762 0.752238 0.000000
0.651856 0.750514 0.000000
0.691949 0.748789 0.000000
0.732042 0.747064 0.000000
0.772136 0.745340 0.000000
0.812229 0.743615 0.000000
0.852322 0.741890 0.000000
0.892416 0.740166 0.000000
0.932509 0.738441 0.000000
0.972602 0.736717 0.000000
1.000000 0.734992 0.000000
1.000000 0.733267 0.000000
1.000000 0.731543 0.000000
1.000000 0.729818 0.000000
1.000000 0.728093 0.000000
0.000000 0.820594 0.000000
0.000000 0.818870 0.000000
0.000000 0.817145 0.000000
0.007075 0.815420 0.000000
0.047168 0.813696 0.000000
0.087261 0.811971 0.000000
0.127355 0.810247 0.000000
0.167448 0.808522 0.000000
0.207541 0.806797 0.000000
0.247635 0.805073 0.000000
0.287728 0.803348 0.000000
0.327821 0.801623 0.000000
0.367915 0.799899 0.000000
0.408008 0.798174 0.000000
0.448102 0.796450 0.000000
0.488195 0.794725 0.000000
0.528288 0.793000 0.000000
0.568382 0.791276 0.000000
0.608475 0.789551 0.000000
0.648568 0.787826 0.000000
0.688662 0.786102 0.000000
0.728755 0.784377 0.000000
0.768848 0.782652 0.000000
0.808942 0.780928 0.000000
0.849035 0.779203 0.000000
0.889129 0.777479 0.000000
0.929222 0.775754 0.000000
0.969315 0.774029 0.000000
1.000000 0.772305 0.000000
1.000000 0.770580 0.000000
1.000000 0.768855 0.000000
1.000000 0.767131 0.000000
1.000000 0.765406 0.000000
0.000000 0.857907 0.000000
0.000000 0.856183 0.000000
0.000000 0.854458 0.000000
0.003787 0.852733 0.000000
0.043881 0.851009 0.000000
0.083974 0.849284 0.000000
0.124067 0.847559 0.000000
0.164161 0.845835 0.000000
0.204254 0.844110 0.000000
0.244347 0.842386 0.000000
0.284441 0.840661 0.000000
0.324534 0.838936 0.000000
0.364628 0.837212 0.000000
0.404721 0.835487 0.000000
0.444814 0.833762 0.000000
0.484908 0.832038 0.000000
0.525001 0.830313 0.000000
0.565094 0.828588 0.000000
0.605188 0.826864 0.000000
0.645281 0.825139 0.000000
0.685374 0.823415 0.000000
0.725468 0.821690 0.000000
0.765561 0.819965 0.000000
0.805655 0.818241 0.000000
0.845748 0.816516 0.000000
0.885841 0.814791 0.000000
0.925935 0.813067 0.000000
0.966028 0.811342 0.000000
1.000000 0.809617 0.000000
1.000000 0.807893 0.000000
1.000000 0.806168 0.000000
1.000000 0.804444 0.000000
1.000000 0.802719 0.000000
0.000000 0.895220 0.000000
0.000000 0.893495 0.000000
0.000000 0.891771 0.000000
0.000500 0.890046 0.000000
0.040593 0.888321 0.000000
0.080687 0.886597 0.000000
0.120780 0.884872 0.000000
0.160874 0.883148 0.000000
0.200967 0.881423 0.000000
0.241060 0.879698 0.000000
0.281154 0.877974 0.000000
0.321247 0.876249 0.000000
0.361340 0.874524 0.000000
0.401434 0.872800 0.000000
0.441527 0.871075 0.000000
0.481621 0.869350 0.000000
0.521714 0.867626 0.000000
0.561807 0.865901 0.000000
0.601901 0.864177 0.000000
0.641994 0.862452 0.000000
0.682087 0.860727 0.000000
0.722181 0.859003 0.000000
0.762274 0.857278 0.000000
0.802367 0.855553 0.000000
0.842461 0.853829 0.000000
0.882554 0.852104 0.000000
0.922647 0.850380 0.000000
0.962741 0.848655 0.000000
1.000000 0.846930 0.000000
1.000000 0.845206 0.000000
1.000000 0.843481 0.000000
1.000000 0.841756 0.000000
1.000000 0.840032 0.000000
0.000000 0.932533 0.000000
0.000000 0.930808 0.000000
0.000000 0.929084 0.000000
0.000000 0.927359 0.000000
0.037306 0.925634 0.000000
0.077400 0.923910 0.000000
0.117493 0.922185 0.000000
0.157586 0.920460 0.000000
0.197680 0.918736 0.000000
0.237773 0.917011 0.000000
0.277866 0.915286 0.000000
0.317960 0.913562 0.000000
0.358053 0.911837 0.000000
0.398147 0.910113 0.000000
0.438240 0.908388 0.000000
0.478333 0.906663 0.000000
0.518427 0.904939 0.000000
0.558520 0.903214 0.000000
0.598613 0.901489 0.000000
0.638707 0.899765 0.000000
0.678800 0.898040 0.000000
0.718893 0.896316 0.000000
0.758987 0.894591 0.000000
0.799080 0.892866 0.000000
0.839174 0.891142 0.000000
0.879267 0.889417 0.000000
0.919360 0.887692 0.000000
0.959454 0.885968 0.000000
0.999547 0.884243 0.000000
