assets/luts/primelive_jiudiao.cube
TITLE "primelive_jiudiao"
LUT_3D_SIZE 33
0.209123 0.221668 0.225213
0.230527 0.222354 0.225715
0.251930 0.223040 0.226217
0.273334 0.223726 0.226718
0.294738 0.224412 0.227220
0.316141 0.225098 0.227722
0.337545 0.225784 0.228224
0.358949 0.226470 0.228725
0.380352 0.227156 0.229227
0.401756 0.227842 0.229729
0.423160 0.228528 0.230231
0.444563 0.229214 0.230733
0.465967 0.229900 0.231234
0.487371 0.230586 0.231736
0.508774 0.231272 0.232238
0.530178 0.231957 0.232740
0.551581 0.232643 0.233241
0.572985 0.233329 0.233743
0.594389 0.234015 0.234245
0.615792 0.234701 0.234747
0.637196 0.235387 0.235248
0.658600 0.236073 0.235750
0.680003 0.236759 0.236252
0.701407 0.237445 0.236754
0.722811 0.238131 0.237256
0.744214 0.238817 0.237757
0.765618 0.239503 0.238259
0.787021 0.240189 0.238761
0.808425 0.240875 0.239263
0.829829 0.241561 0.239764
0.851232 0.242247 0.240266
0.872636 0.242933 0.240768
0.894040 0.243619 0.241270
0.210766 0.242707 0.226160
0.232169 0.243393 0.226662
0.253573 0.244079 0.227164
0.274977 0.244765 0.227666
0.296380 0.245451 0.228167
0.317784 0.246137 0.228669
0.339188 0.246823 0.229171
0.360591 0.247508 0.229673
0.381995 0.248194 0.230174
0.403399 0.248880 0.230676
0.424802 0.249566 0.231178
0.446206 0.250252 0.231680
0.467609 0.250938 0.232181
0.489013 0.251624 0.232683
0.510417 0.252310 0.233185
0.531820 0.252996 0.233687
0.553224 0.253682 0.234189
0.574628 0.254368 0.234690
0.596031 0.255054 0.235192
0.617435 0.255740 0.235694
0.638839 0.256426 0.236196
0.660242 0.257112 0.236697
0.681646 0.257798 0.237199
0.703049 0.258484 0.237701
0.724453 0.259170 0.238203
0.745857 0.259856 0.238704
0.767260 0.260542 0.239206
0.788664 0.261228 0.239708
0.810068 0.261914 0.240210
0.831471 0.262599 0.240712
0.852875 0.263285 0.241213
0.874278 0.263971 0.241715
0.895682 0.264657 0.242217
0.212408 0.263745 0.227107
0.233812 0.264431 0.227609
0.255216 0.265117 0.228111
0.276619 0.265803 0.228613
0.298023 0.266489 0.229115
0.319427 0.267175 0.229616
0.340830 0.267861 0.230118
0.362234 0.268547 0.230620
0.383637 0.269233 0.231122
0.405041 0.269919 0.231623
0.426445 0.270605 0.232125
0.447848 0.271291 0.232627
0.469252 0.271977 0.233129
0.490656 0.272663 0.233630
0.512059 0.273349 0.234132
0.533463 0.274035 0.234634
0.554867 0.274721 0.235136
0.576270 0.275407 0.235638
0.597674 0.276093 0.236139
0.619077 0.276779 0.236641
0.640481 0.277465 0.237143
0.661885 0.278150 0.237645
0.683288 0.278836 0.238146
0.704692 0.279522 0.238648
0.726096 0.280208 0.239150
0.747499 0.280894 0.239652
0.768903 0.281580 0.240153
0.790307 0.282266 0.240655
0.811710 0.282952 0.241157
0.833114 0.283638 0.241659
0.854518 0.284324 0.242161
0.875921 0.285010 0.242662
0.897325 0.285696 0.243164
0.214051 0.284784 0.228055
0.235455 0.285470 0.228556
0.256858 0.286156 0.229058
0.278262 0.286842 0.229560
0.299665 0.287528 0.230062
0.321069 0.288214 0.230563
0.342473 0.288900 0.231065
0.363876 0.289586 0.231567
0.385280 0.290272 0.232069
0.406684 0.290958 0.232571
0.428087 0.291644 0.233072
0.449491 0.292330 0.233574
0.470895 0.293015 0.234076
0.492298 0.293701 0.234578
0.513702 0.294387 0.235079
0.535105 0.295073 0.235581
0.556509 0.295759 0.236083
0.577913 0.296445 0.236585
0.599316 0.297131 0.237086
0.620720 0.297817 0.237588
0.642124 0.298503 0.238090
0.663527 0.299189 0.238592
0.684931 0.299875 0.239094
0.706335 0.300561 0.239595
0.727738 0.301247 0.240097
0.749142 0.301933 0.240599
0.770546 0.302619 0.241101
0.791949 0.303305 0.241602
0.813353 0.303991 0.242104
0.834756 0.304677 0.242606
0.856160 0.305363 0.243108
0.877564 0.306049 0.243609
0.898967 0.306735 0.244111
0.215693 0.305823 0.229002
0.237097 0.306509 0.229504
0.258501 0.307195 0.230005
0.279904 0.307880 0.230507
0.301308 0.308566 0.231009
0.322712 0.309252 0.231511
0.344115 0.309938 0.232012
0.365519 0.310624 0.232514
0.386923 0.311310 0.233016
0.408326 0.311996 0.233518
0.429730 0.312682 0.234020
0.451133 0.313368 0.234521
0.472537 0.314054 0.235023
0.493941 0.314740 0.235525
0.515344 0.315426 0.236027
0.536748 0.316112 0.236528
0.558152 0.316798 0.237030
0.579555 0.317484 0.237532
0.600959 0.318170 0.238034
0.622363 0.318856 0.238535
0.643766 0.319542 0.239037
0.665170 0.320228 0.239539
0.686574 0.320914 0.240041
0.707977 0.321600 0.240543
0.729381 0.322286 0.241044
0.750784 0.322971 0.241546
0.772188 0.323657 0.242048
0.793592 0.324343 0.242550
0.814995 0.325029 0.243051
0.836399 0.325715 0.243553
0.857803 0.326401 0.244055
0.879206 0.327087 0.244557
0.900610 0.327773 0.245058
0.217336 0.326861 0.229949
0.238740 0.327547 0.230451
0.260143 0.328233 0.230953
0.281547 0.328919 0.231454
0.302951 0.329605 0.231956
0.324354 0.330291 0.232458
0.345758 0.330977 0.232960
0.367162 0.331663 0.233461
0.388565 0.332349 0.233963
0.409969 0.333035 0.234465
0.431372 0.333721 0.234967
0.452776 0.334407 0.235468
0.474180 0.335093 0.235970
0.495583 0.335779 0.236472
0.516987 0.336465 0.236974
0.538391 0.337151 0.237476
0.559794 0.337837 0.237977
0.581198 0.338523 0.238479
0.602602 0.339208 0.238981
0.624005 0.339894 0.239483
0.645409 0.340580 0.239984
0.666812 0.341266 0.240486
0.688216 0.341952 0.240988
0.709620 0.342638 0.241490
0.731023 0.343324 0.241991
0.752427 0.344010 0.242493
0.773831 0.344696 0.242995
0.795234 0.345382 0.243497
0.816638 0.346068 0.243999
0.838042 0.346754 0.244500
0.859445 0.347440 0.245002
0.880849 0.348126 0.245504
0.902252 0.348812 0.246006
0.218979 0.347900 0.230896
0.240382 0.348586 0.231398
0.261786 0.349272 0.231900
0.283190 0.349958 0.232402
0.304593 0.350644 0.232903
0.325997 0.351330 0.233405
0.347400 0.352016 0.233907
0.368804 0.352702 0.234409
0.390208 0.353388 0.234910
0.411611 0.354074 0.235412
0.433015 0.354759 0.235914
0.454419 0.355445 0.236416
0.475822 0.356131 0.236917
0.497226 0.356817 0.237419
0.518630 0.357503 0.237921
0.540033 0.358189 0.238423
0.561437 0.358875 0.238925
0.582840 0.359561 0.239426
0.604244 0.360247 0.239928
0.625648 0.360933 0.240430
0.647051 0.361619 0.240932
0.668455 0.362305 0.241433
0.689859 0.362991 0.241935
0.711262 0.363677 0.242437
0.732666 0.364363 0.242939
0.754070 0.365049 0.243440
0.775473 0.365735 0.243942
0.796877 0.366421 0.244444
0.818281 0.367107 0.244946
0.839684 0.367793 0.245448
0.861088 0.368479 0.245949
0.882491 0.369164 0.246451
0.903895 0.369850 0.246953
0.220621 0.368939 0.231843
0.242025 0.369624 0.232345
0.263428 0.370310 0.232847
0.284832 0.370996 0.233349
0.306236 0.371682 0.233850
0.327639 0.372368 0.234352
0.349043 0.373054 0.234854
0.370447 0.373740 0.235356
0.391850 0.374426 0.235858
0.413254 0.375112 0.236359
0.434658 0.375798 0.236861
0.456061 0.376484 0.237363
0.477465 0.377170 0.237865
0.498868 0.377856 0.238366
0.520272 0.378542 0.238868
0.541676 0.379228 0.239370
0.563079 0.379914 0.239872
0.584483 0.380600 0.240373
0.605887 0.381286 0.240875
0.627290 0.381972 0.241377
0.648694 0.382658 0.241879
0.670098 0.383344 0.242381
0.691501 0.384030 0.242882
0.712905 0.384715 0.243384
0.734308 0.385401 0.243886
0.755712 0.386087 0.244388
0.777116 0.386773 0.244889
0.798519 0.387459 0.245391
0.819923 0.388145 0.245893
0.841327 0.388831 0.246395
0.862730 0.389517 0.246896
0.884134 0.390203 0.247398
0.905538 0.390889 0.247900
0.222264 0.389977 0.232791
0.243667 0.390663 0.233292
0.265071 0.391349 0.233794
0.286475 0.392035 0.234296
0.307878 0.392721 0.234798
0.329282 0.393407 0.235299
0.350686 0.394093 0.235801
0.372089 0.394779 0.236303
0.393493 0.395465 0.236805
0.414897 0.396151 0.237307
0.436300 0.396837 0.237808
0.457704 0.397523 0.238310
0.479107 0.398209 0.238812
0.500511 0.398895 0.239314
0.521915 0.399581 0.239815
0.543318 0.400266 0.240317
0.564722 0.400952 0.240819
0.586126 0.401638 0.241321
0.607529 0.402324 0.241822
0.628933 0.403010 0.242324
0.650337 0.403696 0.242826
0.671740 0.404382 0.243328
0.693144 0.405068 0.243830
0.714547 0.405754 0.244331
0.735951 0.406440 0.244833
0.757355 0.407126 0.245335
0.778758 0.407812 0.245837
0.800162 0.408498 0.246338
0.821566 0.409184 0.246840
0.842969 0.409870 0.247342
0.864373 0.410556 0.247844
0.885776 0.411242 0.248345
0.907180 0.411928 0.248847
0.223906 0.411016 0.233738
0.245310 0.411702 0.234240
0.266714 0.412388 0.234741
0.288117 0.413074 0.235243
0.309521 0.413760 0.235745
0.330924 0.414446 0.236247
0.352328 0.415131 0.236748
0.373732 0.415817 0.237250
0.395135 0.416503 0.237752
0.416539 0.417189 0.238254
0.437943 0.417875 0.238755
0.459346 0.418561 0.239257
0.480750 0.419247 0.239759
0.502154 0.419933 0.240261
0.523557 0.420619 0.240763
0.544961 0.421305 0.241264
0.566365 0.421991 0.241766
0.587768 0.422677 0.242268
0.609172 0.423363 0.242770
0.630575 0.424049 0.243271
0.651979 0.424735 0.243773
0.673383 0.425421 0.244275
0.694786 0.426107 0.244777
0.716190 0.426793 0.245278
0.737594 0.427479 0.245780
0.758997 0.428165 0.246282
0.780401 0.428851 0.246784
0.801805 0.429537 0.247286
0.823208 0.430222 0.247787
0.844612 0.430908 0.248289
0.866015 0.431594 0.248791
0.887419 0.432280 0.249293
0.908823 0.432966 0.249794
0.225549 0.432054 0.234685
0.246953 0.432740 0.235187
0.268356 0.433426 0.235689
0.289760 0.434112 0.236190
0.311163 0.434798 0.236692
0.332567 0.435484 0.237194
0.353971 0.436170 0.237696
0.375374 0.436856 0.238197
0.396778 0.437542 0.238699
0.418182 0.438228 0.239201
0.439585 0.438914 0.239703
0.460989 0.439600 0.240204
0.482393 0.440286 0.240706
0.503796 0.440972 0.241208
0.525200 0.441658 0.241710
0.546603 0.442344 0.242212
0.568007 0.443030 0.242713
0.589411 0.443716 0.243215
0.610814 0.444402 0.243717
0.632218 0.445088 0.244219
0.653622 0.445774 0.244720
0.675025 0.446459 0.245222
0.696429 0.447145 0.245724
0.717833 0.447831 0.246226
0.739236 0.448517 0.246727
0.760640 0.449203 0.247229
0.782043 0.449889 0.247731
0.803447 0.450575 0.248233
0.824851 0.451261 0.248735
0.846254 0.451947 0.249236
0.867658 0.452633 0.249738
0.889062 0.453319 0.250240
0.910465 0.454005 0.250742
0.227191 0.453093 0.235632
0.248595 0.453779 0.236134
0.269999 0.454465 0.236636
0.291402 0.455151 0.237137
0.312806 0.455837 0.237639
0.334210 0.456523 0.238141
0.355613 0.457209 0.238643
0.377017 0.457895 0.239145
0.398421 0.458581 0.239646
0.419824 0.459267 0.240148
0.441228 0.459953 0.240650
0.462631 0.460639 0.241152
0.484035 0.461324 0.241653
0.505439 0.462010 0.242155
0.526842 0.462696 0.242657
0.548246 0.463382 0.243159
0.569650 0.464068 0.243660
0.591053 0.464754 0.244162
0.612457 0.465440 0.244664
0.633861 0.466126 0.245166
0.655264 0.466812 0.245668
0.676668 0.467498 0.246169
0.698071 0.468184 0.246671
0.719475 0.468870 0.247173
0.740879 0.469556 0.247675
0.762282 0.470242 0.248176
0.783686 0.470928 0.248678
0.805090 0.471614 0.249180
0.826493 0.472300 0.249682
0.847897 0.472986 0.250183
0.869301 0.473672 0.250685
0.890704 0.474358 0.251187
0.912108 0.475044 0.251689
0.228834 0.474132 0.236579
0.250238 0.474818 0.237081
0.271641 0.475504 0.237583
0.293045 0.476190 0.238085
0.314449 0.476875 0.238586
0.335852 0.477561 0.239088
0.357256 0.478247 0.239590
0.378659 0.478933 0.240092
0.400063 0.479619 0.240594
0.421467 0.480305 0.241095
0.442870 0.480991 0.241597
0.464274 0.481677 0.242099
0.485678 0.482363 0.242601
0.507081 0.483049 0.243102
0.528485 0.483735 0.243604
0.549889 0.484421 0.244106
0.571292 0.485107 0.244608
0.592696 0.485793 0.245109
0.614099 0.486479 0.245611
0.635503 0.487165 0.246113
0.656907 0.487851 0.246615
0.678310 0.488537 0.247117
0.699714 0.489223 0.247618
0.721118 0.489909 0.248120
0.742521 0.490595 0.248622
0.763925 0.491281 0.249124
0.785329 0.491966 0.249625
0.806732 0.492652 0.250127
0.828136 0.493338 0.250629
0.849540 0.494024 0.251131
0.870943 0.494710 0.251632
0.892347 0.495396 0.252134
0.913750 0.496082 0.252636
0.230477 0.495170 0.237527
0.251880 0.495856 0.238028
0.273284 0.496542 0.238530
0.294687 0.497228 0.239032
0.316091 0.497914 0.239534
0.337495 0.498600 0.240035
0.358898 0.499286 0.240537
0.380302 0.499972 0.241039
0.401706 0.500658 0.241541
0.423109 0.501344 0.242042
0.444513 0.502030 0.242544
0.465917 0.502716 0.243046
0.487320 0.503402 0.243548
0.508724 0.504088 0.244050
0.530128 0.504774 0.244551
0.551531 0.505460 0.245053
0.572935 0.506146 0.245555
0.594338 0.506832 0.246057
0.615742 0.507517 0.246558
0.637146 0.508203 0.247060
0.658549 0.508889 0.247562
0.679953 0.509575 0.248064
0.701357 0.510261 0.248565
0.722760 0.510947 0.249067
0.744164 0.511633 0.249569
0.765567 0.512319 0.250071
0.786971 0.513005 0.250573
0.808375 0.513691 0.251074
0.829778 0.514377 0.251576
0.851182 0.515063 0.252078
0.872586 0.515749 0.252580
0.893989 0.516435 0.253081
0.915393 0.517121 0.253583
0.232119 0.516209 0.238474
0.253523 0.516895 0.238976
0.274926 0.517581 0.239477
0.296330 0.518267 0.239979
0.317734 0.518953 0.240481
0.339137 0.519639 0.240983
0.360541 0.520325 0.241484
0.381945 0.521011 0.241986
0.403348 0.521697 0.242488
0.424752 0.522383 0.242990
0.446156 0.523068 0.243491
0.467559 0.523754 0.243993
0.488963 0.524440 0.244495
0.510366 0.525126 0.244997
0.531770 0.525812 0.245499
0.553174 0.526498 0.246000
0.574577 0.527184 0.246502
0.595981 0.527870 0.247004
0.617385 0.528556 0.247506
0.638788 0.529242 0.248007
0.660192 0.529928 0.248509
0.681596 0.530614 0.249011
0.702999 0.531300 0.249513
0.724403 0.531986 0.250014
0.745806 0.532672 0.250516
0.767210 0.533358 0.251018
0.788614 0.534044 0.251520
0.810017 0.534730 0.252021
0.831421 0.535416 0.252523
0.852825 0.536102 0.253025
0.874228 0.536788 0.253527
0.895632 0.537474 0.254029
0.917036 0.538159 0.254530
0.233762 0.537248 0.239421
0.255165 0.537934 0.239923
0.276569 0.538619 0.240424
0.297973 0.539305 0.240926
0.319376 0.539991 0.241428
0.340780 0.540677 0.241930
0.362184 0.541363 0.242432
0.383587 0.542049 0.242933
0.404991 0.542735 0.243435
0.426394 0.543421 0.243937
0.447798 0.544107 0.244439
0.469202 0.544793 0.244940
0.490605 0.545479 0.245442
0.512009 0.546165 0.245944
0.533413 0.546851 0.246446
0.554816 0.547537 0.246947
0.576220 0.548223 0.247449
0.597624 0.548909 0.247951
0.619027 0.549595 0.248453
0.640431 0.550281 0.248955
0.661834 0.550967 0.249456
0.683238 0.551653 0.249958
0.704642 0.552339 0.250460
0.726045 0.553025 0.250962
0.747449 0.553710 0.251463
0.768853 0.554396 0.251965
0.790256 0.555082 0.252467
0.811660 0.555768 0.252969
0.833064 0.556454 0.253470
0.854467 0.557140 0.253972
0.875871 0.557826 0.254474
0.897274 0.558512 0.254976
0.918678 0.559198 0.255478
0.235404 0.558286 0.240368
0.256808 0.558972 0.240870
0.278212 0.559658 0.241372
0.299615 0.560344 0.241873
0.321019 0.561030 0.242375
0.342422 0.561716 0.242877
0.363826 0.562402 0.243379
0.385230 0.563088 0.243881
0.406633 0.563774 0.244382
0.428037 0.564460 0.244884
0.449441 0.565146 0.245386
0.470844 0.565832 0.245888
0.492248 0.566518 0.246389
0.513652 0.567204 0.246891
0.535055 0.567890 0.247393
0.556459 0.568575 0.247895
0.577862 0.569261 0.248396
0.599266 0.569947 0.248898
0.620670 0.570633 0.249400
0.642073 0.571319 0.249902
0.663477 0.572005 0.250403
0.684881 0.572691 0.250905
0.706284 0.573377 0.251407
0.727688 0.574063 0.251909
0.749092 0.574749 0.252411
0.770495 0.575435 0.252912
0.791899 0.576121 0.253414
0.813303 0.576807 0.253916
0.834706 0.577493 0.254418
0.856110 0.578179 0.254919
0.877513 0.578865 0.255421
0.898917 0.579551 0.255923
0.920321 0.580237 0.256425
0.237047 0.579325 0.241315
0.258450 0.580011 0.241817
0.279854 0.580697 0.242319
0.301258 0.581383 0.242821
0.322661 0.582069 0.243322
0.344065 0.582755 0.243824
0.365469 0.583441 0.244326
0.386872 0.584127 0.244828
0.408276 0.584812 0.245329
0.429680 0.585498 0.245831
0.451083 0.586184 0.246333
0.472487 0.586870 0.246835
0.493890 0.587556 0.247337
0.515294 0.588242 0.247838
0.536698 0.588928 0.248340
0.558101 0.589614 0.248842
0.579505 0.590300 0.249344
0.600909 0.590986 0.249845
0.622312 0.591672 0.250347
0.643716 0.592358 0.250849
0.665120 0.593044 0.251351
0.686523 0.593730 0.251852
0.707927 0.594416 0.252354
0.729330 0.595102 0.252856
0.750734 0.595788 0.253358
0.772138 0.596474 0.253860
0.793541 0.597160 0.254361
0.814945 0.597846 0.254863
0.836349 0.598532 0.255365
0.857752 0.599218 0.255867
0.879156 0.599903 0.256368
0.900560 0.600589 0.256870
0.921963 0.601275 0.257372
0.238689 0.600363 0.242263
0.260093 0.601049 0.242764
0.281497 0.601735 0.243266
0.302900 0.602421 0.243768
0.324304 0.603107 0.244270
0.345708 0.603793 0.244771
0.367111 0.604479 0.245273
0.388515 0.605165 0.245775
0.409919 0.605851 0.246277
0.431322 0.606537 0.246778
0.452726 0.607223 0.247280
0.474129 0.607909 0.247782
0.495533 0.608595 0.248284
0.516937 0.609281 0.248785
0.538340 0.609967 0.249287
0.559744 0.610653 0.249789
0.581148 0.611339 0.250291
0.602551 0.612025 0.250793
0.623955 0.612711 0.251294
0.645358 0.613397 0.251796
0.666762 0.614083 0.252298
0.688166 0.614768 0.252800
0.709569 0.615454 0.253301
0.730973 0.616140 0.253803
0.752377 0.616826 0.254305
0.773780 0.617512 0.254807
0.795184 0.618198 0.255308
0.816588 0.618884 0.255810
0.837991 0.619570 0.256312
0.859395 0.620256 0.256814
0.880799 0.620942 0.257316
0.902202 0.621628 0.257817
0.923606 0.622314 0.258319
0.240332 0.621402 0.243210
0.261736 0.622088 0.243711
0.283139 0.622774 0.244213
0.304543 0.623460 0.244715
0.325947 0.624146 0.245217
0.347350 0.624832 0.245719
0.368754 0.625518 0.246220
0.390157 0.626204 0.246722
0.411561 0.626890 0.247224
0.432965 0.627576 0.247726
0.454368 0.628262 0.248227
0.475772 0.628948 0.248729
0.497176 0.629634 0.249231
0.518579 0.630319 0.249733
0.539983 0.631005 0.250234
0.561387 0.631691 0.250736
0.582790 0.632377 0.251238
0.604194 0.633063 0.251740
0.625597 0.633749 0.252242
0.647001 0.634435 0.252743
0.668405 0.635121 0.253245
0.689808 0.635807 0.253747
0.711212 0.636493 0.254249
0.732616 0.637179 0.254750
0.754019 0.637865 0.255252
0.775423 0.638551 0.255754
0.796827 0.639237 0.256256
0.818230 0.639923 0.256757
0.839634 0.640609 0.257259
0.861038 0.641295 0.257761
0.882441 0.641981 0.258263
0.903845 0.642667 0.258765
0.925248 0.643353 0.259266
0.241975 0.642441 0.244157
0.263378 0.643127 0.244659
0.284782 0.643813 0.245160
0.306185 0.644499 0.245662
0.327589 0.645184 0.246164
0.348993 0.645870 0.246666
0.370396 0.646556 0.247167
0.391800 0.647242 0.247669
0.413204 0.647928 0.248171
0.434607 0.648614 0.248673
0.456011 0.649300 0.249175
0.477415 0.649986 0.249676
0.498818 0.650672 0.250178
0.520222 0.651358 0.250680
0.541625 0.652044 0.251182
0.563029 0.652730 0.251683
0.584433 0.653416 0.252185
0.605836 0.654102 0.252687
0.627240 0.654788 0.253189
0.648644 0.655474 0.253690
0.670047 0.656160 0.254192
0.691451 0.656846 0.254694
0.712855 0.657532 0.255196
0.734258 0.658218 0.255698
0.755662 0.658904 0.256199
0.777065 0.659590 0.256701
0.798469 0.660275 0.257203
0.819873 0.660961 0.257705
0.841276 0.661647 0.258206
0.862680 0.662333 0.258708
0.884084 0.663019 0.259210
0.905487 0.663705 0.259712
0.926891 0.664391 0.260213
0.243617 0.663479 0.245104
0.265021 0.664165 0.245606
0.286424 0.664851 0.246108
0.307828 0.665537 0.246609
0.329232 0.666223 0.247111
0.350635 0.666909 0.247613
0.372039 0.667595 0.248115
0.393443 0.668281 0.248616
0.414846 0.668967 0.249118
0.436250 0.669653 0.249620
0.457653 0.670339 0.250122
0.479057 0.671025 0.250624
0.500461 0.671711 0.251125
0.521864 0.672397 0.251627
0.543268 0.673083 0.252129
0.564672 0.673769 0.252631
0.586075 0.674455 0.253132
0.607479 0.675141 0.253634
0.628883 0.675826 0.254136
0.650286 0.676512 0.254638
0.671690 0.677198 0.255139
0.693093 0.677884 0.255641
0.714497 0.678570 0.256143
0.735901 0.679256 0.256645
0.757304 0.679942 0.257147
0.778708 0.680628 0.257648
0.800112 0.681314 0.258150
0.821515 0.682000 0.258652
0.842919 0.682686 0.259154
0.864323 0.683372 0.259655
0.885726 0.684058 0.260157
0.907130 0.684744 0.260659
0.928533 0.685430 0.261161
0.245260 0.684518 0.246051
0.266663 0.685204 0.246553
0.288067 0.685890 0.247055
0.309471 0.686576 0.247557
0.330874 0.687262 0.248058
0.352278 0.687948 0.248560
0.373681 0.688634 0.249062
0.395085 0.689320 0.249564
0.416489 0.690006 0.250065
0.437892 0.690692 0.250567
0.459296 0.691377 0.251069
0.480700 0.692063 0.251571
0.502103 0.692749 0.252072
0.523507 0.693435 0.252574
0.544911 0.694121 0.253076
0.566314 0.694807 0.253578
0.587718 0.695493 0.254080
0.609122 0.696179 0.254581
0.630525 0.696865 0.255083
0.651929 0.697551 0.255585
0.673332 0.698237 0.256087
0.694736 0.698923 0.256588
0.716140 0.699609 0.257090
0.737543 0.700295 0.257592
0.758947 0.700981 0.258094
0.780351 0.701667 0.258595
0.801754 0.702353 0.259097
0.823158 0.703039 0.259599
0.844562 0.703725 0.260101
0.865965 0.704411 0.260603
0.887369 0.705097 0.261104
0.908772 0.705783 0.261606
0.930176 0.706468 0.262108
0.246902 0.705557 0.246998
0.268306 0.706242 0.247500
0.289709 0.706928 0.248002
0.311113 0.707614 0.248504
0.332517 0.708300 0.249006
0.353920 0.708986 0.249507
0.375324 0.709672 0.250009
0.396728 0.710358 0.250511
0.418131 0.711044 0.251013
0.439535 0.711730 0.251514
0.460939 0.712416 0.252016
0.482342 0.713102 0.252518
0.503746 0.713788 0.253020
0.525150 0.714474 0.253521
0.546553 0.715160 0.254023
0.567957 0.715846 0.254525
0.589360 0.716532 0.255027
0.610764 0.717218 0.255529
0.632168 0.717904 0.256030
0.653571 0.718590 0.256532
0.674975 0.719276 0.257034
0.696379 0.719962 0.257536
0.717782 0.720648 0.258037
0.739186 0.721333 0.258539
0.760590 0.722019 0.259041
0.781993 0.722705 0.259543
0.803397 0.723391 0.260044
0.824800 0.724077 0.260546
0.846204 0.724763 0.261048
0.867608 0.725449 0.261550
0.889011 0.726135 0.262052
0.910415 0.726821 0.262553
0.931819 0.727507 0.263055
0.248545 0.726595 0.247946
0.269948 0.727281 0.248447
0.291352 0.727967 0.248949
0.312756 0.728653 0.249451
0.334159 0.729339 0.249953
0.355563 0.730025 0.250454
0.376967 0.730711 0.250956
0.398370 0.731397 0.251458
0.419774 0.732083 0.251960
0.441178 0.732769 0.252462
0.462581 0.733455 0.252963
0.483985 0.734141 0.253465
0.505388 0.734827 0.253967
0.526792 0.735513 0.254469
0.548196 0.736199 0.254970
0.569599 0.736884 0.255472
0.591003 0.737570 0.255974
0.612407 0.738256 0.256476
0.633810 0.738942 0.256977
0.655214 0.739628 0.257479
0.676618 0.740314 0.257981
0.698021 0.741000 0.258483
0.719425 0.741686 0.258985
0.740828 0.742372 0.259486
0.762232 0.743058 0.259988
0.783636 0.743744 0.260490
0.805039 0.744430 0.260992
0.826443 0.745116 0.261493
0.847847 0.745802 0.261995
0.869250 0.746488 0.262497
0.890654 0.747174 0.262999
0.912057 0.747860 0.263500
0.933461 0.748546 0.264002
0.250187 0.747634 0.248893
0.271591 0.748320 0.249395
0.292995 0.749006 0.249896
0.314398 0.749692 0.250398
0.335802 0.750378 0.250900
0.357206 0.751064 0.251402
0.378609 0.751749 0.251903
0.400013 0.752435 0.252405
0.421416 0.753121 0.252907
0.442820 0.753807 0.253409
0.464224 0.754493 0.253911
0.485627 0.755179 0.254412
0.507031 0.755865 0.254914
0.528435 0.756551 0.255416
0.549838 0.757237 0.255918
0.571242 0.757923 0.256419
0.592646 0.758609 0.256921
0.614049 0.759295 0.257423
0.635453 0.759981 0.257925
0.656856 0.760667 0.258426
0.678260 0.761353 0.258928
0.699664 0.762039 0.259430
0.721067 0.762725 0.259932
0.742471 0.763411 0.260434
0.763875 0.764097 0.260935
0.785278 0.764783 0.261437
0.806682 0.765469 0.261939
0.828086 0.766155 0.262441
0.849489 0.766840 0.262942
0.870893 0.767526 0.263444
0.892297 0.768212 0.263946
0.913700 0.768898 0.264448
0.935104 0.769584 0.264949
0.251830 0.768672 0.249840
0.273234 0.769358 0.250342
0.294637 0.770044 0.250844
0.316041 0.770730 0.251345
0.337444 0.771416 0.251847
0.358848 0.772102 0.252349
0.380252 0.772788 0.252851
0.401655 0.773474 0.253352
0.423059 0.774160 0.253854
0.444463 0.774846 0.254356
0.465866 0.775532 0.254858
0.487270 0.776218 0.255359
0.508674 0.776904 0.255861
0.530077 0.777590 0.256363
0.551481 0.778276 0.256865
0.572884 0.778962 0.257367
0.594288 0.779648 0.257868
0.615692 0.780334 0.258370
0.637095 0.781020 0.258872
0.658499 0.781706 0.259374
0.679903 0.782391 0.259875
0.701306 0.783077 0.260377
0.722710 0.783763 0.260879
0.744114 0.784449 0.261381
0.765517 0.785135 0.261882
0.786921 0.785821 0.262384
0.808325 0.786507 0.262886
0.829728 0.787193 0.263388
0.851132 0.787879 0.263890
