assets/luts/primelive_amb_milktea_warm.cube
TITLE "primelive Milktea Warm"
LUT_3D_SIZE 9
DOMAIN_MIN 0.0 0.0 0.0
DOMAIN_MAX 1.0 1.0 1.0
0.068359 0.055065 0.045859
0.209148 0.054451 0.045114
0.339507 0.053883 0.044424
0.465288 0.053335 0.043759
0.588100 0.052800 0.043109
0.708721 0.052274 0.042471
0.827611 0.051756 0.041842
0.945072 0.051244 0.041220
1.000000 0.050889 0.040792
0.065933 0.190072 0.043433
0.206722 0.189459 0.042688
0.337081 0.188891 0.041999
0.462862 0.188343 0.041333
0.585674 0.187807 0.040683
0.706296 0.187282 0.040045
0.825185 0.186764 0.039416
0.942647 0.186252 0.038794
1.000000 0.185901 0.038368
0.063686 0.315149 0.041186
0.204475 0.314536 0.040441
0.334834 0.313968 0.039751
0.460615 0.313419 0.039086
0.583427 0.312884 0.038436
0.704048 0.312359 0.037798
0.822938 0.311841 0.037168
0.940399 0.311329 0.036547
1.000000 0.310978 0.036121
0.061517 0.435846 0.039017
0.202306 0.435232 0.038272
0.332665 0.434664 0.037582
0.458446 0.434116 0.036917
0.581258 0.433581 0.036267
0.701879 0.433055 0.035629
0.820769 0.432537 0.035000
0.938230 0.432026 0.034378
1.000000 0.431674 0.033952
0.059400 0.553699 0.036900
0.200188 0.553085 0.036155
0.330547 0.552517 0.035465
0.456328 0.551969 0.034799
0.579141 0.551434 0.034149
0.699762 0.550908 0.033511
0.818651 0.550390 0.032882
0.936113 0.549878 0.032261
1.000000 0.549527 0.031834
0.057320 0.669451 0.034820
0.198109 0.668838 0.034075
0.328467 0.668270 0.033385
0.454249 0.667722 0.032719
0.577061 0.667187 0.032070
0.697682 0.666661 0.031431
0.816571 0.666143 0.030802
0.934033 0.665631 0.030181
1.000000 0.665280 0.029754
0.055270 0.783545 0.032770
0.196058 0.782931 0.032025
0.326417 0.782363 0.031335
0.452198 0.781815 0.030669
0.575011 0.781280 0.030019
0.695632 0.780754 0.029381
0.814521 0.780236 0.028752
0.931983 0.779724 0.028131
1.000000 0.779373 0.027704
0.053244 0.896268 0.030744
0.194033 0.895655 0.029999
0.324392 0.895087 0.029309
0.450173 0.894539 0.028644
0.572985 0.894003 0.027994
0.693606 0.893478 0.027356
0.812496 0.892960 0.026727
0.929957 0.892448 0.026105
1.000000 0.892097 0.025679
0.051319 1.000000 0.028819
0.192108 1.000000 0.028074
0.322467 1.000000 0.027384
0.448248 1.000000 0.026719
0.571060 1.000000 0.026069
0.691681 1.000000 0.025431
0.810571 1.000000 0.024802
0.928032 0.999588 0.024180
1.000000 0.999237 0.023754
0.068127 0.054873 0.175496
0.208916 0.054260 0.174751
0.339275 0.053692 0.174061
0.465056 0.053144 0.173396
0.587868 0.052609 0.172746
0.708489 0.052083 0.172107
0.827379 0.051565 0.171478
0.944840 0.051053 0.170857
1.000000 0.050699 0.170429
0.065701 0.189881 0.173070
0.206490 0.189268 0.172325
0.336849 0.188700 0.171635
0.462630 0.188151 0.170970
0.585442 0.187616 0.170320
0.706063 0.187091 0.169682
0.824953 0.186573 0.169052
0.942414 0.186061 0.168431
1.000000 0.185710 0.168005
0.063454 0.314958 0.170822
0.204243 0.314344 0.170078
0.334601 0.313776 0.169388
0.460383 0.313228 0.168722
0.583195 0.312693 0.168072
0.703816 0.312168 0.167434
0.822706 0.311649 0.166805
0.940167 0.311138 0.166184
1.000000 0.310786 0.165757
0.061285 0.435655 0.168654
0.202074 0.435041 0.167909
0.332433 0.434473 0.167219
0.458214 0.433925 0.166553
0.581026 0.433390 0.165904
0.701647 0.432864 0.165265
0.820537 0.432346 0.164636
0.937998 0.431834 0.164015
1.000000 0.431483 0.163588
0.059167 0.553507 0.166536
0.199956 0.552894 0.165791
0.330315 0.552326 0.165101
0.456096 0.551778 0.164436
0.578908 0.551243 0.163786
0.699530 0.550717 0.163148
0.818419 0.550199 0.162519
0.935881 0.549687 0.161897
1.000000 0.549336 0.161471
0.057087 0.669260 0.164456
0.197876 0.668647 0.163711
0.328235 0.668079 0.163021
0.454016 0.667531 0.162356
0.576829 0.666996 0.161706
0.697450 0.666470 0.161068
0.816339 0.665952 0.160439
0.933801 0.665440 0.159817
1.000000 0.665089 0.159391
0.055037 0.783353 0.162406
0.195826 0.782740 0.161661
0.326185 0.782172 0.160971
0.451966 0.781624 0.160306
0.574779 0.781089 0.159656
0.695400 0.780563 0.159018
0.814289 0.780045 0.158389
0.931751 0.779533 0.157767
1.000000 0.779182 0.157341
0.053012 0.896077 0.160381
0.193801 0.895464 0.159636
0.324160 0.894895 0.158946
0.449941 0.894347 0.158280
0.572753 0.893812 0.157631
0.693374 0.893287 0.156992
0.812264 0.892769 0.156363
0.929725 0.892257 0.155742
1.000000 0.891906 0.155315
0.051087 1.000000 0.158456
0.191876 1.000000 0.157711
0.322234 1.000000 0.157021
0.448016 1.000000 0.156355
0.570828 1.000000 0.155705
0.691449 1.000000 0.155067
0.810339 0.999909 0.154438
0.927800 0.999397 0.153817
1.000000 0.999045 0.153390
0.067912 0.054696 0.295711
0.208701 0.054083 0.294966
0.339059 0.053515 0.294276
0.464841 0.052967 0.293611
0.587653 0.052431 0.292961
0.708274 0.051906 0.292323
0.827164 0.051388 0.291694
0.944625 0.050876 0.291072
1.000000 0.050522 0.290644
0.065486 0.189704 0.293285
0.206275 0.189090 0.292540
0.336634 0.188522 0.291851
0.462415 0.187974 0.291185
0.585227 0.187439 0.290535
0.705848 0.186913 0.289897
0.824738 0.186395 0.289268
0.942199 0.185884 0.288646
1.000000 0.185532 0.288220
0.063238 0.314781 0.291038
0.204027 0.314167 0.290293
0.334386 0.313599 0.289603
0.460167 0.313051 0.288938
0.582980 0.312516 0.288288
0.703601 0.311990 0.287649
0.822490 0.311472 0.287020
0.939952 0.310960 0.286399
1.000000 0.310609 0.285972
0.061070 0.435477 0.288869
0.201859 0.434864 0.288124
0.332217 0.434296 0.287434
0.457999 0.433748 0.286769
0.580811 0.433213 0.286119
0.701432 0.432687 0.285481
0.820322 0.432169 0.284852
0.937783 0.431657 0.284230
1.000000 0.431306 0.283804
0.058952 0.553330 0.286751
0.199741 0.552717 0.286006
0.330100 0.552149 0.285317
0.455881 0.551600 0.284651
0.578693 0.551065 0.284001
0.699314 0.550540 0.283363
0.818204 0.550022 0.282734
0.935665 0.549510 0.282113
1.000000 0.549159 0.281686
0.056872 0.669083 0.284672
0.197661 0.668470 0.283927
0.328020 0.667901 0.283237
0.453801 0.667353 0.282571
0.576613 0.666818 0.281921
0.697234 0.666293 0.281283
0.816124 0.665775 0.280654
0.933585 0.665263 0.280033
1.000000 0.664912 0.279606
0.054822 0.783176 0.282621
0.195611 0.782563 0.281877
0.325970 0.781995 0.281187
0.451751 0.781446 0.280521
0.574563 0.780911 0.279871
0.695184 0.780386 0.279233
0.814074 0.779868 0.278604
0.931535 0.779356 0.277983
1.000000 0.779005 0.277556
0.052797 0.895900 0.280596
0.193586 0.895286 0.279851
0.323944 0.894718 0.279161
0.449726 0.894170 0.278496
0.572538 0.893635 0.277846
0.693159 0.893109 0.277208
0.812049 0.892591 0.276579
0.929510 0.892079 0.275957
1.000000 0.891728 0.275531
0.050872 1.000000 0.278671
0.191660 1.000000 0.277926
0.322019 1.000000 0.277236
0.447800 1.000000 0.276571
0.570613 1.000000 0.275921
0.691234 1.000000 0.275283
0.810123 0.999731 0.274653
0.927585 0.999219 0.274032
1.000000 0.998868 0.273605
0.067704 0.054525 0.411736
0.208493 0.053912 0.410991
0.338852 0.053344 0.410301
0.464633 0.052795 0.409636
0.587445 0.052260 0.408986
0.708066 0.051735 0.408348
0.826956 0.051217 0.407719
0.944417 0.050705 0.407097
1.000000 0.050351 0.406669
0.065278 0.189533 0.409310
0.206067 0.188919 0.408565
0.336426 0.188351 0.407875
0.462207 0.187803 0.407210
0.585019 0.187268 0.406560
0.705640 0.186742 0.405922
0.824530 0.186224 0.405293
0.941991 0.185712 0.404671
1.000000 0.185361 0.404245
0.063031 0.314610 0.407063
0.203820 0.313996 0.406318
0.334178 0.313428 0.405628
0.459960 0.312880 0.404962
0.582772 0.312345 0.404313
0.703393 0.311819 0.403674
0.822283 0.311301 0.403045
0.939744 0.310789 0.402424
1.000000 0.310438 0.401997
0.060862 0.435306 0.404894
0.201651 0.434693 0.404149
0.332010 0.434125 0.403459
0.457791 0.433577 0.402794
0.580603 0.433042 0.402144
0.701224 0.432516 0.401506
0.820114 0.431998 0.400877
0.937575 0.431486 0.400255
1.000000 0.431135 0.399829
0.058744 0.553159 0.402776
0.199533 0.552545 0.402031
0.329892 0.551977 0.401342
0.455673 0.551429 0.400676
0.578485 0.550894 0.400026
0.699107 0.550369 0.399388
0.817996 0.549851 0.398759
0.935458 0.549339 0.398137
1.000000 0.548987 0.397711
0.056664 0.668912 0.400696
0.197453 0.668298 0.399951
0.327812 0.667730 0.399262
0.453593 0.667182 0.398596
0.576406 0.666647 0.397946
0.697027 0.666122 0.397308
0.815916 0.665603 0.396679
0.933378 0.665092 0.396057
1.000000 0.664740 0.395631
0.054614 0.783005 0.398646
0.195403 0.782392 0.397901
0.325762 0.781823 0.397212
0.451543 0.781275 0.396546
0.574355 0.780740 0.395896
0.694977 0.780215 0.395258
0.813866 0.779697 0.394629
0.931328 0.779185 0.394007
1.000000 0.778834 0.393581
0.052589 0.895729 0.396621
0.193378 0.895115 0.395876
0.323737 0.894547 0.395186
0.449518 0.893999 0.394521
0.572330 0.893464 0.393871
0.692951 0.892938 0.393233
0.811841 0.892420 0.392603
0.929302 0.891908 0.391982
1.000000 0.891557 0.391555
0.050664 1.000000 0.394696
0.191453 1.000000 0.393951
0.321811 1.000000 0.393261
0.447593 1.000000 0.392595
0.570405 1.000000 0.391946
0.691026 1.000000 0.391307
0.809916 0.999560 0.390678
0.927377 0.999048 0.390057
1.000000 0.998697 0.389630
0.067501 0.054358 0.525035
0.208290 0.053745 0.524290
0.338649 0.053176 0.523600
0.464430 0.052628 0.522935
0.587242 0.052093 0.522285
0.707863 0.051568 0.521647
0.826753 0.051050 0.521018
0.944214 0.050538 0.520396
1.000000 0.050184 0.519969
0.065075 0.189366 0.522609
0.205864 0.188752 0.521864
0.336223 0.188184 0.521175
0.462004 0.187636 0.520509
0.584816 0.187101 0.519859
0.705437 0.186575 0.519221
0.824327 0.186057 0.518592
0.941788 0.185545 0.517970
1.000000 0.185194 0.517544
0.062828 0.314442 0.520362
0.203617 0.313829 0.519617
0.333975 0.313261 0.518927
0.459757 0.312713 0.518262
0.582569 0.312178 0.517612
0.703190 0.311652 0.516974
0.822080 0.311134 0.516344
0.939541 0.310622 0.515723
1.000000 0.310271 0.515297
0.060659 0.435139 0.518193
0.201448 0.434526 0.517448
0.331807 0.433958 0.516758
0.457588 0.433410 0.516093
0.580400 0.432874 0.515443
0.701021 0.432349 0.514805
0.819911 0.431831 0.514176
0.937372 0.431319 0.513554
1.000000 0.430968 0.513128
0.058541 0.552992 0.516076
0.199330 0.552378 0.515331
0.329689 0.551810 0.514641
0.455470 0.551262 0.513975
0.578283 0.550727 0.513325
0.698904 0.550202 0.512687
0.817793 0.549683 0.512058
0.935255 0.549172 0.511437
1.000000 0.548820 0.511010
0.056462 0.668745 0.513996
0.197251 0.668131 0.513251
0.327609 0.667563 0.512561
0.453391 0.667015 0.511895
0.576203 0.666480 0.511246
0.696824 0.665954 0.510607
0.815713 0.665436 0.509978
0.933175 0.664925 0.509357
1.000000 0.664573 0.508930
0.054412 0.782838 0.511946
0.195200 0.782224 0.511201
0.325559 0.781656 0.510511
0.451340 0.781108 0.509845
0.574153 0.780573 0.509195
0.694774 0.780048 0.508557
0.813663 0.779529 0.507928
0.931125 0.779018 0.507307
1.000000 0.778666 0.506880
0.052386 0.895562 0.509920
0.193175 0.894948 0.509175
0.323534 0.894380 0.508485
0.449315 0.893832 0.507820
0.572127 0.893297 0.507170
0.692748 0.892771 0.506532
0.811638 0.892253 0.505903
0.929099 0.891741 0.505281
1.000000 0.891390 0.504855
0.050461 1.000000 0.507995
0.191250 1.000000 0.507250
0.321609 1.000000 0.506560
0.447390 1.000000 0.505895
0.570202 1.000000 0.505245
0.690823 0.999911 0.504607
0.809713 0.999393 0.503978
0.927174 0.998881 0.503356
1.000000 0.998530 0.502930
0.067302 0.054194 0.636320
0.208091 0.053580 0.635575
0.338450 0.053012 0.634886
0.464231 0.052464 0.634220
0.587043 0.051929 0.633570
0.707664 0.051404 0.632932
0.826554 0.050885 0.632303
0.944015 0.050374 0.631681
1.000000 0.050021 0.631254
0.064876 0.189201 0.633895
0.205665 0.188588 0.633150
0.336024 0.188020 0.632460
0.461805 0.187472 0.631794
0.584617 0.186937 0.631144
0.705238 0.186411 0.630506
0.824128 0.185893 0.629877
0.941589 0.185381 0.629256
1.000000 0.185030 0.628829
0.062629 0.314278 0.631647
0.203417 0.313665 0.630902
0.333776 0.313097 0.630212
0.459557 0.312549 0.629547
0.582370 0.312014 0.628897
0.702991 0.311488 0.628259
0.821880 0.310970 0.627630
0.939342 0.310458 0.627008
1.000000 0.310107 0.626582
0.060460 0.434975 0.629478
0.201249 0.434362 0.628733
0.331607 0.433794 0.628044
0.457389 0.433245 0.627378
0.580201 0.432710 0.626728
0.700822 0.432185 0.626090
0.819712 0.431667 0.625461
0.937173 0.431155 0.624839
1.000000 0.430804 0.624413
0.058342 0.552828 0.627361
0.199131 0.552214 0.626616
0.329490 0.551646 0.625926
0.455271 0.551098 0.625260
0.578083 0.550563 0.624611
0.698704 0.550037 0.623972
0.817594 0.549519 0.623343
0.935055 0.549008 0.622722
1.000000 0.548656 0.622295
0.056262 0.668581 0.625281
0.197051 0.667967 0.624536
0.327410 0.667399 0.623846
0.453191 0.666851 0.623181
0.576003 0.666316 0.622531
0.696625 0.665790 0.621893
0.815514 0.665272 0.621263
0.932976 0.664760 0.620642
1.000000 0.664409 0.620215
0.054212 0.782674 0.623231
0.195001 0.782060 0.622486
0.325360 0.781492 0.621796
0.451141 0.780944 0.621131
0.573953 0.780409 0.620481
0.694574 0.779883 0.619842
0.813464 0.779365 0.619213
0.930925 0.778854 0.618592
1.000000 0.778502 0.618165
0.052187 0.895397 0.621205
0.192976 0.894784 0.620460
0.323334 0.894216 0.619771
0.449116 0.893668 0.619105
0.571928 0.893133 0.618455
0.692549 0.892607 0.617817
0.811439 0.892089 0.617188
0.928900 0.891577 0.616566
1.000000 0.891226 0.616140
0.050262 1.000000 0.619280
0.191051 1.000000 0.618535
0.321409 1.000000 0.617845
0.447191 1.000000 0.617180
0.570003 1.000000 0.616530
0.690624 0.999747 0.615892
0.809513 0.999229 0.615263
0.926975 0.998717 0.614641
1.000000 0.998366 0.614215
0.067105 0.054032 0.746013
0.207894 0.053419 0.745268
0.338253 0.052851 0.744578
0.464034 0.052303 0.743912
0.586847 0.051767 0.743263
0.707468 0.051242 0.742624
0.826357 0.050724 0.741995
0.943819 0.050212 0.741374
1.000000 0.049860 0.740947
0.064680 0.189040 0.743587
0.205468 0.188426 0.742842
0.335827 0.187858 0.742152
0.461608 0.187310 0.741487
0.584421 0.186775 0.740837
0.705042 0.186249 0.740199
0.823931 0.185731 0.739569
0.941393 0.185219 0.738948
1.000000 0.184868 0.738521
0.062432 0.314117 0.741339
0.203221 0.313503 0.740594
0.333580 0.312935 0.739905
0.459361 0.312387 0.739239
0.582173 0.311852 0.738589
0.702794 0.311326 0.737951
0.821684 0.310808 0.737322
0.939145 0.310296 0.736701
1.000000 0.309945 0.736274
0.060263 0.434813 0.739171
0.201052 0.434200 0.738426
0.331411 0.433632 0.737736
0.457192 0.433084 0.737070
0.580005 0.432549 0.736421
0.700626 0.432023 0.735782
0.819515 0.431505 0.735153
0.936977 0.430993 0.734532
1.000000 0.430642 0.734105
0.058146 0.552666 0.737053
0.198935 0.552053 0.736308
0.329293 0.551485 0.735618
0.455075 0.550936 0.734953
0.577887 0.550401 0.734303
0.698508 0.549876 0.733665
0.817398 0.549358 0.733036
0.934859 0.548846 0.732414
1.000000 0.548495 0.731988
0.056066 0.668419 0.734973
0.196855 0.667805 0.734228
0.327214 0.667237 0.733538
0.452995 0.666689 0.732873
0.575807 0.666154 0.732223
0.696428 0.665629 0.731585
0.815318 0.665111 0.730956
0.932779 0.664599 0.730334
1.000000 0.664247 0.729908
0.054016 0.782512 0.732923
0.194805 0.781899 0.732178
0.325163 0.781331 0.731488
0.450945 0.780782 0.730823
0.573757 0.780247 0.730173
0.694378 0.779722 0.729535
0.813268 0.779204 0.728906
0.930729 0.778692 0.728284
1.000000 0.778341 0.727858
0.051990 0.895236 0.730898
0.192779 0.894622 0.730153
0.323138 0.894054 0.729463
0.448919 0.893506 0.728797
0.571731 0.892971 0.728148
0.692353 0.892445 0.727509
0.811242 0.891927 0.726880
0.928704 0.891415 0.726259
1.000000 0.891064 0.725832
0.050065 1.000000 0.728972
0.190854 1.000000 0.728228
0.321213 1.000000 0.727538
0.446994 1.000000 0.726872
0.569806 1.000000 0.726222
0.690427 0.999585 0.725584
0.809317 0.999067 0.724955
0.926778 0.998555 0.724334
1.000000 0.998204 0.723907
0.066911 0.053872 0.854390
0.207700 0.053259 0.853646
0.338059 0.052691 0.852956
0.463840 0.052143 0.852290
0.586652 0.051608 0.851640
0.707274 0.051082 0.851002
0.826163 0.050564 0.850373
0.943625 0.050052 0.849752
1.000000 0.049700 0.849325
0.064486 0.188880 0.851965
0.205274 0.188266 0.851220
0.335633 0.187698 0.850530
0.461414 0.187150 0.849864
0.584227 0.186615 0.849215
0.704848 0.186090 0.848576
0.823737 0.185571 0.847947
0.941199 0.185060 0.847326
1.000000 0.184708 0.846899
0.062238 0.313957 0.849717
0.203027 0.313343 0.848972
0.333386 0.312775 0.848282
0.459167 0.312227 0.847617
0.581979 0.311692 0.846967
0.702600 0.311166 0.846329
0.821490 0.310648 0.845700
0.938951 0.310137 0.845078
1.000000 0.309785 0.844652
0.060069 0.434654 0.847548
0.200858 0.434040 0.846803
0.331217 0.433472 0.846114
0.456998 0.432924 0.845448
0.579810 0.432389 0.844798
0.700432 0.431863 0.844160
0.819321 0.431345 0.843531
0.936783 0.430833 0.842910
1.000000 0.430482 0.842483
0.057952 0.552506 0.845431
0.198741 0.551893 0.844686
0.329099 0.551325 0.843996
0.454881 0.550777 0.843331
0.577693 0.550241 0.842681
0.698314 0.549716 0.842042
0.817204 0.549198 0.841413
0.934665 0.548686 0.840792
1.000000 0.548335 0.840365
0.055872 0.668259 0.843351
0.196661 0.667646 0.842606
0.327019 0.667078 0.841916
0.452801 0.666530 0.841251
0.575613 0.665994 0.840601
0.696234 0.665469 0.839963
0.815124 0.664951 0.839334
0.932585 0.664439 0.838712
1.000000 0.664088 0.838286
0.053822 0.782352 0.841301
0.194611 0.781739 0.840556
0.324969 0.781171 0.839866
0.450751 0.780623 0.839201
0.573563 0.780087 0.838551
0.694184 0.779562 0.837913
0.813074 0.779044 0.837283
0.930535 0.778532 0.836662
1.000000 0.778181 0.836235
0.051796 0.895076 0.839275
0.192585 0.894462 0.838530
0.322944 0.893894 0.837841
0.448725 0.893346 0.837175
0.571537 0.892811 0.836525
0.692158 0.892285 0.835887
0.811048 0.891767 0.835258
0.928509 0.891256 0.834636
1.000000 0.890904 0.834210
0.049871 1.000000 0.837350
0.190660 1.000000 0.836605
0.321019 1.000000 0.835916
0.446800 1.000000 0.835250
0.569612 0.999951 0.834600
0.690233 0.999425 0.833962
0.809123 0.998907 0.833333
0.926584 0.998396 0.832711
1.000000 0.998044 0.832285
0.066719 0.053714 0.961651
0.207508 0.053101 0.960906
0.337867 0.052533 0.960216
0.463648 0.051985 0.959551
0.586460 0.051449 0.958901
0.707082 0.050924 0.958263
0.825971 0.050406 0.957633
0.943433 0.049894 0.957012
1.000000 0.049542 0.956585
0.064293 0.188722 0.959225
0.205082 0.188108 0.958480
0.335441 0.187540 0.957790
0.461222 0.186992 0.957125
0.584035 0.186457 0.956475
0.704656 0.185931 0.955837
0.823545 0.185413 0.955208
0.941007 0.184901 0.954586
1.000000 0.184550 0.954160
0.062046 0.313799 0.956978
0.202835 0.313185 0.956233
0.333194 0.312617 0.955543
0.458975 0.312069 0.954877
0.581787 0.311534 0.954227
0.702408 0.311008 0.953589
0.821298 0.310490 0.952960
0.938759 0.309978 0.952339
1.000000 0.309627 0.951912
0.059877 0.434495 0.954809
0.200666 0.433882 0.954064
0.331025 0.433314 0.953374
0.456806 0.432766 0.952709
0.579618 0.432231 0.952059
0.700239 0.431705 0.951420
0.819129 0.431187 0.950791
0.936590 0.430675 0.950170
1.000000 0.430324 0.949743
0.057760 0.552348 0.952691
0.198549 0.551735 0.951946
0.328907 0.551167 0.951256
0.454689 0.550618 0.950591
0.577501 0.550083 0.949941
0.698122 0.549558 0.949303
0.817011 0.549040 0.948674
0.934473 0.548528 0.948052
1.000000 0.548177 0.947626
0.055680 0.668101 0.950611
0.196469 0.667487 0.949866
0.326827 0.666919 0.949177
0.452609 0.666371 0.948511
0.575421 0.665836 0.947861
0.696042 0.665311 0.947223
0.814932 0.664793 0.946594
0.932393 0.664281 0.945972
1.000000 0.663929 0.945546
0.053630 0.782194 0.948561
0.194419 0.781581 0.947816
0.324777 0.781013 0.947126
0.450559 0.780464 0.946461
0.573371 0.779929 0.945811
0.693992 0.779404 0.945173
0.812882 0.778886 0.944544
0.930343 0.778374 0.943922
1.000000 0.778023 0.943496
0.051604 0.894918 0.946536
0.192393 0.894304 0.945791
0.322752 0.893736 0.945101
0.448533 0.893188 0.944435
0.571345 0.892653 0.943786
0.691966 0.892127 0.943147
0.810856 0.891609 0.942518
0.928317 0.891097 0.941897
1.000000 0.890746 0.941470
0.049679 1.000000 0.944611
0.190468 1.000000 0.943866
0.320827 1.000000 0.943176
0.446608 1.000000 0.942510
0.569420 0.999793 0.941861
0.690041 0.999267 0.941222
0.808931 0.998749 0.940593
0.926392 0.998237 0.939972
1.000000 0.997886 0.939545
