assets/luts/primelive_weifeng.cube
TITLE "primelive_weifeng"
LUT_3D_SIZE 33
0.117500 0.117500 0.117500
0.144214 0.117662 0.117662
0.170928 0.117824 0.117824
0.197642 0.117986 0.117986
0.224356 0.118148 0.118148
0.251069 0.118310 0.118310
0.277783 0.118472 0.118472
0.304497 0.118634 0.118634
0.331211 0.118796 0.118796
0.357925 0.118958 0.118958
0.384639 0.119120 0.119120
0.411353 0.119282 0.119282
0.438067 0.119444 0.119444
0.464781 0.119606 0.119606
0.491495 0.119768 0.119768
0.518208 0.119930 0.119930
0.544922 0.120092 0.120092
0.571636 0.120254 0.120254
0.598350 0.120416 0.120416
0.625064 0.120578 0.120578
0.651778 0.120740 0.120740
0.678492 0.120902 0.120902
0.705206 0.121064 0.121064
0.731920 0.121226 0.121226
0.758634 0.121389 0.121389
0.785347 0.121551 0.121551
0.812061 0.121713 0.121713
0.838775 0.121875 0.121875
0.865489 0.122037 0.122037
0.892203 0.122199 0.122199
0.918917 0.122361 0.122361
0.945631 0.122523 0.122523
0.972345 0.122685 0.122685
0.117827 0.145160 0.117827
0.144541 0.145322 0.117989
0.171255 0.145484 0.118151
0.197969 0.145646 0.118314
0.224683 0.145808 0.118476
0.251397 0.145970 0.118638
0.278111 0.146132 0.118800
0.304825 0.146294 0.118962
0.331539 0.146456 0.119124
0.358253 0.146618 0.119286
0.384966 0.146780 0.119448
0.411680 0.146942 0.119610
0.438394 0.147104 0.119772
0.465108 0.147266 0.119934
0.491822 0.147429 0.120096
0.518536 0.147591 0.120258
0.545250 0.147753 0.120420
0.571964 0.147915 0.120582
0.598678 0.148077 0.120744
0.625391 0.148239 0.120906
0.652105 0.148401 0.121068
0.678819 0.148563 0.121230
0.705533 0.148725 0.121392
0.732247 0.148887 0.121554
0.758961 0.149049 0.121716
0.785675 0.149211 0.121878
0.812389 0.149373 0.122040
0.839103 0.149535 0.122202
0.865816 0.149697 0.122364
0.892530 0.149859 0.122526
0.919244 0.150021 0.122688
0.945958 0.150183 0.122850
0.972672 0.150345 0.123012
0.118155 0.172820 0.118155
0.144869 0.172982 0.118317
0.171583 0.173145 0.118479
0.198297 0.173307 0.118641
0.225010 0.173469 0.118803
0.251724 0.173631 0.118965
0.278438 0.173793 0.119127
0.305152 0.173955 0.119289
0.331866 0.174117 0.119451
0.358580 0.174279 0.119613
0.385294 0.174441 0.119775
0.412008 0.174603 0.119937
0.438722 0.174765 0.120099
0.465436 0.174927 0.120261
0.492149 0.175089 0.120423
0.518863 0.175251 0.120585
0.545577 0.175413 0.120747
0.572291 0.175575 0.120909
0.599005 0.175737 0.121071
0.625719 0.175899 0.121233
0.652433 0.176061 0.121395
0.679147 0.176223 0.121557
0.705861 0.176385 0.121719
0.732574 0.176547 0.121881
0.759288 0.176709 0.122043
0.786002 0.176871 0.122205
0.812716 0.177033 0.122367
0.839430 0.177195 0.122529
0.866144 0.177357 0.122691
0.892858 0.177519 0.122853
0.919572 0.177681 0.123015
0.946286 0.177843 0.123178
0.972999 0.178005 0.123340
0.118482 0.200481 0.118482
0.145196 0.200643 0.118644
0.171910 0.200805 0.118806
0.198624 0.200967 0.118968
0.225338 0.201129 0.119130
0.252052 0.201291 0.119292
0.278766 0.201453 0.119454
0.305480 0.201615 0.119616
0.332193 0.201777 0.119778
0.358907 0.201939 0.119941
0.385621 0.202101 0.120103
0.412335 0.202263 0.120265
0.439049 0.202425 0.120427
0.465763 0.202587 0.120589
0.492477 0.202749 0.120751
0.519191 0.202911 0.120913
0.545905 0.203073 0.121075
0.572619 0.203235 0.121237
0.599332 0.203397 0.121399
0.626046 0.203559 0.121561
0.652760 0.203721 0.121723
0.679474 0.203883 0.121885
0.706188 0.204045 0.122047
0.732902 0.204207 0.122209
0.759616 0.204369 0.122371
0.786330 0.204531 0.122533
0.813044 0.204693 0.122695
0.839757 0.204855 0.122857
0.866471 0.205017 0.123019
0.893185 0.205179 0.123181
0.919899 0.205341 0.123343
0.946613 0.205503 0.123505
0.973327 0.205665 0.123667
0.118810 0.228141 0.118810
0.145524 0.228303 0.118972
0.172238 0.228465 0.119134
0.198951 0.228627 0.119296
0.225665 0.228789 0.119458
0.252379 0.228951 0.119620
0.279093 0.229113 0.119782
0.305807 0.229275 0.119944
0.332521 0.229437 0.120106
0.359235 0.229599 0.120268
0.385949 0.229761 0.120430
0.412663 0.229923 0.120592
0.439376 0.230085 0.120754
0.466090 0.230247 0.120916
0.492804 0.230409 0.121078
0.519518 0.230571 0.121240
0.546232 0.230733 0.121402
0.572946 0.230895 0.121564
0.599660 0.231057 0.121726
0.626374 0.231219 0.121888
0.653088 0.231381 0.122050
0.679802 0.231543 0.122212
0.706515 0.231705 0.122374
0.733229 0.231867 0.122536
0.759943 0.232029 0.122698
0.786657 0.232191 0.122860
0.813371 0.232353 0.123022
0.840085 0.232516 0.123184
0.866799 0.232678 0.123346
0.893513 0.232840 0.123508
0.920227 0.233002 0.123670
0.946940 0.233164 0.123832
0.973654 0.233326 0.123994
0.119137 0.255801 0.119137
0.145851 0.255963 0.119299
0.172565 0.256125 0.119461
0.199279 0.256287 0.119623
0.225993 0.256449 0.119785
0.252707 0.256611 0.119947
0.279421 0.256773 0.120109
0.306134 0.256935 0.120271
0.332848 0.257097 0.120433
0.359562 0.257259 0.120595
0.386276 0.257421 0.120757
0.412990 0.257583 0.120919
0.439704 0.257745 0.121081
0.466418 0.257908 0.121243
0.493132 0.258070 0.121405
0.519846 0.258232 0.121567
0.546560 0.258394 0.121730
0.573273 0.258556 0.121892
0.599987 0.258718 0.122054
0.626701 0.258880 0.122216
0.653415 0.259042 0.122378
0.680129 0.259204 0.122540
0.706843 0.259366 0.122702
0.733557 0.259528 0.122864
0.760271 0.259690 0.123026
0.786985 0.259852 0.123188
0.813699 0.260014 0.123350
0.840412 0.260176 0.123512
0.867126 0.260338 0.123674
0.893840 0.260500 0.123836
0.920554 0.260662 0.123998
0.947268 0.260824 0.124160
0.973982 0.260986 0.124322
0.119465 0.283461 0.119465
0.146179 0.283624 0.119627
0.172892 0.283786 0.119789
0.199606 0.283948 0.119951
0.226320 0.284110 0.120113
0.253034 0.284272 0.120275
0.279748 0.284434 0.120437
0.306462 0.284596 0.120599
0.333176 0.284758 0.120761
0.359890 0.284920 0.120923
0.386604 0.285082 0.121085
0.413317 0.285244 0.121247
0.440031 0.285406 0.121409
0.466745 0.285568 0.121571
0.493459 0.285730 0.121733
0.520173 0.285892 0.121895
0.546887 0.286054 0.122057
0.573601 0.286216 0.122219
0.600315 0.286378 0.122381
0.627029 0.286540 0.122543
0.653743 0.286702 0.122705
0.680456 0.286864 0.122867
0.707170 0.287026 0.123029
0.733884 0.287188 0.123191
0.760598 0.287350 0.123353
0.787312 0.287512 0.123515
0.814026 0.287674 0.123677
0.840740 0.287836 0.123839
0.867454 0.287998 0.124001
0.894168 0.288160 0.124163
0.920881 0.288322 0.124325
0.947595 0.288484 0.124487
0.974309 0.288646 0.124649
0.119792 0.311122 0.119792
0.146506 0.311284 0.119954
0.173220 0.311446 0.120116
0.199934 0.311608 0.120278
0.226648 0.311770 0.120440
0.253362 0.311932 0.120602
0.280075 0.312094 0.120764
0.306789 0.312256 0.120926
0.333503 0.312418 0.121088
0.360217 0.312580 0.121250
0.386931 0.312742 0.121412
0.413645 0.312904 0.121574
0.440359 0.313066 0.121736
0.467073 0.313228 0.121898
0.493787 0.313390 0.122060
0.520500 0.313552 0.122222
0.547214 0.313714 0.122384
0.573928 0.313876 0.122546
0.600642 0.314038 0.122708
0.627356 0.314200 0.122870
0.654070 0.314362 0.123032
0.680784 0.314524 0.123194
0.707498 0.314686 0.123357
0.734212 0.314848 0.123519
0.760926 0.315010 0.123681
0.787639 0.315172 0.123843
0.814353 0.315334 0.124005
0.841067 0.315496 0.124167
0.867781 0.315658 0.124329
0.894495 0.315820 0.124491
0.921209 0.315982 0.124653
0.947923 0.316144 0.124815
0.974637 0.316306 0.124977
0.120119 0.338782 0.120119
0.146833 0.338944 0.120282
0.173547 0.339106 0.120444
0.200261 0.339268 0.120606
0.226975 0.339430 0.120768
0.253689 0.339592 0.120930
0.280403 0.339754 0.121092
0.307117 0.339916 0.121254
0.333831 0.340078 0.121416
0.360545 0.340240 0.121578
0.387258 0.340402 0.121740
0.413972 0.340564 0.121902
0.440686 0.340726 0.122064
0.467400 0.340888 0.122226
0.494114 0.341050 0.122388
0.520828 0.341212 0.122550
0.547542 0.341374 0.122712
0.574256 0.341536 0.122874
0.600970 0.341698 0.123036
0.627683 0.341860 0.123198
0.654397 0.342022 0.123360
0.681111 0.342184 0.123522
0.707825 0.342346 0.123684
0.734539 0.342508 0.123846
0.761253 0.342670 0.124008
0.787967 0.342832 0.124170
0.814681 0.342995 0.124332
0.841395 0.343157 0.124494
0.868109 0.343319 0.124656
0.894822 0.343481 0.124818
0.921536 0.343643 0.124980
0.948250 0.343805 0.125142
0.974964 0.343967 0.125304
0.120447 0.366442 0.120447
0.147161 0.366604 0.120609
0.173875 0.366766 0.120771
0.200589 0.366928 0.120933
0.227302 0.367090 0.121095
0.254016 0.367252 0.121257
0.280730 0.367414 0.121419
0.307444 0.367576 0.121581
0.334158 0.367738 0.121743
0.360872 0.367900 0.121905
0.387586 0.368062 0.122067
0.414300 0.368224 0.122229
0.441014 0.368386 0.122391
0.467728 0.368548 0.122553
0.494441 0.368711 0.122715
0.521155 0.368873 0.122877
0.547869 0.369035 0.123039
0.574583 0.369197 0.123201
0.601297 0.369359 0.123363
0.628011 0.369521 0.123525
0.654725 0.369683 0.123687
0.681439 0.369845 0.123849
0.708153 0.370007 0.124011
0.734867 0.370169 0.124173
0.761580 0.370331 0.124335
0.788294 0.370493 0.124497
0.815008 0.370655 0.124659
0.841722 0.370817 0.124821
0.868436 0.370979 0.124984
0.895150 0.371141 0.125146
0.921864 0.371303 0.125308
0.948578 0.371465 0.125470
0.975292 0.371627 0.125632
0.120774 0.394102 0.120774
0.147488 0.394265 0.120936
0.174202 0.394427 0.121098
0.200916 0.394589 0.121260
0.227630 0.394751 0.121422
0.254344 0.394913 0.121584
0.281058 0.395075 0.121746
0.307772 0.395237 0.121909
0.334486 0.395399 0.122071
0.361199 0.395561 0.122233
0.387913 0.395723 0.122395
0.414627 0.395885 0.122557
0.441341 0.396047 0.122719
0.468055 0.396209 0.122881
0.494769 0.396371 0.123043
0.521483 0.396533 0.123205
0.548197 0.396695 0.123367
0.574911 0.396857 0.123529
0.601625 0.397019 0.123691
0.628338 0.397181 0.123853
0.655052 0.397343 0.124015
0.681766 0.397505 0.124177
0.708480 0.397667 0.124339
0.735194 0.397829 0.124501
0.761908 0.397991 0.124663
0.788622 0.398153 0.124825
0.815336 0.398315 0.124987
0.842050 0.398477 0.125149
0.868763 0.398639 0.125311
0.895477 0.398801 0.125473
0.922191 0.398963 0.125635
0.948905 0.399125 0.125797
0.975619 0.399287 0.125959
0.121102 0.421763 0.121102
0.147816 0.421925 0.121264
0.174530 0.422087 0.121426
0.201243 0.422249 0.121588
0.227957 0.422411 0.121750
0.254671 0.422573 0.121912
0.281385 0.422735 0.122074
0.308099 0.422897 0.122236
0.334813 0.423059 0.122398
0.361527 0.423221 0.122560
0.388241 0.423383 0.122722
0.414955 0.423545 0.122884
0.441669 0.423707 0.123046
0.468382 0.423869 0.123208
0.495096 0.424031 0.123370
0.521810 0.424193 0.123532
0.548524 0.424355 0.123694
0.575238 0.424517 0.123856
0.601952 0.424679 0.124018
0.628666 0.424841 0.124180
0.655380 0.425003 0.124342
0.682094 0.425165 0.124504
0.708807 0.425327 0.124666
0.735521 0.425489 0.124828
0.762235 0.425651 0.124990
0.788949 0.425813 0.125152
0.815663 0.425975 0.125314
0.842377 0.426137 0.125476
0.869091 0.426299 0.125638
0.895805 0.426461 0.125800
0.922519 0.426623 0.125962
0.949232 0.426785 0.126124
0.975946 0.426947 0.126286
0.121429 0.449423 0.121429
0.148143 0.449585 0.121591
0.174857 0.449747 0.121753
0.201571 0.449909 0.121915
0.228285 0.450071 0.122077
0.254999 0.450233 0.122239
0.281713 0.450395 0.122401
0.308426 0.450557 0.122563
0.335140 0.450719 0.122725
0.361854 0.450881 0.122887
0.388568 0.451043 0.123049
0.415282 0.451205 0.123211
0.441996 0.451367 0.123373
0.468710 0.451529 0.123536
0.495424 0.451691 0.123698
0.522138 0.451853 0.123860
0.548852 0.452015 0.124022
0.575565 0.452177 0.124184
0.602279 0.452339 0.124346
0.628993 0.452501 0.124508
0.655707 0.452663 0.124670
0.682421 0.452825 0.124832
0.709135 0.452987 0.124994
0.735849 0.453149 0.125156
0.762563 0.453311 0.125318
0.789277 0.453473 0.125480
0.815991 0.453635 0.125642
0.842704 0.453798 0.125804
0.869418 0.453960 0.125966
0.896132 0.454122 0.126128
0.922846 0.454284 0.126290
0.949560 0.454446 0.126452
0.976274 0.454608 0.126614
0.121757 0.477083 0.121757
0.148471 0.477245 0.121919
0.175184 0.477407 0.122081
0.201898 0.477569 0.122243
0.228612 0.477731 0.122405
0.255326 0.477893 0.122567
0.282040 0.478055 0.122729
0.308754 0.478217 0.122891
0.335468 0.478379 0.123053
0.362182 0.478541 0.123215
0.388896 0.478703 0.123377
0.415610 0.478865 0.123539
0.442323 0.479027 0.123701
0.469037 0.479190 0.123863
0.495751 0.479352 0.124025
0.522465 0.479514 0.124187
0.549179 0.479676 0.124349
0.575893 0.479838 0.124511
0.602607 0.480000 0.124673
0.629321 0.480162 0.124835
0.656035 0.480324 0.124997
0.682749 0.480486 0.125159
0.709462 0.480648 0.125321
0.736176 0.480810 0.125483
0.762890 0.480972 0.125645
0.789604 0.481134 0.125807
0.816318 0.481296 0.125969
0.843032 0.481458 0.126131
0.869746 0.481620 0.126293
0.896460 0.481782 0.126455
0.923173 0.481944 0.126617
0.949887 0.482106 0.126779
0.976601 0.482268 0.126941
0.122084 0.504743 0.122084
0.148798 0.504905 0.122246
0.175512 0.505067 0.122408
0.202226 0.505230 0.122570
0.228940 0.505392 0.122732
0.255654 0.505554 0.122894
0.282367 0.505716 0.123056
0.309081 0.505878 0.123218
0.335795 0.506040 0.123380
0.362509 0.506202 0.123542
0.389223 0.506364 0.123704
0.415937 0.506526 0.123866
0.442651 0.506688 0.124028
0.469365 0.506850 0.124190
0.496079 0.507012 0.124352
0.522793 0.507174 0.124514
0.549506 0.507336 0.124676
0.576220 0.507498 0.124838
0.602934 0.507660 0.125000
0.629648 0.507822 0.125163
0.656362 0.507984 0.125325
0.683076 0.508146 0.125487
0.709790 0.508308 0.125649
0.736504 0.508470 0.125811
0.763218 0.508632 0.125973
0.789932 0.508794 0.126135
0.816645 0.508956 0.126297
0.843359 0.509118 0.126459
0.870073 0.509280 0.126621
0.896787 0.509442 0.126783
0.923501 0.509604 0.126945
0.950215 0.509766 0.127107
0.976929 0.509928 0.127269
0.122412 0.532404 0.122412
0.149125 0.532566 0.122574
0.175839 0.532728 0.122736
0.202553 0.532890 0.122898
0.229267 0.533052 0.123060
0.255981 0.533214 0.123222
0.282695 0.533376 0.123384
0.309409 0.533538 0.123546
0.336123 0.533700 0.123708
0.362837 0.533862 0.123870
0.389551 0.534024 0.124032
0.416264 0.534186 0.124194
0.442978 0.534348 0.124356
0.469692 0.534510 0.124518
0.496406 0.534672 0.124680
0.523120 0.534834 0.124842
0.549834 0.534996 0.125004
0.576548 0.535158 0.125166
0.603262 0.535320 0.125328
0.629976 0.535482 0.125490
0.656689 0.535644 0.125652
0.683403 0.535806 0.125814
0.710117 0.535968 0.125976
0.736831 0.536130 0.126138
0.763545 0.536292 0.126300
0.790259 0.536454 0.126462
0.816973 0.536616 0.126624
0.843687 0.536778 0.126786
0.870401 0.536940 0.126948
0.897115 0.537102 0.127110
0.923828 0.537264 0.127272
0.950542 0.537426 0.127434
0.977256 0.537588 0.127596
0.122739 0.560064 0.122739
0.149453 0.560226 0.122901
0.176167 0.560388 0.123063
0.202881 0.560550 0.123225
0.229595 0.560712 0.123387
0.256308 0.560874 0.123549
0.283022 0.561036 0.123711
0.309736 0.561198 0.123873
0.336450 0.561360 0.124035
0.363164 0.561522 0.124197
0.389878 0.561684 0.124359
0.416592 0.561846 0.124521
0.443306 0.562008 0.124683
0.470020 0.562170 0.124845
0.496734 0.562332 0.125007
0.523447 0.562494 0.125169
0.550161 0.562656 0.125331
0.576875 0.562818 0.125493
0.603589 0.562980 0.125655
0.630303 0.563142 0.125817
0.657017 0.563304 0.125979
0.683731 0.563466 0.126141
0.710445 0.563628 0.126303
0.737159 0.563790 0.126465
0.763872 0.563952 0.126627
0.790586 0.564114 0.126789
0.817300 0.564276 0.126952
0.844014 0.564439 0.127114
0.870728 0.564601 0.127276
0.897442 0.564763 0.127438
0.924156 0.564925 0.127600
0.950870 0.565087 0.127762
0.977584 0.565249 0.127924
0.123066 0.587724 0.123066
0.149780 0.587886 0.123228
0.176494 0.588048 0.123390
0.203208 0.588210 0.123552
0.229922 0.588372 0.123715
0.256636 0.588534 0.123877
0.283350 0.588696 0.124039
0.310064 0.588858 0.124201
0.336778 0.589020 0.124363
0.363491 0.589182 0.124525
0.390205 0.589344 0.124687
0.416919 0.589506 0.124849
0.443633 0.589668 0.125011
0.470347 0.589830 0.125173
0.497061 0.589992 0.125335
0.523775 0.590154 0.125497
0.550489 0.590317 0.125659
0.577203 0.590479 0.125821
0.603917 0.590641 0.125983
0.630630 0.590803 0.126145
0.657344 0.590965 0.126307
0.684058 0.591127 0.126469
0.710772 0.591289 0.126631
0.737486 0.591451 0.126793
0.764200 0.591613 0.126955
0.790914 0.591775 0.127117
0.817628 0.591937 0.127279
0.844342 0.592099 0.127441
0.871055 0.592261 0.127603
0.897769 0.592423 0.127765
0.924483 0.592585 0.127927
0.951197 0.592747 0.128089
0.977911 0.592909 0.128251
0.123394 0.615384 0.123394
0.150108 0.615547 0.123556
0.176822 0.615709 0.123718
0.203536 0.615871 0.123880
0.230249 0.616033 0.124042
0.256963 0.616195 0.124204
0.283677 0.616357 0.124366
0.310391 0.616519 0.124528
0.337105 0.616681 0.124690
0.363819 0.616843 0.124852
0.390533 0.617005 0.125014
0.417247 0.617167 0.125176
0.443961 0.617329 0.125338
0.470674 0.617491 0.125500
0.497388 0.617653 0.125662
0.524102 0.617815 0.125824
0.550816 0.617977 0.125986
0.577530 0.618139 0.126148
0.604244 0.618301 0.126310
0.630958 0.618463 0.126472
0.657672 0.618625 0.126634
0.684386 0.618787 0.126796
0.711100 0.618949 0.126958
0.737813 0.619111 0.127120
0.764527 0.619273 0.127282
0.791241 0.619435 0.127444
0.817955 0.619597 0.127606
0.844669 0.619759 0.127768
0.871383 0.619921 0.127930
0.898097 0.620083 0.128092
0.924811 0.620245 0.128254
0.951525 0.620407 0.128416
0.978238 0.620569 0.128579
0.123721 0.643045 0.123721
0.150435 0.643207 0.123883
0.177149 0.643369 0.124045
0.203863 0.643531 0.124207
0.230577 0.643693 0.124369
0.257291 0.643855 0.124531
0.284005 0.644017 0.124693
0.310719 0.644179 0.124855
0.337432 0.644341 0.125017
0.364146 0.644503 0.125179
0.390860 0.644665 0.125341
0.417574 0.644827 0.125504
0.444288 0.644989 0.125666
0.471002 0.645151 0.125828
0.497716 0.645313 0.125990
0.524430 0.645475 0.126152
0.551144 0.645637 0.126314
0.577858 0.645799 0.126476
0.604571 0.645961 0.126638
0.631285 0.646123 0.126800
0.657999 0.646285 0.126962
0.684713 0.646447 0.127124
0.711427 0.646609 0.127286
0.738141 0.646771 0.127448
0.764855 0.646933 0.127610
0.791569 0.647095 0.127772
0.818283 0.647257 0.127934
0.844996 0.647419 0.128096
0.871710 0.647581 0.128258
0.898424 0.647743 0.128420
0.925138 0.647905 0.128582
0.951852 0.648067 0.128744
0.978566 0.648229 0.128906
0.124049 0.670705 0.124049
0.150763 0.670867 0.124211
0.177476 0.671029 0.124373
0.204190 0.671191 0.124535
0.230904 0.671353 0.124697
0.257618 0.671515 0.124859
0.284332 0.671677 0.125021
0.311046 0.671839 0.125183
0.337760 0.672001 0.125345
0.364474 0.672163 0.125507
0.391188 0.672325 0.125669
0.417902 0.672487 0.125831
0.444615 0.672649 0.125993
0.471329 0.672811 0.126155
0.498043 0.672973 0.126317
0.524757 0.673135 0.126479
0.551471 0.673297 0.126641
0.578185 0.673459 0.126803
0.604899 0.673621 0.126965
0.631613 0.673783 0.127127
0.658327 0.673945 0.127289
0.685041 0.674107 0.127451
0.711754 0.674269 0.127613
0.738468 0.674431 0.127775
0.765182 0.674593 0.127937
0.791896 0.674756 0.128099
0.818610 0.674918 0.128261
0.845324 0.675080 0.128423
0.872038 0.675242 0.128585
0.898752 0.675404 0.128747
0.925465 0.675566 0.128909
0.952179 0.675728 0.129071
0.978893 0.675890 0.129233
0.124376 0.698365 0.124376
0.151090 0.698527 0.124538
0.177804 0.698689 0.124700
0.204518 0.698851 0.124862
0.231232 0.699013 0.125024
0.257946 0.699175 0.125186
0.284660 0.699337 0.125348
0.311373 0.699499 0.125510
0.338087 0.699661 0.125672
0.364801 0.699823 0.125834
0.391515 0.699985 0.125996
0.418229 0.700147 0.126158
0.444943 0.700309 0.126320
0.471657 0.700472 0.126482
0.498371 0.700634 0.126644
0.525085 0.700796 0.126806
0.551798 0.700958 0.126968
0.578512 0.701120 0.127131
0.605226 0.701282 0.127293
0.631940 0.701444 0.127455
0.658654 0.701606 0.127617
0.685368 0.701768 0.127779
0.712082 0.701930 0.127941
0.738796 0.702092 0.128103
0.765510 0.702254 0.128265
0.792224 0.702416 0.128427
0.818938 0.702578 0.128589
0.845651 0.702740 0.128751
0.872365 0.702902 0.128913
0.899079 0.703064 0.129075
0.925793 0.703226 0.129237
0.952507 0.703388 0.129399
0.979221 0.703550 0.129561
0.124704 0.726025 0.124704
0.151417 0.726187 0.124866
0.178131 0.726349 0.125028
0.204845 0.726511 0.125190
0.231559 0.726674 0.125352
0.258273 0.726836 0.125514
0.284987 0.726998 0.125676
0.311701 0.727160 0.125838
0.338415 0.727322 0.126000
0.365129 0.727484 0.126162
0.391843 0.727646 0.126324
0.418556 0.727808 0.126486
0.445270 0.727970 0.126648
0.471984 0.728132 0.126810
0.498698 0.728294 0.126972
0.525412 0.728456 0.127134
0.552126 0.728618 0.127296
0.578840 0.728780 0.127458
0.605554 0.728942 0.127620
0.632268 0.729104 0.127782
0.658982 0.729266 0.127944
0.685695 0.729428 0.128106
0.712409 0.729590 0.128268
0.739123 0.729752 0.128430
0.765837 0.729914 0.128592
0.792551 0.730076 0.128754
0.819265 0.730238 0.128916
0.845979 0.730400 0.129078
0.872693 0.730562 0.129240
0.899407 0.730724 0.129402
0.926120 0.730886 0.129564
0.952834 0.731048 0.129726
0.979548 0.731210 0.129888
0.125031 0.753686 0.125031
0.151745 0.753848 0.125193
0.178459 0.754010 0.125355
0.205173 0.754172 0.125517
0.231887 0.754334 0.125679
0.258600 0.754496 0.125841
0.285314 0.754658 0.126003
0.312028 0.754820 0.126165
0.338742 0.754982 0.126327
0.365456 0.755144 0.126489
0.392170 0.755306 0.126651
0.418884 0.755468 0.126813
0.445598 0.755630 0.126975
0.472312 0.755792 0.127137
0.499026 0.755954 0.127299
0.525739 0.756116 0.127461
0.552453 0.756278 0.127623
0.579167 0.756440 0.127785
0.605881 0.756602 0.127947
0.632595 0.756764 0.128109
0.659309 0.756926 0.128271
0.686023 0.757088 0.128433
0.712737 0.757250 0.128595
0.739451 0.757412 0.128758
0.766165 0.757574 0.128920
0.792878 0.757736 0.129082
0.819592 0.757898 0.129244
0.846306 0.758060 0.129406
0.873020 0.758222 0.129568
0.899734 0.758384 0.129730
0.926448 0.758546 0.129892
0.953162 0.758708 0.130054
0.979876 0.758870 0.130216
0.125358 0.781346 0.125358
0.152072 0.781508 0.125520
0.178786 0.781670 0.125683
0.205500 0.781832 0.125845
0.232214 0.781994 0.126007
0.258928 0.782156 0.126169
0.285642 0.782318 0.126331
0.312356 0.782480 0.126493
0.339070 0.782642 0.126655
0.365784 0.782804 0.126817
0.392497 0.782966 0.126979
0.419211 0.783128 0.127141
0.445925 0.783290 0.127303
0.472639 0.783452 0.127465
0.499353 0.783614 0.127627
0.526067 0.783776 0.127789
0.552781 0.783938 0.127951
0.579495 0.784100 0.128113
0.606209 0.784262 0.128275
0.632922 0.784424 0.128437
0.659636 0.784586 0.128599
0.686350 0.784748 0.128761
0.713064 0.784910 0.128923
0.739778 0.785072 0.129085
0.766492 0.785234 0.129247
0.793206 0.785396 0.129409
0.819920 0.785559 0.129571
0.846634 0.785721 0.129733
0.873348 0.785883 0.129895
0.900061 0.786045 0.130057
0.926775 0.786207 0.130219
0.953489 0.786369 0.130381
0.980203 0.786531 0.130543
0.125686 0.809006 0.125686
0.152400 0.809168 0.125848
0.179114 0.809330 0.126010
0.205828 0.809492 0.126172
0.232541 0.809654 0.126334
0.259255 0.809816 0.126496
0.285969 0.809978 0.126658
0.312683 0.810140 0.126820
0.339397 0.810302 0.126982
0.366111 0.810464 0.127144
0.392825 0.810626 0.127306
0.419539 0.810788 0.127468
0.446253 0.810950 0.127630
0.472967 0.811112 0.127792
0.499680 0.811274 0.127954
0.526394 0.811436 0.128116
0.553108 0.811598 0.128278
0.579822 0.811761 0.128440
0.606536 0.811923 0.128602
0.633250 0.812085 0.128764
0.659964 0.812247 0.128926
0.686678 0.812409 0.129088
0.713392 0.812571 0.129250
0.740106 0.812733 0.129412
0.766819 0.812895 0.129574
0.793533 0.813057 0.129736
0.820247 0.813219 0.129898
0.846961 0.813381 0.130060
0.873675 0.813543 0.130222
0.900389 0.813705 0.130385
0.927103 0.813867 0.130547
0.953817 0.814029 0.130709
0.980530 0.814191 0.130871
0.126013 0.836666 0.126013
0.152727 0.836828 0.126175
0.179441 0.836991 0.126337
0.206155 0.837153 0.126499
0.232869 0.837315 0.126661
0.259583 0.837477 0.126823
0.286297 0.837639 0.126985
0.313011 0.837801 0.127147
0.339725 0.837963 0.127310
0.366438 0.838125 0.127472
0.393152 0.838287 0.127634
0.419866 0.838449 0.127796
0.446580 0.838611 0.127958
0.473294 0.838773 0.128120
0.500008 0.838935 0.128282
0.526722 0.839097 0.128444
0.553436 0.839259 0.128606
0.580150 0.839421 0.128768
0.606863 0.839583 0.128930
0.633577 0.839745 0.129092
0.660291 0.839907 0.129254
0.687005 0.840069 0.129416
0.713719 0.840231 0.129578
0.740433 0.840393 0.129740
0.767147 0.840555 0.129902
0.793861 0.840717 0.130064
0.820575 0.840879 0.130226
0.847288 0.841041 0.130388
0.874002 0.841203 0.130550
