assets/luts/primelive_amb_film_muted.cube
TITLE "primelive Film Muted"
LUT_3D_SIZE 5
DOMAIN_MIN 0.0 0.0 0.0
DOMAIN_MAX 1.0 1.0 1.0
0.086865 0.097835 0.093835
0.283348 0.105460 0.101460
0.472051 0.112783 0.108783
0.657266 0.119970 0.115970
0.832982 0.126789 0.122789
0.114173 0.309710 0.119238
0.310656 0.317334 0.126863
0.499359 0.324657 0.134185
0.684574 0.331845 0.141373
0.860290 0.338663 0.148192
0.140402 0.513211 0.143637
0.336885 0.520836 0.151261
0.525587 0.528158 0.158584
0.710803 0.535346 0.165772
0.886519 0.542165 0.172590
0.166146 0.712954 0.167585
0.362629 0.720579 0.175210
0.551332 0.727902 0.182533
0.736547 0.735089 0.189720
0.912263 0.741908 0.196539
0.191573 0.910229 0.191237
0.388056 0.917854 0.198862
0.576758 0.925176 0.206185
0.761974 0.932364 0.213372
0.937689 0.939183 0.220191
0.089595 0.100375 0.281031
0.286078 0.107999 0.288656
0.474781 0.115322 0.295979
0.659996 0.122509 0.303166
0.835712 0.129328 0.309985
0.116903 0.312249 0.306434
0.313386 0.319874 0.314059
0.502089 0.327197 0.321381
0.687304 0.334384 0.328569
0.863020 0.341203 0.335388
0.143132 0.515750 0.330833
0.339615 0.523375 0.338457
0.528317 0.530698 0.345780
0.713533 0.537885 0.352968
0.889249 0.544704 0.359787
0.168876 0.715494 0.354781
0.365359 0.723119 0.362406
0.554062 0.730441 0.369729
0.739277 0.737629 0.376916
0.914993 0.744448 0.383735
0.194302 0.912768 0.378433
0.390786 0.920393 0.386058
0.579488 0.927716 0.393381
0.764704 0.934903 0.400568
0.940419 0.941722 0.407387
0.092217 0.102814 0.460844
0.288700 0.110439 0.468469
0.477403 0.117761 0.475791
0.662618 0.124949 0.482979
0.838334 0.131768 0.489798
0.119525 0.314689 0.486247
0.316008 0.322313 0.493871
0.504711 0.329636 0.501194
0.689926 0.336823 0.508382
0.865642 0.343642 0.515200
0.145754 0.518190 0.510646
0.342237 0.525814 0.518270
0.530940 0.533137 0.525593
0.716155 0.540325 0.532780
0.891871 0.547143 0.539599
0.171498 0.717933 0.534594
0.367982 0.725558 0.542219
0.556684 0.732881 0.549541
0.741900 0.740068 0.556729
0.917615 0.746887 0.563548
0.196925 0.915208 0.558246
0.393408 0.922832 0.565871
0.582110 0.930155 0.573194
0.767326 0.937343 0.580381
0.943042 0.944161 0.587200
0.094791 0.105208 0.637339
0.291274 0.112833 0.644964
0.479977 0.120156 0.652286
0.665192 0.127343 0.659474
0.840908 0.134162 0.666293
0.122099 0.317083 0.662742
0.318582 0.324708 0.670366
0.507285 0.332030 0.677689
0.692500 0.339218 0.684877
0.868216 0.346037 0.691696
0.148328 0.520584 0.687141
0.344811 0.528209 0.694765
0.533513 0.535531 0.702088
0.718729 0.542719 0.709276
0.894445 0.549538 0.716094
0.174072 0.720328 0.711089
0.370555 0.727952 0.718714
0.559258 0.735275 0.726036
0.744474 0.742462 0.733224
0.920189 0.749281 0.740043
0.199499 0.917602 0.734741
0.395982 0.925227 0.742366
0.584684 0.932549 0.749689
0.769900 0.939737 0.756876
0.945615 0.946556 0.763695
0.097333 0.107573 0.811653
0.293816 0.115198 0.819278
0.482519 0.122520 0.826601
0.667734 0.129708 0.833788
0.843450 0.136527 0.840607
0.124641 0.319448 0.837056
0.321124 0.327072 0.844681
0.509827 0.334395 0.852004
0.695042 0.341582 0.859191
0.870758 0.348401 0.866010
0.150870 0.522949 0.861455
0.347353 0.530573 0.869080
0.536056 0.537896 0.876402
0.721271 0.545084 0.883590
0.896987 0.551902 0.890409
0.176614 0.722692 0.885403
0.373098 0.730317 0.893028
0.561800 0.737640 0.900351
0.747016 0.744827 0.907538
0.922731 0.751646 0.914357
0.202041 0.919967 0.909056
0.398524 0.927591 0.916680
0.587226 0.934914 0.924003
0.772442 0.942102 0.931191
0.948157 0.948920 0.938009
