assets/luts/primelive_nuandiao.cube
TITLE "primelive_nuandiao"
LUT_3D_SIZE 33
0.139200 0.139200 0.139200
0.167263 0.139035 0.139035
0.195326 0.138869 0.138869
0.223389 0.138704 0.138704
0.251452 0.138538 0.138538
0.279515 0.138373 0.138373
0.307578 0.138207 0.138207
0.335641 0.138042 0.138042
0.363704 0.137876 0.137876
0.391767 0.137711 0.137711
0.419830 0.137545 0.137545
0.447893 0.137380 0.137380
0.475956 0.137214 0.137214
0.504019 0.137049 0.137049
0.532082 0.136883 0.136883
0.560145 0.136718 0.136718
0.588208 0.136552 0.136552
0.616271 0.136387 0.136387
0.644334 0.136221 0.136221
0.672397 0.136056 0.136056
0.700460 0.135890 0.135890
0.728523 0.135725 0.135725
0.756586 0.135559 0.135559
0.784649 0.135394 0.135394
0.812712 0.135228 0.135228
0.840775 0.135063 0.135063
0.868838 0.134897 0.134897
0.896901 0.134732 0.134732
0.924964 0.134566 0.134566
0.953027 0.134401 0.134401
0.981090 0.134235 0.134235
1.000000 0.134070 0.134070
1.000000 0.133904 0.133904
0.138890 0.165812 0.138890
0.166953 0.165646 0.138725
0.195016 0.165481 0.138559
0.223079 0.165315 0.138394
0.251142 0.165150 0.138228
0.279205 0.164984 0.138063
0.307268 0.164819 0.137897
0.335331 0.164653 0.137732
0.363394 0.164488 0.137566
0.391457 0.164322 0.137401
0.419520 0.164157 0.137235
0.447583 0.163991 0.137070
0.475646 0.163826 0.136904
0.503709 0.163660 0.136739
0.531772 0.163495 0.136573
0.559835 0.163329 0.136408
0.587898 0.163164 0.136242
0.615961 0.162998 0.136077
0.644024 0.162833 0.135911
0.672087 0.162667 0.135746
0.700150 0.162502 0.135580
0.728213 0.162336 0.135415
0.756276 0.162171 0.135249
0.784339 0.162005 0.135084
0.812402 0.161840 0.134918
0.840465 0.161674 0.134753
0.868528 0.161509 0.134587
0.896591 0.161343 0.134422
0.924654 0.161178 0.134256
0.952717 0.161012 0.134091
0.980780 0.160847 0.133925
1.000000 0.160681 0.133760
1.000000 0.160516 0.133594
0.138580 0.192424 0.138580
0.166643 0.192258 0.138415
0.194706 0.192093 0.138249
0.222769 0.191927 0.138084
0.250832 0.191762 0.137918
0.278895 0.191596 0.137753
0.306958 0.191431 0.137587
0.335021 0.191265 0.137422
0.363084 0.191100 0.137256
0.391147 0.190934 0.137091
0.419210 0.190769 0.136925
0.447273 0.190603 0.136760
0.475336 0.190438 0.136594
0.503399 0.190272 0.136429
0.531462 0.190107 0.136263
0.559525 0.189941 0.136098
0.587588 0.189776 0.135932
0.615651 0.189610 0.135767
0.643714 0.189445 0.135601
0.671777 0.189279 0.135436
0.699840 0.189114 0.135270
0.727903 0.188948 0.135105
0.755966 0.188783 0.134939
0.784029 0.188617 0.134774
0.812092 0.188452 0.134608
0.840155 0.188286 0.134443
0.868218 0.188121 0.134277
0.896281 0.187955 0.134112
0.924344 0.187790 0.133946
0.952407 0.187624 0.133781
0.980470 0.187459 0.133615
1.000000 0.187293 0.133450
1.000000 0.187128 0.133284
0.138270 0.219035 0.138270
0.166333 0.218870 0.138105
0.194396 0.218704 0.137939
0.222459 0.218539 0.137774
0.250522 0.218373 0.137608
0.278585 0.218208 0.137443
0.306648 0.218042 0.137277
0.334711 0.217877 0.137112
0.362774 0.217711 0.136946
0.390837 0.217546 0.136781
0.418900 0.217380 0.136615
0.446963 0.217215 0.136450
0.475026 0.217049 0.136284
0.503089 0.216884 0.136119
0.531152 0.216718 0.135953
0.559216 0.216553 0.135788
0.587278 0.216387 0.135622
0.615342 0.216222 0.135457
0.643404 0.216056 0.135291
0.671467 0.215891 0.135126
0.699531 0.215725 0.134960
0.727593 0.215560 0.134795
0.755656 0.215394 0.134629
0.783719 0.215229 0.134464
0.811783 0.215063 0.134298
0.839846 0.214898 0.134133
0.867909 0.214732 0.133968
0.895972 0.214567 0.133802
0.924035 0.214401 0.133637
0.952098 0.214236 0.133471
0.980161 0.214070 0.133306
1.000000 0.213905 0.133140
1.000000 0.213739 0.132975
0.137961 0.245647 0.137961
0.166024 0.245482 0.137795
0.194087 0.245316 0.137630
0.222150 0.245151 0.137464
0.250213 0.244985 0.137299
0.278276 0.244820 0.137133
0.306339 0.244654 0.136968
0.334402 0.244489 0.136802
0.362465 0.244323 0.136637
0.390528 0.244158 0.136471
0.418591 0.243992 0.136306
0.446654 0.243827 0.136140
0.474717 0.243661 0.135975
0.502780 0.243496 0.135809
0.530843 0.243330 0.135644
0.558906 0.243165 0.135478
0.586969 0.242999 0.135313
0.615032 0.242834 0.135147
0.643095 0.242668 0.134982
0.671158 0.242503 0.134816
0.699221 0.242337 0.134651
0.727284 0.242172 0.134485
0.755347 0.242006 0.134320
0.783410 0.241841 0.134154
0.811473 0.241675 0.133989
0.839536 0.241510 0.133823
0.867599 0.241344 0.133658
0.895662 0.241179 0.133492
0.923725 0.241013 0.133327
0.951788 0.240848 0.133161
0.979851 0.240682 0.132996
1.000000 0.240517 0.132830
1.000000 0.240351 0.132665
0.137651 0.272259 0.137651
0.165714 0.272093 0.137485
0.193777 0.271928 0.137320
0.221840 0.271762 0.137154
0.249903 0.271597 0.136989
0.277966 0.271431 0.136823
0.306029 0.271266 0.136658
0.334092 0.271100 0.136492
0.362155 0.270935 0.136327
0.390218 0.270769 0.136161
0.418281 0.270604 0.135996
0.446344 0.270438 0.135830
0.474407 0.270273 0.135665
0.502470 0.270107 0.135499
0.530533 0.269942 0.135334
0.558596 0.269776 0.135168
0.586659 0.269611 0.135003
0.614722 0.269445 0.134837
0.642785 0.269280 0.134672
0.670848 0.269114 0.134506
0.698911 0.268949 0.134341
0.726974 0.268783 0.134175
0.755037 0.268618 0.134010
0.783100 0.268452 0.133844
0.811163 0.268287 0.133679
0.839226 0.268121 0.133513
0.867289 0.267956 0.133348
0.895352 0.267790 0.133182
0.923415 0.267625 0.133017
0.951478 0.267459 0.132851
0.979541 0.267294 0.132686
1.000000 0.267128 0.132520
1.000000 0.266963 0.132355
0.137341 0.298871 0.137341
0.165404 0.298705 0.137175
0.193467 0.298540 0.137010
0.221530 0.298374 0.136844
0.249593 0.298209 0.136679
0.277656 0.298043 0.136513
0.305719 0.297878 0.136348
0.333782 0.297712 0.136182
0.361845 0.297547 0.136017
0.389908 0.297381 0.135851
0.417971 0.297216 0.135686
0.446034 0.297050 0.135520
0.474097 0.296885 0.135355
0.502160 0.296719 0.135189
0.530223 0.296554 0.135024
0.558286 0.296388 0.134858
0.586349 0.296223 0.134693
0.614412 0.296057 0.134527
0.642475 0.295892 0.134362
0.670538 0.295726 0.134196
0.698601 0.295561 0.134031
0.726664 0.295395 0.133865
0.754727 0.295230 0.133700
0.782790 0.295064 0.133534
0.810853 0.294899 0.133369
0.838916 0.294733 0.133203
0.866979 0.294568 0.133038
0.895042 0.294402 0.132872
0.923105 0.294237 0.132707
0.951168 0.294071 0.132541
0.979231 0.293906 0.132376
1.000000 0.293740 0.132210
1.000000 0.293575 0.132045
0.137031 0.325482 0.137031
0.165094 0.325317 0.136865
0.193157 0.325151 0.136700
0.221220 0.324986 0.136534
0.249283 0.324820 0.136369
0.277346 0.324655 0.136203
0.305409 0.324489 0.136038
0.333472 0.324324 0.135872
0.361535 0.324158 0.135707
0.389598 0.323993 0.135541
0.417661 0.323827 0.135376
0.445724 0.323662 0.135211
0.473787 0.323496 0.135045
0.501850 0.323331 0.134880
0.529913 0.323165 0.134714
0.557976 0.323000 0.134549
0.586039 0.322834 0.134383
0.614102 0.322669 0.134218
0.642165 0.322503 0.134052
0.670228 0.322338 0.133887
0.698291 0.322172 0.133721
0.726354 0.322007 0.133556
0.754417 0.321841 0.133390
0.782480 0.321676 0.133225
0.810543 0.321510 0.133059
0.838606 0.321345 0.132894
0.866669 0.321179 0.132728
0.894732 0.321014 0.132563
0.922795 0.320848 0.132397
0.950858 0.320683 0.132232
0.978921 0.320517 0.132066
1.000000 0.320352 0.131901
1.000000 0.320186 0.131735
0.136721 0.352094 0.136721
0.164784 0.351929 0.136556
0.192847 0.351763 0.136390
0.220910 0.351598 0.136225
0.248973 0.351432 0.136059
0.277036 0.351267 0.135894
0.305099 0.351101 0.135728
0.333162 0.350936 0.135563
0.361225 0.350770 0.135397
0.389288 0.350605 0.135232
0.417351 0.350439 0.135066
0.445414 0.350274 0.134901
0.473477 0.350108 0.134735
0.501540 0.349943 0.134570
0.529603 0.349777 0.134404
0.557666 0.349612 0.134239
0.585729 0.349446 0.134073
0.613792 0.349281 0.133908
0.641855 0.349115 0.133742
0.669918 0.348950 0.133577
0.697981 0.348784 0.133411
0.726044 0.348619 0.133246
0.754107 0.348453 0.133080
0.782170 0.348288 0.132915
0.810233 0.348122 0.132749
0.838296 0.347957 0.132584
0.866359 0.347791 0.132418
0.894422 0.347626 0.132253
0.922485 0.347460 0.132087
0.950548 0.347295 0.131922
0.978611 0.347129 0.131756
1.000000 0.346964 0.131591
1.000000 0.346798 0.131425
0.136411 0.378706 0.136411
0.164474 0.378540 0.136246
0.192537 0.378375 0.136080
0.220600 0.378209 0.135915
0.248663 0.378044 0.135749
0.276726 0.377878 0.135584
0.304789 0.377713 0.135418
0.332852 0.377547 0.135253
0.360915 0.377382 0.135087
0.388978 0.377216 0.134922
0.417041 0.377051 0.134756
0.445104 0.376885 0.134591
0.473167 0.376720 0.134425
0.501230 0.376554 0.134260
0.529293 0.376389 0.134094
0.557356 0.376223 0.133929
0.585419 0.376058 0.133763
0.613482 0.375892 0.133598
0.641545 0.375727 0.133432
0.669608 0.375561 0.133267
0.697671 0.375396 0.133101
0.725734 0.375230 0.132936
0.753797 0.375065 0.132770
0.781860 0.374899 0.132605
0.809923 0.374734 0.132439
0.837986 0.374568 0.132274
0.866049 0.374403 0.132108
0.894112 0.374237 0.131943
0.922175 0.374072 0.131777
0.950238 0.373906 0.131612
0.978301 0.373741 0.131446
1.000000 0.373575 0.131281
1.000000 0.373410 0.131115
0.136101 0.405318 0.136101
0.164164 0.405152 0.135936
0.192227 0.404987 0.135770
0.220290 0.404821 0.135605
0.248353 0.404656 0.135439
0.276416 0.404490 0.135274
0.304479 0.404325 0.135108
0.332542 0.404159 0.134943
0.360605 0.403994 0.134777
0.388668 0.403828 0.134612
0.416731 0.403663 0.134446
0.444794 0.403497 0.134281
0.472857 0.403332 0.134115
0.500920 0.403166 0.133950
0.528983 0.403001 0.133784
0.557046 0.402835 0.133619
0.585109 0.402670 0.133453
0.613172 0.402504 0.133288
0.641235 0.402339 0.133122
0.669298 0.402173 0.132957
0.697361 0.402008 0.132791
0.725424 0.401842 0.132626
0.753487 0.401677 0.132460
0.781550 0.401511 0.132295
0.809613 0.401346 0.132129
0.837677 0.401180 0.131964
0.865740 0.401015 0.131798
0.893802 0.400849 0.131633
0.921865 0.400684 0.131467
0.949929 0.400518 0.131302
0.977991 0.400353 0.131136
1.000000 0.400187 0.130971
1.000000 0.400022 0.130805
0.135792 0.431929 0.135792
0.163855 0.431764 0.135626
0.191918 0.431598 0.135461
0.219981 0.431433 0.135295
0.248044 0.431267 0.135130
0.276107 0.431102 0.134964
0.304170 0.430936 0.134799
0.332233 0.430771 0.134633
0.360296 0.430605 0.134468
0.388359 0.430440 0.134302
0.416422 0.430274 0.134137
0.444485 0.430109 0.133971
0.472548 0.429943 0.133806
0.500611 0.429778 0.133640
0.528674 0.429612 0.133475
0.556737 0.429447 0.133309
0.584800 0.429281 0.133144
0.612863 0.429116 0.132978
0.640926 0.428950 0.132813
0.668989 0.428785 0.132647
0.697052 0.428619 0.132482
0.725115 0.428454 0.132316
0.753178 0.428288 0.132151
0.781241 0.428123 0.131985
0.809304 0.427957 0.131820
0.837367 0.427792 0.131654
0.865430 0.427626 0.131489
0.893493 0.427461 0.131323
0.921556 0.427295 0.131158
0.949619 0.427130 0.130992
0.977682 0.426964 0.130827
1.000000 0.426799 0.130661
1.000000 0.426633 0.130496
0.135482 0.458541 0.135482
0.163545 0.458376 0.135316
0.191608 0.458210 0.135151
0.219671 0.458045 0.134985
0.247734 0.457879 0.134820
0.275797 0.457714 0.134654
0.303860 0.457548 0.134489
0.331923 0.457383 0.134323
0.359986 0.457217 0.134158
0.388049 0.457052 0.133992
0.416112 0.456886 0.133827
0.444175 0.456721 0.133661
0.472238 0.456555 0.133496
0.500301 0.456390 0.133330
0.528364 0.456224 0.133165
0.556427 0.456059 0.132999
0.584490 0.455893 0.132834
0.612553 0.455728 0.132668
0.640616 0.455562 0.132503
0.668679 0.455397 0.132337
0.696742 0.455231 0.132172
0.724805 0.455066 0.132006
0.752868 0.454900 0.131841
0.780931 0.454735 0.131675
0.808994 0.454569 0.131510
0.837057 0.454404 0.131344
0.865120 0.454238 0.131179
0.893183 0.454073 0.131013
0.921246 0.453907 0.130848
0.949309 0.453742 0.130682
0.977372 0.453576 0.130517
1.000000 0.453411 0.130351
1.000000 0.453245 0.130186
0.135172 0.485153 0.135172
0.163235 0.484987 0.135006
0.191298 0.484822 0.134841
0.219361 0.484656 0.134675
0.247424 0.484491 0.134510
0.275487 0.484325 0.134344
0.303550 0.484160 0.134179
0.331613 0.483994 0.134013
0.359676 0.483829 0.133848
0.387739 0.483663 0.133682
0.415802 0.483498 0.133517
0.443865 0.483332 0.133351
0.471928 0.483167 0.133186
0.499991 0.483001 0.133020
0.528054 0.482836 0.132855
0.556117 0.482670 0.132689
0.584180 0.482505 0.132524
0.612243 0.482339 0.132358
0.640306 0.482174 0.132193
0.668369 0.482008 0.132027
0.696432 0.481843 0.131862
0.724495 0.481677 0.131696
0.752558 0.481512 0.131531
0.780621 0.481346 0.131365
0.808684 0.481181 0.131200
0.836747 0.481015 0.131034
0.864810 0.480850 0.130869
0.892873 0.480684 0.130703
0.920936 0.480519 0.130538
0.948999 0.480353 0.130372
0.977062 0.480188 0.130207
1.000000 0.480022 0.130041
1.000000 0.479857 0.129876
0.134862 0.511765 0.134862
0.162925 0.511599 0.134696
0.190988 0.511434 0.134531
0.219051 0.511268 0.134365
0.247114 0.511103 0.134200
0.275177 0.510937 0.134034
0.303240 0.510772 0.133869
0.331303 0.510606 0.133703
0.359366 0.510441 0.133538
0.387429 0.510275 0.133372
0.415492 0.510110 0.133207
0.443555 0.509944 0.133041
0.471618 0.509779 0.132876
0.499681 0.509613 0.132710
0.527744 0.509448 0.132545
0.555807 0.509282 0.132379
0.583870 0.509117 0.132214
0.611933 0.508951 0.132048
0.639996 0.508786 0.131883
0.668059 0.508620 0.131717
0.696122 0.508455 0.131552
0.724185 0.508289 0.131386
0.752248 0.508124 0.131221
0.780311 0.507958 0.131056
0.808374 0.507793 0.130890
0.836437 0.507627 0.130725
0.864500 0.507462 0.130559
0.892563 0.507296 0.130394
0.920626 0.507131 0.130228
0.948689 0.506965 0.130063
0.976752 0.506800 0.129897
1.000000 0.506634 0.129732
1.000000 0.506469 0.129566
0.134552 0.538376 0.134552
0.162615 0.538211 0.134387
0.190678 0.538045 0.134221
0.218741 0.537880 0.134056
0.246804 0.537714 0.133890
0.274867 0.537549 0.133725
0.302930 0.537383 0.133559
0.330993 0.537218 0.133394
0.359056 0.537052 0.133228
0.387119 0.536887 0.133063
0.415182 0.536721 0.132897
0.443245 0.536556 0.132732
0.471308 0.536390 0.132566
0.499371 0.536225 0.132401
0.527434 0.536059 0.132235
0.555497 0.535894 0.132070
0.583560 0.535728 0.131904
0.611623 0.535563 0.131739
0.639686 0.535397 0.131573
0.667749 0.535232 0.131408
0.695812 0.535066 0.131242
0.723875 0.534901 0.131077
0.751938 0.534736 0.130911
0.780001 0.534570 0.130746
0.808064 0.534405 0.130580
0.836127 0.534239 0.130415
0.864190 0.534074 0.130249
0.892253 0.533908 0.130084
0.920316 0.533743 0.129918
0.948379 0.533577 0.129753
0.976442 0.533412 0.129587
1.000000 0.533246 0.129422
1.000000 0.533081 0.129256
0.134242 0.564988 0.134242
0.162305 0.564823 0.134077
0.190368 0.564657 0.133911
0.218431 0.564492 0.133746
0.246494 0.564326 0.133580
0.274557 0.564161 0.133415
0.302620 0.563995 0.133249
0.330683 0.563830 0.133084
0.358746 0.563664 0.132918
0.386809 0.563499 0.132753
0.414872 0.563333 0.132587
0.442935 0.563168 0.132422
0.470998 0.563002 0.132256
0.499061 0.562837 0.132091
0.527124 0.562671 0.131925
0.555187 0.562506 0.131760
0.583250 0.562340 0.131594
0.611313 0.562175 0.131429
0.639376 0.562009 0.131263
0.667439 0.561844 0.131098
0.695502 0.561678 0.130932
0.723565 0.561513 0.130767
0.751628 0.561347 0.130601
0.779691 0.561182 0.130436
0.807754 0.561016 0.130270
0.835817 0.560851 0.130105
0.863880 0.560685 0.129939
0.891943 0.560520 0.129774
0.920006 0.560354 0.129608
0.948069 0.560189 0.129443
0.976132 0.560023 0.129277
1.000000 0.559858 0.129112
1.000000 0.559692 0.128946
0.133932 0.591600 0.133932
0.161995 0.591434 0.133767
0.190058 0.591269 0.133601
0.218121 0.591103 0.133436
0.246184 0.590938 0.133270
0.274247 0.590772 0.133105
0.302310 0.590607 0.132939
0.330373 0.590441 0.132774
0.358436 0.590276 0.132608
0.386499 0.590110 0.132443
0.414562 0.589945 0.132277
0.442625 0.589779 0.132112
0.470688 0.589614 0.131946
0.498751 0.589448 0.131781
0.526814 0.589283 0.131615
0.554877 0.589117 0.131450
0.582940 0.588952 0.131284
0.611003 0.588786 0.131119
0.639066 0.588621 0.130953
0.667129 0.588456 0.130788
0.695192 0.588290 0.130622
0.723255 0.588125 0.130457
0.751318 0.587959 0.130291
0.779381 0.587794 0.130126
0.807444 0.587628 0.129960
0.835507 0.587463 0.129795
0.863570 0.587297 0.129629
0.891633 0.587132 0.129464
0.919696 0.586966 0.129298
0.947760 0.586801 0.129133
0.975822 0.586635 0.128967
1.000000 0.586470 0.128802
1.000000 0.586304 0.128636
0.133622 0.618212 0.133622
0.161685 0.618046 0.133457
0.189748 0.617881 0.133291
0.217811 0.617715 0.133126
0.245874 0.617550 0.132960
0.273938 0.617384 0.132795
0.302001 0.617219 0.132629
0.330064 0.617053 0.132464
0.358126 0.616888 0.132299
0.386190 0.616722 0.132133
0.414253 0.616557 0.131968
0.442316 0.616391 0.131802
0.470379 0.616226 0.131637
0.498442 0.616060 0.131471
0.526505 0.615895 0.131306
0.554568 0.615729 0.131140
0.582631 0.615564 0.130975
0.610694 0.615398 0.130809
0.638757 0.615233 0.130644
0.666820 0.615067 0.130478
0.694883 0.614902 0.130313
0.722946 0.614736 0.130147
0.751009 0.614571 0.129982
0.779072 0.614405 0.129816
0.807135 0.614240 0.129651
0.835198 0.614074 0.129485
0.863261 0.613909 0.129320
0.891324 0.613743 0.129154
0.919387 0.613578 0.128989
0.947450 0.613412 0.128823
0.975513 0.613247 0.128658
1.000000 0.613081 0.128492
1.000000 0.612916 0.128327
0.133313 0.644824 0.133313
0.161376 0.644658 0.133147
0.189439 0.644493 0.132982
0.217502 0.644327 0.132816
0.245565 0.644162 0.132651
0.273628 0.643996 0.132485
0.301691 0.643831 0.132320
0.329754 0.643665 0.132154
0.357817 0.643500 0.131989
0.385880 0.643334 0.131823
0.413943 0.643169 0.131658
0.442006 0.643003 0.131492
0.470069 0.642838 0.131327
0.498132 0.642672 0.131161
0.526195 0.642507 0.130996
0.554258 0.642341 0.130830
0.582321 0.642176 0.130665
0.610384 0.642010 0.130499
0.638447 0.641845 0.130334
0.666510 0.641679 0.130168
0.694573 0.641514 0.130003
0.722636 0.641348 0.129837
0.750699 0.641183 0.129672
0.778762 0.641017 0.129506
0.806825 0.640852 0.129341
0.834888 0.640686 0.129175
0.862951 0.640521 0.129010
0.891014 0.640355 0.128844
0.919077 0.640190 0.128679
0.947140 0.640024 0.128513
0.975203 0.639859 0.128348
1.000000 0.639693 0.128182
1.000000 0.639528 0.128017
0.133003 0.671435 0.133003
0.161066 0.671270 0.132837
0.189129 0.671104 0.132672
0.217192 0.670939 0.132506
0.245255 0.670773 0.132341
0.273318 0.670608 0.132175
0.301381 0.670442 0.132010
0.329444 0.670277 0.131844
0.357507 0.670111 0.131679
0.385570 0.669946 0.131513
0.413633 0.669780 0.131348
0.441696 0.669615 0.131182
0.469759 0.669449 0.131017
0.497822 0.669284 0.130851
0.525885 0.669118 0.130686
0.553948 0.668953 0.130520
0.582011 0.668787 0.130355
0.610074 0.668622 0.130189
0.638137 0.668456 0.130024
0.666200 0.668291 0.129858
0.694263 0.668125 0.129693
0.722326 0.667960 0.129527
0.750389 0.667794 0.129362
0.778452 0.667629 0.129196
0.806515 0.667463 0.129031
0.834578 0.667298 0.128865
0.862641 0.667132 0.128700
0.890704 0.666967 0.128534
0.918767 0.666801 0.128369
0.946830 0.666636 0.128203
0.974893 0.666470 0.128038
1.000000 0.666305 0.127872
1.000000 0.666139 0.127707
0.132693 0.698047 0.132693
0.160756 0.697882 0.132527
0.188819 0.697716 0.132362
0.216882 0.697551 0.132196
0.244945 0.697385 0.132031
0.273008 0.697220 0.131865
0.301071 0.697054 0.131700
0.329134 0.696889 0.131534
0.357197 0.696723 0.131369
0.385260 0.696558 0.131203
0.413323 0.696392 0.131038
0.441386 0.696227 0.130872
0.469449 0.696061 0.130707
0.497512 0.695896 0.130541
0.525575 0.695730 0.130376
0.553638 0.695565 0.130210
0.581701 0.695399 0.130045
0.609764 0.695234 0.129879
0.637827 0.695068 0.129714
0.665890 0.694903 0.129548
0.693953 0.694737 0.129383
0.722016 0.694572 0.129217
0.750079 0.694406 0.129052
0.778142 0.694241 0.128886
0.806205 0.694075 0.128721
0.834268 0.693910 0.128555
0.862331 0.693744 0.128390
0.890394 0.693579 0.128224
0.918457 0.693413 0.128059
0.946520 0.693248 0.127893
0.974583 0.693082 0.127728
1.000000 0.692917 0.127562
1.000000 0.692751 0.127397
0.132383 0.724659 0.132383
0.160446 0.724493 0.132218
0.188509 0.724328 0.132052
0.216572 0.724162 0.131887
0.244635 0.723997 0.131721
0.272698 0.723831 0.131556
0.300761 0.723666 0.131390
0.328824 0.723500 0.131225
0.356887 0.723335 0.131059
0.384950 0.723169 0.130894
0.413013 0.723004 0.130728
0.441076 0.722838 0.130563
0.469139 0.722673 0.130397
0.497202 0.722507 0.130232
0.525265 0.722342 0.130066
0.553328 0.722176 0.129901
0.581391 0.722011 0.129735
0.609454 0.721845 0.129570
0.637517 0.721680 0.129404
0.665580 0.721514 0.129239
0.693643 0.721349 0.129073
0.721706 0.721183 0.128908
0.749769 0.721018 0.128742
0.777832 0.720852 0.128577
0.805895 0.720687 0.128411
0.833958 0.720521 0.128246
0.862021 0.720356 0.128080
0.890084 0.720190 0.127915
0.918147 0.720025 0.127749
0.946210 0.719859 0.127584
0.974273 0.719694 0.127418
1.000000 0.719528 0.127253
1.000000 0.719363 0.127087
0.132073 0.751271 0.132073
0.160136 0.751105 0.131908
0.188199 0.750940 0.131742
0.216262 0.750774 0.131577
0.244325 0.750609 0.131411
0.272388 0.750443 0.131246
0.300451 0.750278 0.131080
0.328514 0.750112 0.130915
0.356577 0.749947 0.130749
0.384640 0.749781 0.130584
0.412703 0.749616 0.130418
0.440766 0.749450 0.130253
0.468829 0.749285 0.130087
0.496892 0.749119 0.129922
0.524955 0.748954 0.129756
0.553018 0.748788 0.129591
0.581081 0.748623 0.129425
0.609144 0.748457 0.129260
0.637207 0.748292 0.129094
0.665270 0.748126 0.128929
0.693333 0.747961 0.128763
0.721396 0.747795 0.128598
0.749459 0.747630 0.128432
0.777522 0.747464 0.128267
0.805585 0.747299 0.128101
0.833648 0.747133 0.127936
0.861711 0.746968 0.127770
0.889774 0.746802 0.127605
0.917837 0.746637 0.127439
0.945900 0.746471 0.127274
0.973963 0.746306 0.127108
1.000000 0.746140 0.126943
1.000000 0.745975 0.126777
0.131763 0.777882 0.131763
0.159826 0.777717 0.131598
0.187889 0.777551 0.131432
0.215952 0.777386 0.131267
0.244015 0.777220 0.131101
0.272078 0.777055 0.130936
0.300141 0.776889 0.130770
0.328204 0.776724 0.130605
0.356267 0.776558 0.130439
0.384330 0.776393 0.130274
0.412393 0.776227 0.130108
0.440456 0.776062 0.129943
0.468519 0.775896 0.129777
0.496582 0.775731 0.129612
0.524645 0.775565 0.129446
0.552708 0.775400 0.129281
0.580771 0.775234 0.129115
0.608834 0.775069 0.128950
0.636897 0.774903 0.128784
0.664960 0.774738 0.128619
0.693023 0.774572 0.128453
0.721086 0.774407 0.128288
0.749149 0.774241 0.128122
0.777212 0.774076 0.127957
0.805275 0.773910 0.127791
0.833338 0.773745 0.127626
0.861401 0.773579 0.127460
0.889464 0.773414 0.127295
0.917527 0.773248 0.127129
0.945590 0.773083 0.126964
0.973653 0.772917 0.126798
1.000000 0.772752 0.126633
1.000000 0.772586 0.126467
0.131453 0.804494 0.131453
0.159516 0.804329 0.131288
0.187579 0.804163 0.131122
0.215642 0.803998 0.130957
0.243705 0.803832 0.130791
0.271768 0.803667 0.130626
0.299831 0.803501 0.130460
0.327894 0.803336 0.130295
0.355957 0.803170 0.130129
0.384020 0.803005 0.129964
0.412083 0.802839 0.129798
0.440146 0.802674 0.129633
0.468210 0.802508 0.129467
0.496273 0.802343 0.129302
0.524335 0.802177 0.129136
0.552399 0.802012 0.128971
0.580462 0.801846 0.128805
0.608525 0.801681 0.128640
0.636588 0.801515 0.128474
0.664650 0.801350 0.128309
0.692714 0.801184 0.128144
0.720777 0.801019 0.127978
0.748839 0.800853 0.127813
0.776903 0.800688 0.127647
0.804966 0.800522 0.127482
0.833029 0.800357 0.127316
0.861092 0.800191 0.127151
0.889155 0.800026 0.126985
0.917218 0.799860 0.126820
0.945281 0.799695 0.126654
0.973344 0.799529 0.126489
1.000000 0.799364 0.126323
1.000000 0.799198 0.126158
0.131144 0.831106 0.131144
0.159207 0.830940 0.130978
0.187270 0.830775 0.130813
0.215333 0.830609 0.130647
0.243396 0.830444 0.130482
0.271459 0.830278 0.130316
0.299522 0.830113 0.130151
0.327585 0.829947 0.129985
0.355648 0.829782 0.129820
0.383711 0.829616 0.129654
0.411774 0.829451 0.129489
0.439837 0.829285 0.129323
0.467900 0.829120 0.129158
0.495963 0.828954 0.128992
0.524026 0.828789 0.128827
0.552089 0.828623 0.128661
0.580152 0.828458 0.128496
0.608215 0.828292 0.128330
0.636278 0.828127 0.128165
0.664341 0.827961 0.127999
0.692404 0.827796 0.127834
0.720467 0.827630 0.127668
0.748530 0.827465 0.127503
0.776593 0.827299 0.127337
0.804656 0.827134 0.127172
0.832719 0.826968 0.127006
0.860782 0.826803 0.126841
0.888845 0.826637 0.126675
0.916908 0.826472 0.126510
