assets/luts/primelive_jiudiao.cube
TITLE "primelive_jiudiao"
LUT_3D_SIZE 9
0.209123 0.221668 0.225213
0.294738 0.224412 0.227220
0.380352 0.227156 0.229227
0.465967 0.229900 0.231234
0.551581 0.232643 0.233241
0.637196 0.235387 0.235248
0.722811 0.238131 0.237256
0.808425 0.240875 0.239263
0.894040 0.243619 0.241270
0.215693 0.305823 0.229002
0.301308 0.308566 0.231009
0.386923 0.311310 0.233016
0.472537 0.314054 0.235023
0.558152 0.316798 0.237030
0.643766 0.319542 0.239037
0.729381 0.322286 0.241044
0.814995 0.325029 0.243051
0.900610 0.327773 0.245058
0.222264 0.389977 0.232791
0.307878 0.392721 0.234798
0.393493 0.395465 0.236805
0.479107 0.398209 0.238812
0.564722 0.400952 0.240819
0.650337 0.403696 0.242826
0.735951 0.406440 0.244833
0.821566 0.409184 0.246840
0.907180 0.411928 0.248847
0.228834 0.474132 0.236579
0.314449 0.476875 0.238586
0.400063 0.479619 0.240594
0.485678 0.482363 0.242601
0.571292 0.485107 0.244608
0.656907 0.487851 0.246615
0.742521 0.490595 0.248622
0.828136 0.493338 0.250629
0.913750 0.496082 0.252636
0.235404 0.558286 0.240368
0.321019 0.561030 0.242375
0.406633 0.563774 0.244382
0.492248 0.566518 0.246389
0.577862 0.569261 0.248396
0.663477 0.572005 0.250403
0.749092 0.574749 0.252411
0.834706 0.577493 0.254418
0.920321 0.580237 0.256425
0.241975 0.642441 0.244157
0.327589 0.645184 0.246164
0.413204 0.647928 0.248171
0.498818 0.650672 0.250178
0.584433 0.653416 0.252185
0.670047 0.656160 0.254192
0.755662 0.658904 0.256199
0.841276 0.661647 0.258206
0.926891 0.664391 0.260213
0.248545 0.726595 0.247946
0.334159 0.729339 0.249953
0.419774 0.732083 0.251960
0.505388 0.734827 0.253967
0.591003 0.737570 0.255974
0.676618 0.740314 0.257981
0.762232 0.743058 0.259988
0.847847 0.745802 0.261995
0.933461 0.748546 0.264002
0.255115 0.810750 0.251734
0.340730 0.813494 0.253741
0.426344 0.816237 0.255749
0.511959 0.818981 0.257756
0.597573 0.821725 0.259763
0.683188 0.824469 0.261770
0.768802 0.827213 0.263777
0.854417 0.829956 0.265784
0.940031 0.832700 0.267791
0.261685 0.894904 0.255523
0.347300 0.897648 0.257530
0.432914 0.900392 0.259537
0.518529 0.903136 0.261544
0.604144 0.905879 0.263551
0.689758 0.908623 0.265559
0.775373 0.911367 0.267566
0.860987 0.914111 0.269573
0.946602 0.916855 0.271580
0.210323 0.222614 0.300141
0.295937 0.225358 0.302148
0.381552 0.228101 0.304155
0.467166 0.230845 0.306162
0.552781 0.233589 0.308170
0.638395 0.236333 0.310177
0.724010 0.239077 0.312184
0.809625 0.241820 0.314191
0.895239 0.244564 0.316198
0.216893 0.306768 0.303930
0.302507 0.309512 0.305937
0.388122 0.312256 0.307944
0.473737 0.315000 0.309951
0.559351 0.317743 0.311958
0.644966 0.320487 0.313965
0.730580 0.323231 0.315972
0.816195 0.325975 0.317980
0.901809 0.328719 0.319987
0.223463 0.390923 0.307719
0.309078 0.393667 0.309726
0.394692 0.396410 0.311733
0.480307 0.399154 0.313740
0.565921 0.401898 0.315747
0.651536 0.404642 0.317754
0.737150 0.407386 0.319761
0.822765 0.410129 0.321768
0.908380 0.412873 0.323775
0.230033 0.475077 0.311508
0.315648 0.477821 0.313515
0.401263 0.480565 0.315522
0.486877 0.483309 0.317529
0.572492 0.486052 0.319536
0.658106 0.488796 0.321543
0.743721 0.491540 0.323550
0.829335 0.494284 0.325557
0.914950 0.497028 0.327564
0.236604 0.559232 0.315296
0.322218 0.561976 0.317303
0.407833 0.564719 0.319310
0.493447 0.567463 0.321317
0.579062 0.570207 0.323325
0.664676 0.572951 0.325332
0.750291 0.575695 0.327339
0.835906 0.578438 0.329346
0.921520 0.581182 0.331353
0.243174 0.643386 0.319085
0.328789 0.646130 0.321092
0.414403 0.648874 0.323099
0.500018 0.651618 0.325106
0.585632 0.654362 0.327113
0.671247 0.657105 0.329120
0.756861 0.659849 0.331127
0.842476 0.662593 0.333135
0.928090 0.665337 0.335142
0.249744 0.727541 0.322874
0.335359 0.730285 0.324881
0.420973 0.733028 0.326888
0.506588 0.735772 0.328895
0.592202 0.738516 0.330902
0.677817 0.741260 0.332909
0.763432 0.744004 0.334916
0.849046 0.746747 0.336923
0.934661 0.749491 0.338930
0.256315 0.811695 0.326663
0.341929 0.814439 0.328670
0.427544 0.817183 0.330677
0.513158 0.819927 0.332684
0.598773 0.822671 0.334691
0.684387 0.825414 0.336698
0.770002 0.828158 0.338705
0.855616 0.830902 0.340712
0.941231 0.833646 0.342719
0.262885 0.895850 0.330451
0.348499 0.898594 0.332458
0.434114 0.901337 0.334465
0.519728 0.904081 0.336473
0.605343 0.906825 0.338480
0.690958 0.909569 0.340487
0.776572 0.912313 0.342494
0.862187 0.915056 0.344501
0.947801 0.917800 0.346508
0.211522 0.223559 0.375069
0.297137 0.226303 0.377076
0.382751 0.229047 0.379084
0.468366 0.231791 0.381091
0.553980 0.234535 0.383098
0.639595 0.237278 0.385105
0.725209 0.240022 0.387112
0.810824 0.242766 0.389119
0.896438 0.245510 0.391126
0.218092 0.307714 0.378858
0.303707 0.310458 0.380865
0.389321 0.313201 0.382872
0.474936 0.315945 0.384879
0.560551 0.318689 0.386886
0.646165 0.321433 0.388894
0.731780 0.324177 0.390901
0.817394 0.326920 0.392908
0.903009 0.329664 0.394915
0.224663 0.391868 0.382647
0.310277 0.394612 0.384654
0.395892 0.397356 0.386661
0.481506 0.400100 0.388668
0.567121 0.402844 0.390675
0.652735 0.405587 0.392682
0.738350 0.408331 0.394689
0.823965 0.411075 0.396696
0.909579 0.413819 0.398704
0.231233 0.476023 0.386436
0.316847 0.478767 0.388443
0.402462 0.481510 0.390450
0.488077 0.484254 0.392457
0.573691 0.486998 0.394464
0.659306 0.489742 0.396471
0.744920 0.492486 0.398478
0.830535 0.495230 0.400485
0.916149 0.497973 0.402492
0.237803 0.560177 0.390224
0.323418 0.562921 0.392231
0.409032 0.565665 0.394239
0.494647 0.568409 0.396246
0.580261 0.571153 0.398253
0.665876 0.573896 0.400260
0.751490 0.576640 0.402267
0.837105 0.579384 0.404274
0.922720 0.582128 0.406281
0.244373 0.644332 0.394013
0.329988 0.647076 0.396020
0.415603 0.649819 0.398027
0.501217 0.652563 0.400034
0.586832 0.655307 0.402041
0.672446 0.658051 0.404049
0.758061 0.660795 0.406056
0.843675 0.663539 0.408063
0.929290 0.666282 0.410070
0.250944 0.728486 0.397802
0.336558 0.731230 0.399809
0.422173 0.733974 0.401816
0.507787 0.736718 0.403823
0.593402 0.739462 0.405830
0.679016 0.742205 0.407837
0.764631 0.744949 0.409844
0.850246 0.747693 0.411851
0.935860 0.750437 0.413859
0.257514 0.812641 0.401591
0.343128 0.815385 0.403598
0.428743 0.818128 0.405605
0.514358 0.820872 0.407612
0.599972 0.823616 0.409619
0.685587 0.826360 0.411626
0.771201 0.829104 0.413633
0.856816 0.831848 0.415640
0.942430 0.834591 0.417647
0.264084 0.896795 0.405379
0.349699 0.899539 0.407387
0.435313 0.902283 0.409394
0.520928 0.905027 0.411401
0.606542 0.907771 0.413408
0.692157 0.910514 0.415415
0.777771 0.913258 0.417422
0.863386 0.916002 0.419429
0.949001 0.918746 0.421436
0.212722 0.224505 0.449998
0.298336 0.227249 0.452005
0.383951 0.229992 0.454012
0.469565 0.232736 0.456019
0.555180 0.235480 0.458026
0.640794 0.238224 0.460033
0.726409 0.240968 0.462040
0.812023 0.243712 0.464047
0.897638 0.246455 0.466054
0.219292 0.308659 0.453786
0.304906 0.311403 0.455793
0.390521 0.314147 0.457800
0.476135 0.316891 0.459808
0.561750 0.319635 0.461815
0.647365 0.322378 0.463822
0.732979 0.325122 0.465829
0.818594 0.327866 0.467836
0.904208 0.330610 0.469843
0.225862 0.392814 0.457575
0.311477 0.395558 0.459582
0.397091 0.398301 0.461589
0.482706 0.401045 0.463596
0.568320 0.403789 0.465603
0.653935 0.406533 0.467610
0.739549 0.409277 0.469617
0.825164 0.412021 0.471625
0.910778 0.414764 0.473632
0.232432 0.476968 0.461364
0.318047 0.479712 0.463371
0.403661 0.482456 0.465378
0.489276 0.485200 0.467385
0.574891 0.487944 0.469392
0.660505 0.490687 0.471399
0.746120 0.493431 0.473406
0.831734 0.496175 0.475413
0.917349 0.498919 0.477420
0.239003 0.561123 0.465153
0.324617 0.563867 0.467160
0.410232 0.566610 0.469167
0.495846 0.569354 0.471174
0.581461 0.572098 0.473181
0.667075 0.574842 0.475188
0.752690 0.577586 0.477195
0.838304 0.580330 0.479202
0.923919 0.583073 0.481209
0.245573 0.645277 0.468941
0.331187 0.648021 0.470948
0.416802 0.650765 0.472955
0.502416 0.653509 0.474963
0.588031 0.656253 0.476970
0.673646 0.658996 0.478977
0.759260 0.661740 0.480984
0.844875 0.664484 0.482991
0.930489 0.667228 0.484998
0.252143 0.729432 0.472730
0.337758 0.732176 0.474737
0.423372 0.734919 0.476744
0.508987 0.737663 0.478751
0.594601 0.740407 0.480758
0.680216 0.743151 0.482765
0.765830 0.745895 0.484773
0.851445 0.748639 0.486780
0.937059 0.751382 0.488787
0.258713 0.813586 0.476519
0.344328 0.816330 0.478526
0.429942 0.819074 0.480533
0.515557 0.821818 0.482540
0.601172 0.824562 0.484547
0.686786 0.827305 0.486554
0.772401 0.830049 0.488561
0.858015 0.832793 0.490568
0.943630 0.835537 0.492575
0.265284 0.897741 0.480308
0.350898 0.900485 0.482315
0.436513 0.903228 0.484322
0.522127 0.905972 0.486329
0.607742 0.908716 0.488336
0.693356 0.911460 0.490343
0.778971 0.914204 0.492350
0.864586 0.916948 0.494357
0.950200 0.919691 0.496364
0.213921 0.225450 0.524926
0.299536 0.228194 0.526933
0.385150 0.230938 0.528940
0.470765 0.233682 0.530947
0.556379 0.236426 0.532954
0.641994 0.239169 0.534961
0.727608 0.241913 0.536968
0.813223 0.244657 0.538975
0.898837 0.247401 0.540982
0.220491 0.309605 0.528714
0.306106 0.312349 0.530722
0.391720 0.315092 0.532729
0.477335 0.317836 0.534736
0.562949 0.320580 0.536743
0.648564 0.323324 0.538750
0.734179 0.326068 0.540757
0.819793 0.328812 0.542764
0.905408 0.331555 0.544771
0.227061 0.393759 0.532503
0.312676 0.396503 0.534510
0.398291 0.399247 0.536517
0.483905 0.401991 0.538524
0.569520 0.404735 0.540531
0.655134 0.407478 0.542539
0.740749 0.410222 0.544546
0.826363 0.412966 0.546553
0.911978 0.415710 0.548560
0.233632 0.477914 0.536292
0.319246 0.480658 0.538299
0.404861 0.483402 0.540306
0.490475 0.486145 0.542313
0.576090 0.488889 0.544320
0.661705 0.491633 0.546327
0.747319 0.494377 0.548334
0.832934 0.497121 0.550341
0.918548 0.499864 0.552349
0.240202 0.562068 0.540081
0.325817 0.564812 0.542088
0.411431 0.567556 0.544095
0.497046 0.570300 0.546102
0.582660 0.573044 0.548109
0.668275 0.575787 0.550116
0.753889 0.578531 0.552123
0.839504 0.581275 0.554130
0.925118 0.584019 0.556137
0.246772 0.646223 0.543869
0.332387 0.648967 0.545877
0.418001 0.651711 0.547884
0.503616 0.654454 0.549891
0.589230 0.657198 0.551898
0.674845 0.659942 0.553905
0.760460 0.662686 0.555912
0.846074 0.665430 0.557919
0.931689 0.668173 0.559926
0.253343 0.730377 0.547658
0.338957 0.733121 0.549665
0.424572 0.735865 0.551672
0.510186 0.738609 0.553679
0.595801 0.741353 0.555687
0.681415 0.744096 0.557694
0.767030 0.746840 0.559701
0.852644 0.749584 0.561708
0.938259 0.752328 0.563715
0.259913 0.814532 0.551447
0.345527 0.817276 0.553454
0.431142 0.820020 0.555461
0.516756 0.822763 0.557468
0.602371 0.825507 0.559475
0.687986 0.828251 0.561482
0.773600 0.830995 0.563489
0.859215 0.833739 0.565497
0.944829 0.836482 0.567504
0.266483 0.898686 0.555236
0.352098 0.901430 0.557243
0.437712 0.904174 0.559250
0.523327 0.906918 0.561257
0.608941 0.909662 0.563264
0.694556 0.912405 0.565271
0.780170 0.915149 0.567278
0.865785 0.917893 0.569285
0.951399 0.920637 0.571292
0.215120 0.226396 0.599854
0.300735 0.229140 0.601861
0.386350 0.231884 0.603868
0.471964 0.234627 0.605875
0.557579 0.237371 0.607882
0.643193 0.240115 0.609889
0.728808 0.242859 0.611896
0.814422 0.245603 0.613903
0.900037 0.248346 0.615910
0.221691 0.310550 0.603643
0.307305 0.313294 0.605650
0.392920 0.316038 0.607657
0.478534 0.318782 0.609664
0.564149 0.321526 0.611671
0.649763 0.324269 0.613678
0.735378 0.327013 0.615685
0.820993 0.329757 0.617692
0.906607 0.332501 0.619699
0.228261 0.394705 0.607431
0.313875 0.397449 0.609438
0.399490 0.400193 0.611446
0.485105 0.402936 0.613453
0.570719 0.405680 0.615460
0.656334 0.408424 0.617467
0.741948 0.411168 0.619474
0.827563 0.413912 0.621481
0.913177 0.416655 0.623488
0.234831 0.478859 0.611220
0.320446 0.481603 0.613227
0.406060 0.484347 0.615234
0.491675 0.487091 0.617241
0.577289 0.489835 0.619248
0.662904 0.492579 0.621256
0.748518 0.495322 0.623263
0.834133 0.498066 0.625270
0.919748 0.500810 0.627277
0.241401 0.563014 0.615009
0.327016 0.565758 0.617016
0.412631 0.568502 0.619023
0.498245 0.571245 0.621030
0.583860 0.573989 0.623037
0.669474 0.576733 0.625044
0.755089 0.579477 0.627051
0.840703 0.582221 0.629058
0.926318 0.584964 0.631066
0.247972 0.647168 0.618798
0.333586 0.649912 0.620805
0.419201 0.652656 0.622812
0.504815 0.655400 0.624819
0.590430 0.658144 0.626826
0.676044 0.660888 0.628833
0.761659 0.663631 0.630840
0.847274 0.666375 0.632847
0.932888 0.669119 0.634854
0.254542 0.731323 0.622586
0.340157 0.734067 0.624593
0.425771 0.736811 0.626601
0.511386 0.739554 0.628608
0.597000 0.742298 0.630615
0.682615 0.745042 0.632622
0.768229 0.747786 0.634629
0.853844 0.750530 0.636636
0.939458 0.753273 0.638643
0.261112 0.815477 0.626375
0.346727 0.818221 0.628382
0.432341 0.820965 0.630389
0.517956 0.823709 0.632396
0.603570 0.826453 0.634403
0.689185 0.829197 0.636411
0.774800 0.831940 0.638418
0.860414 0.834684 0.640425
0.946029 0.837428 0.642432
0.267683 0.899632 0.630164
0.353297 0.902376 0.632171
0.438912 0.905120 0.634178
0.524526 0.907863 0.636185
0.610141 0.910607 0.638192
0.695755 0.913351 0.640199
0.781370 0.916095 0.642206
0.866984 0.918839 0.644213
0.952599 0.921582 0.646221
0.216320 0.227341 0.674782
0.301934 0.230085 0.676789
0.387549 0.232829 0.678796
0.473163 0.235573 0.680803
0.558778 0.238317 0.682810
0.644393 0.241061 0.684817
0.730007 0.243804 0.686824
0.815622 0.246548 0.688832
0.901236 0.249292 0.690839
0.222890 0.311496 0.678571
0.308505 0.314240 0.680578
0.394119 0.316984 0.682585
0.479734 0.319727 0.684592
0.565348 0.322471 0.686599
0.650963 0.325215 0.688606
0.736577 0.327959 0.690613
0.822192 0.330703 0.692620
0.907806 0.333446 0.694627
0.229460 0.395650 0.682359
0.315075 0.398394 0.684367
0.400689 0.401138 0.686374
0.486304 0.403882 0.688381
0.571919 0.406626 0.690388
0.657533 0.409370 0.692395
0.743148 0.412113 0.694402
0.828762 0.414857 0.696409
0.914377 0.417601 0.698416
0.236031 0.479805 0.686148
0.321645 0.482549 0.688155
0.407260 0.485293 0.690162
0.492874 0.488036 0.692169
0.578489 0.490780 0.694177
0.664103 0.493524 0.696184
0.749718 0.496268 0.698191
0.835333 0.499012 0.700198
0.920947 0.501756 0.702205
0.242601 0.563959 0.689937
0.328215 0.566703 0.691944
0.413830 0.569447 0.693951
0.499445 0.572191 0.695958
0.585059 0.574935 0.697965
0.670674 0.577679 0.699972
0.756288 0.580422 0.701979
0.841903 0.583166 0.703987
0.927517 0.585910 0.705994
0.249171 0.648114 0.693726
0.334786 0.650858 0.695733
0.420400 0.653602 0.697740
0.506015 0.656345 0.699747
0.591629 0.659089 0.701754
0.677244 0.661833 0.703761
0.762858 0.664577 0.705768
0.848473 0.667321 0.707775
0.934088 0.670065 0.709782
0.255741 0.732268 0.697515
0.341356 0.735012 0.699522
0.426971 0.737756 0.701529
0.512585 0.740500 0.703536
0.598200 0.743244 0.705543
0.683814 0.745988 0.707550
0.769429 0.748731 0.709557
0.855043 0.751475 0.711564
0.940658 0.754219 0.713571
0.262312 0.816423 0.701303
0.347926 0.819167 0.703310
0.433541 0.821911 0.705317
0.519155 0.824654 0.707325
0.604770 0.827398 0.709332
0.690384 0.830142 0.711339
0.775999 0.832886 0.713346
0.861614 0.835630 0.715353
0.947228 0.838374 0.717360
0.268882 0.900577 0.705092
0.354496 0.903321 0.707099
0.440111 0.906065 0.709106
0.525726 0.908809 0.711113
0.611340 0.911553 0.713120
0.696955 0.914297 0.715127
0.782569 0.917040 0.717135
0.868184 0.919784 0.719142
0.953798 0.922528 0.721149
0.217519 0.228287 0.749710
0.303134 0.231031 0.751717
0.388748 0.233775 0.753724
0.474363 0.236518 0.755731
0.559977 0.239262 0.757738
0.645592 0.242006 0.759745
0.731207 0.244750 0.761753
0.816821 0.247494 0.763760
0.902436 0.250238 0.765767
0.224090 0.312441 0.753499
0.309704 0.315185 0.755506
0.395319 0.317929 0.757513
0.480933 0.320673 0.759520
0.566548 0.323417 0.761527
0.652162 0.326161 0.763534
0.737777 0.328904 0.765541
0.823391 0.331648 0.767548
0.909006 0.334392 0.769555
0.230660 0.396596 0.757288
0.316274 0.399340 0.759295
0.401889 0.402084 0.761302
0.487503 0.404827 0.763309
0.573118 0.407571 0.765316
0.658733 0.410315 0.767323
0.744347 0.413059 0.769330
0.829962 0.415803 0.771337
0.915576 0.418547 0.773344
0.237230 0.480751 0.761076
0.322845 0.483494 0.763083
0.408459 0.486238 0.765091
0.494074 0.488982 0.767098
0.579688 0.491726 0.769105
0.665303 0.494470 0.771112
0.750917 0.497213 0.773119
0.836532 0.499957 0.775126
0.922146 0.502701 0.777133
0.243800 0.564905 0.764865
0.329415 0.567649 0.766872
0.415029 0.570393 0.768879
0.500644 0.573136 0.770886
0.586259 0.575880 0.772893
0.671873 0.578624 0.774901
0.757488 0.581368 0.776908
0.843102 0.584112 0.778915
0.928717 0.586856 0.780922
0.250371 0.649060 0.768654
0.335985 0.651803 0.770661
0.421600 0.654547 0.772668
0.507214 0.657291 0.774675
0.592829 0.660035 0.776682
0.678443 0.662779 0.778689
0.764058 0.665522 0.780696
0.849673 0.668266 0.782703
0.935287 0.671010 0.784711
0.256941 0.733214 0.772443
0.342555 0.735958 0.774450
0.428170 0.738702 0.776457
0.513784 0.741445 0.778464
0.599399 0.744189 0.780471
0.685014 0.746933 0.782478
0.770628 0.749677 0.784485
0.856243 0.752421 0.786492
0.941857 0.755165 0.788499
0.263511 0.817369 0.776231
0.349126 0.820112 0.778239
0.434740 0.822856 0.780246
0.520355 0.825600 0.782253
0.605969 0.828344 0.784260
0.691584 0.831088 0.786267
0.777198 0.833831 0.788274
0.862813 0.836575 0.790281
0.948427 0.839319 0.792288
0.270081 0.901523 0.780020
0.355696 0.904267 0.782027
0.441310 0.907011 0.784034
0.526925 0.909755 0.786041
0.612540 0.912498 0.788048
0.698154 0.915242 0.790056
0.783769 0.917986 0.792063
0.869383 0.920730 0.794070
0.954998 0.923474 0.796077
0.218719 0.229233 0.824638
0.304333 0.231976 0.826645
0.389948 0.234720 0.828652
0.475562 0.237464 0.830660
0.561177 0.240208 0.832667
0.646791 0.242952 0.834674
0.732406 0.245695 0.836681
0.818021 0.248439 0.838688
0.903635 0.251183 0.840695
0.225289 0.313387 0.828427
0.310904 0.316131 0.830434
0.396518 0.318875 0.832441
0.482133 0.321618 0.834448
0.567747 0.324362 0.836455
0.653362 0.327106 0.838462
0.738976 0.329850 0.840470
0.824591 0.332594 0.842477
0.910205 0.335338 0.844484
0.231859 0.397542 0.832216
0.317474 0.400285 0.834223
0.403088 0.403029 0.836230
0.488703 0.405773 0.838237
0.574317 0.408517 0.840244
0.659932 0.411261 0.842251
0.745547 0.414004 0.844258
0.831161 0.416748 0.846265
0.916776 0.419492 0.848272
0.238430 0.481696 0.836005
0.324044 0.484440 0.838012
0.409659 0.487184 0.840019
0.495273 0.489928 0.842026
0.580888 0.492671 0.844033
0.666502 0.495415 0.846040
0.752117 0.498159 0.848047
0.837731 0.500903 0.850054
0.923346 0.503647 0.852061
0.245000 0.565851 0.839793
0.330614 0.568594 0.841800
0.416229 0.571338 0.843808
0.501843 0.574082 0.845815
0.587458 0.576826 0.847822
0.673073 0.579570 0.849829
0.758687 0.582313 0.851836
0.844302 0.585057 0.853843
0.929916 0.587801 0.855850
0.251570 0.650005 0.843582
0.337185 0.652749 0.845589
0.422799 0.655493 0.847596
0.508414 0.658237 0.849603
0.594028 0.660980 0.851610
0.679643 0.663724 0.853618
0.765257 0.666468 0.855625
0.850872 0.669212 0.857632
0.936486 0.671956 0.859639
0.258140 0.734160 0.847371
0.343755 0.736903 0.849378
0.429369 0.739647 0.851385
0.514984 0.742391 0.853392
0.600598 0.745135 0.855399
0.686213 0.747879 0.857406
0.771828 0.750622 0.859413
0.857442 0.753366 0.861420
0.943057 0.756110 0.863428
0.264711 0.818314 0.851160
0.350325 0.821058 0.853167
0.435940 0.823802 0.855174
0.521554 0.826546 0.857181
0.607169 0.829289 0.859188
0.692783 0.832033 0.861195
0.778398 0.834777 0.863202
0.864012 0.837521 0.865209
0.949627 0.840265 0.867216
0.271281 0.902469 0.854948
0.356895 0.905212 0.856956
0.442510 0.907956 0.858963
0.528124 0.910700 0.860970
0.613739 0.913444 0.862977
0.699354 0.916188 0.864984
0.784968 0.918932 0.866991
0.870583 0.921675 0.868998
0.956197 0.924419 0.871005
