assets/luts/primelive_meihuo.cube
TITLE "primelive_meihuo"
LUT_3D_SIZE 5
0.000000 0.000000 0.000000
0.283147 0.000000 0.000000
0.603894 0.000000 0.000000
0.924641 0.000000 0.000000
1.000000 0.000000 0.000000
0.000000 0.260902 0.000000
0.256849 0.247105 0.000000
0.577596 0.233308 0.000000
0.898343 0.219511 0.000000
1.000000 0.205714 0.000000
0.000000 0.559405 0.000000
0.230552 0.545608 0.000000
0.551299 0.531811 0.000000
0.872046 0.518014 0.000000
1.000000 0.504217 0.000000
0.000000 0.857907 0.000000
0.204254 0.844110 0.000000
0.525001 0.830313 0.000000
0.845748 0.816516 0.000000
1.000000 0.802719 0.000000
0.000000 1.000000 0.000000
0.177957 1.000000 0.000000
0.498703 1.000000 0.000000
0.819450 1.000000 0.000000
1.000000 1.000000 0.000000
0.000000 0.000000 0.288487
0.277938 0.000000 0.274690
0.598684 0.000000 0.260893
0.919431 0.000000 0.247095
1.000000 0.000000 0.233298
0.000000 0.255693 0.262189
0.251640 0.241896 0.248392
0.572387 0.228099 0.234595
0.893134 0.214302 0.220798
1.000000 0.200505 0.207001
0.000000 0.554195 0.235891
0.225342 0.540398 0.222094
0.546089 0.526601 0.208297
0.866836 0.512804 0.194500
1.000000 0.499007 0.180703
0.000000 0.852698 0.209594
0.199045 0.838901 0.195797
0.519792 0.825104 0.182000
0.840539 0.811307 0.168203
1.000000 0.797510 0.154406
0.000000 1.000000 0.183296
0.172747 1.000000 0.169499
0.493494 1.000000 0.155702
0.814241 1.000000 0.141905
1.000000 1.000000 0.128108
0.000000 0.000000 0.614573
0.272728 0.000000 0.600776
0.593475 0.000000 0.586979
0.914222 0.000000 0.573182
1.000000 0.000000 0.559385
0.000000 0.250484 0.588276
0.246431 0.236687 0.574479
0.567178 0.222890 0.560682
0.887924 0.209093 0.546885
1.000000 0.195296 0.533087
0.000000 0.548986 0.561978
0.220133 0.535189 0.548181
0.540880 0.521392 0.534384
0.861627 0.507595 0.520587
1.000000 0.493798 0.506790
0.000000 0.847489 0.535680
0.193835 0.833691 0.521883
0.514582 0.819894 0.508086
0.835329 0.806097 0.494289
1.000000 0.792300 0.480492
0.000000 1.000000 0.509383
0.167538 1.000000 0.495586
0.488285 1.000000 0.481789
0.809032 1.000000 0.467992
1.000000 1.000000 0.454195
0.000000 0.000000 0.940660
0.267519 0.000000 0.926863
0.588266 0.000000 0.913066
0.909013 0.000000 0.899269
1.000000 0.000000 0.885472
0.000000 0.245274 0.914362
0.241221 0.231477 0.900565
0.561968 0.217680 0.886768
0.882715 0.203883 0.872971
1.000000 0.190086 0.859174
0.000000 0.543777 0.888065
0.214924 0.529980 0.874268
0.535671 0.516183 0.860471
0.856418 0.502386 0.846674
1.000000 0.488589 0.832876
0.000000 0.842279 0.861767
0.188626 0.828482 0.847970
0.509373 0.814685 0.834173
0.830120 0.800888 0.820376
1.000000 0.787091 0.806579
0.000000 1.000000 0.835469
0.162329 1.000000 0.821672
0.483075 1.000000 0.807875
0.803822 1.000000 0.794078
1.000000 1.000000 0.780281
0.000000 0.000000 1.000000
0.262310 0.000000 1.000000
0.583056 0.000000 1.000000
0.903803 0.000000 1.000000
1.000000 0.000000 1.000000
0.000000 0.240065 1.000000
0.236012 0.226268 1.000000
0.556759 0.212471 1.000000
0.877506 0.198674 1.000000
1.000000 0.184877 1.000000
0.000000 0.538567 1.000000
0.209714 0.524770 1.000000
0.530461 0.510973 1.000000
0.851208 0.497176 1.000000
1.000000 0.483379 1.000000
0.000000 0.837070 1.000000
0.183417 0.823273 1.000000
0.504164 0.809476 1.000000
0.824911 0.795679 1.000000
1.000000 0.781882 1.000000
0.000000 1.000000 1.000000
0.157119 1.000000 1.000000
0.477866 1.000000 1.000000
0.798613 1.000000 1.000000
1.000000 1.000000 1.000000
