assets/luts/primelive_tianxin.cube
TITLE "primelive_tianxin"
LUT_3D_SIZE 9
0.131781 0.112267 0.131781
0.255285 0.108825 0.127575
0.378788 0.105382 0.123368
0.502292 0.101939 0.119162
0.625796 0.098496 0.114956
0.749299 0.095054 0.110749
0.872803 0.091611 0.106543
0.996306 0.088168 0.102336
1.000000 0.084726 0.098130
0.123982 0.226499 0.123982
0.247486 0.223056 0.119776
0.370989 0.219614 0.115569
0.494493 0.216171 0.111363
0.617996 0.212728 0.107156
0.741500 0.209285 0.102950
0.865004 0.205843 0.098743
0.988507 0.202400 0.094537
1.000000 0.198957 0.090331
0.116183 0.340731 0.116183
0.239686 0.337288 0.111976
0.363190 0.333845 0.107770
0.486693 0.330403 0.103563
0.610197 0.326960 0.099357
0.733701 0.323517 0.095151
0.857204 0.320074 0.090944
0.980708 0.316632 0.086738
1.000000 0.313189 0.082531
0.108383 0.454962 0.108383
0.231887 0.451520 0.104177
0.355391 0.448077 0.099971
0.478894 0.444634 0.095764
0.602398 0.441192 0.091558
0.725901 0.437749 0.087351
0.849405 0.434306 0.083145
0.972909 0.430863 0.078938
1.000000 0.427421 0.074732
0.100584 0.569194 0.100584
0.224088 0.565751 0.096378
0.347591 0.562309 0.092171
0.471095 0.558866 0.087965
0.594598 0.555423 0.083758
0.718102 0.551981 0.079552
0.841606 0.548538 0.075346
0.965109 0.545095 0.071139
1.000000 0.541652 0.066933
0.092785 0.683426 0.092785
0.216288 0.679983 0.088578
0.339792 0.676540 0.084372
0.463296 0.673098 0.080166
0.586799 0.669655 0.075959
0.710303 0.666212 0.071753
0.833806 0.662770 0.067546
0.957310 0.659327 0.063340
1.000000 0.655884 0.059133
0.084985 0.797658 0.084985
0.208489 0.794215 0.080779
0.331993 0.790772 0.076573
0.455496 0.787329 0.072366
0.579000 0.783887 0.068160
0.702503 0.780444 0.063953
0.826007 0.777001 0.059747
0.949511 0.773559 0.055541
1.000000 0.770116 0.051334
0.077186 0.911889 0.077186
0.200690 0.908447 0.072980
0.324193 0.905004 0.068773
0.447697 0.901561 0.064567
0.571201 0.898118 0.060360
0.694704 0.894676 0.056154
0.818208 0.891233 0.051948
0.941711 0.887790 0.047741
1.000000 0.884348 0.043535
0.069387 1.000000 0.069387
0.192890 1.000000 0.065180
0.316394 1.000000 0.060974
0.439898 1.000000 0.056768
0.563401 1.000000 0.052561
0.686905 1.000000 0.048355
0.810408 1.000000 0.044148
0.933912 1.000000 0.039942
1.000000 0.998579 0.035735
0.130252 0.111016 0.252049
0.253755 0.107573 0.247843
0.377259 0.104130 0.243636
0.500763 0.100687 0.239430
0.624266 0.097245 0.235224
0.747770 0.093802 0.231017
0.871273 0.090359 0.226811
0.994777 0.086916 0.222604
1.000000 0.083474 0.218398
0.122452 0.225247 0.244250
0.245956 0.221804 0.240044
0.369460 0.218362 0.235837
0.492963 0.214919 0.231631
0.616467 0.211476 0.227424
0.739970 0.208034 0.223218
0.863474 0.204591 0.219011
0.986978 0.201148 0.214805
1.000000 0.197705 0.210599
0.114653 0.339479 0.236451
0.238157 0.336036 0.232244
0.361660 0.332593 0.228038
0.485164 0.329151 0.223831
0.608668 0.325708 0.219625
0.732171 0.322265 0.215419
0.855675 0.318823 0.211212
0.979178 0.315380 0.207006
1.000000 0.311937 0.202799
0.106854 0.453711 0.228651
0.230357 0.450268 0.224445
0.353861 0.446825 0.220239
0.477365 0.443382 0.216032
0.600868 0.439940 0.211826
0.724372 0.436497 0.207619
0.847875 0.433054 0.203413
0.971379 0.429612 0.199206
1.000000 0.426169 0.195000
0.099055 0.567942 0.220852
0.222558 0.564500 0.216646
0.346062 0.561057 0.212439
0.469565 0.557614 0.208233
0.593069 0.554171 0.204026
0.716572 0.550729 0.199820
0.840076 0.547286 0.195614
0.963580 0.543843 0.191407
1.000000 0.540401 0.187201
0.091255 0.682174 0.213053
0.214759 0.678731 0.208846
0.338262 0.675289 0.204640
0.461766 0.671846 0.200433
0.585270 0.668403 0.196227
0.708773 0.664960 0.192021
0.832277 0.661518 0.187814
0.955780 0.658075 0.183608
1.000000 0.654632 0.179401
0.083456 0.796406 0.205253
0.206960 0.792963 0.201047
0.330463 0.789520 0.196841
0.453967 0.786078 0.192634
0.577470 0.782635 0.188428
0.700974 0.779192 0.184221
0.824477 0.775749 0.180015
0.947981 0.772307 0.175808
1.000000 0.768864 0.171602
0.075657 0.910637 0.197454
0.199160 0.907195 0.193248
0.322664 0.903752 0.189041
0.446167 0.900309 0.184835
0.569671 0.896867 0.180628
0.693175 0.893424 0.176422
0.816678 0.889981 0.172216
0.940182 0.886538 0.168009
1.000000 0.883096 0.163803
0.067857 1.000000 0.189655
0.191361 1.000000 0.185448
0.314864 1.000000 0.181242
0.438368 1.000000 0.177036
0.561872 1.000000 0.172829
0.685375 1.000000 0.168623
0.808879 1.000000 0.164416
0.932382 1.000000 0.160210
1.000000 0.997327 0.156003
0.128722 0.109764 0.372317
0.252226 0.106321 0.368111
0.375729 0.102878 0.363904
0.499233 0.099436 0.359698
0.622737 0.095993 0.355492
0.746240 0.092550 0.351285
0.869744 0.089107 0.347079
0.993247 0.085665 0.342872
1.000000 0.082222 0.338666
0.120923 0.223995 0.364518
0.244427 0.220553 0.360312
0.367930 0.217110 0.356105
0.491434 0.213667 0.351899
0.614937 0.210224 0.347692
0.738441 0.206782 0.343486
0.861944 0.203339 0.339279
0.985448 0.199896 0.335073
1.000000 0.196454 0.330867
0.113124 0.338227 0.356719
0.236627 0.334784 0.352512
0.360131 0.331342 0.348306
0.483634 0.327899 0.344099
0.607138 0.324456 0.339893
0.730642 0.321014 0.335687
0.854145 0.317571 0.331480
0.977649 0.314128 0.327274
1.000000 0.310685 0.323067
0.105324 0.452459 0.348919
0.228828 0.449016 0.344713
0.352331 0.445573 0.340506
0.475835 0.442131 0.336300
0.599339 0.438688 0.332094
0.722842 0.435245 0.327887
0.846346 0.431802 0.323681
0.969849 0.428360 0.319474
1.000000 0.424917 0.315268
0.097525 0.566690 0.341120
0.221029 0.563248 0.336914
0.344532 0.559805 0.332707
0.468036 0.556362 0.328501
0.591539 0.552920 0.324294
0.715043 0.549477 0.320088
0.838547 0.546034 0.315881
0.962050 0.542591 0.311675
1.000000 0.539149 0.307469
0.089726 0.680922 0.333321
0.213229 0.677479 0.329114
0.336733 0.674037 0.324908
0.460236 0.670594 0.320701
0.583740 0.667151 0.316495
0.707244 0.663709 0.312289
0.830747 0.660266 0.308082
0.954251 0.656823 0.303876
1.000000 0.653380 0.299669
0.081926 0.795154 0.325521
0.205430 0.791711 0.321315
0.328934 0.788269 0.317109
0.452437 0.784826 0.312902
0.575941 0.781383 0.308696
0.699444 0.777940 0.304489
0.822948 0.774498 0.300283
0.946452 0.771055 0.296076
1.000000 0.767612 0.291870
0.074127 0.909386 0.317722
0.197631 0.905943 0.313516
0.321134 0.902500 0.309309
0.444638 0.899058 0.305103
0.568141 0.895615 0.300896
0.691645 0.892172 0.296690
0.815149 0.888729 0.292484
0.938652 0.885287 0.288277
1.000000 0.881844 0.284071
0.066328 1.000000 0.309923
0.189831 1.000000 0.305716
0.313335 1.000000 0.301510
0.436839 1.000000 0.297304
0.560342 1.000000 0.293097
0.683846 1.000000 0.288891
0.807349 1.000000 0.284684
0.930853 0.999518 0.280478
1.000000 0.996076 0.276271
0.127193 0.108512 0.492585
0.250696 0.105069 0.488379
0.374200 0.101626 0.484172
0.497704 0.098184 0.479966
0.621207 0.094741 0.475760
0.744711 0.091298 0.471553
0.868214 0.087856 0.467347
0.991718 0.084413 0.463140
1.000000 0.080970 0.458934
0.119393 0.222744 0.484786
0.242897 0.219301 0.480579
0.366401 0.215858 0.476373
0.489904 0.212415 0.472167
0.613408 0.208973 0.467960
0.736911 0.205530 0.463754
0.860415 0.202087 0.459547
0.983919 0.198645 0.455341
1.000000 0.195202 0.451135
0.111594 0.336975 0.476987
0.235098 0.333533 0.472780
0.358601 0.330090 0.468574
0.482105 0.326647 0.464367
0.605608 0.323204 0.460161
0.729112 0.319762 0.455954
0.852616 0.316319 0.451748
0.976119 0.312876 0.447542
1.000000 0.309434 0.443335
0.103795 0.451207 0.469187
0.227298 0.447764 0.464981
0.350802 0.444322 0.460774
0.474306 0.440879 0.456568
0.597809 0.437436 0.452362
0.721313 0.433993 0.448155
0.844816 0.430551 0.443949
0.968320 0.427108 0.439742
1.000000 0.423665 0.435536
0.095995 0.565439 0.461388
0.219499 0.561996 0.457182
0.343003 0.558553 0.452975
0.466506 0.555110 0.448769
0.590010 0.551668 0.444562
0.713513 0.548225 0.440356
0.837017 0.544782 0.436149
0.960521 0.541340 0.431943
1.000000 0.537897 0.427737
0.088196 0.679670 0.453589
0.211700 0.676228 0.449382
0.335203 0.672785 0.445176
0.458707 0.669342 0.440969
0.582211 0.665900 0.436763
0.705714 0.662457 0.432557
0.829218 0.659014 0.428350
0.952721 0.655571 0.424144
1.000000 0.652129 0.419937
0.080397 0.793902 0.445789
0.203900 0.790459 0.441583
0.327404 0.787017 0.437377
0.450908 0.783574 0.433170
0.574411 0.780131 0.428964
0.697915 0.776689 0.424757
0.821418 0.773246 0.420551
0.944922 0.769803 0.416344
1.000000 0.766360 0.412138
0.072598 0.908134 0.437990
0.196101 0.904691 0.433784
0.319605 0.901248 0.429577
0.443108 0.897806 0.425371
0.566612 0.894363 0.421164
0.690115 0.890920 0.416958
0.813619 0.887478 0.412752
0.937123 0.884035 0.408545
1.000000 0.880592 0.404339
0.064798 1.000000 0.430191
0.188302 1.000000 0.425984
0.311805 1.000000 0.421778
0.435309 1.000000 0.417571
0.558813 1.000000 0.413365
0.682316 1.000000 0.409159
0.805820 1.000000 0.404952
0.929323 0.998266 0.400746
1.000000 0.994824 0.396539
0.125663 0.107260 0.612853
0.249167 0.103817 0.608647
0.372670 0.100375 0.604440
0.496174 0.096932 0.600234
0.619678 0.093489 0.596027
0.743181 0.090046 0.591821
0.866685 0.086604 0.587615
0.990188 0.083161 0.583408
1.000000 0.079718 0.579202
0.117864 0.221492 0.605054
0.241367 0.218049 0.600847
0.364871 0.214606 0.596641
0.488375 0.211164 0.592435
0.611878 0.207721 0.588228
0.735382 0.204278 0.584022
0.858885 0.200835 0.579815
0.982389 0.197393 0.575609
1.000000 0.193950 0.571402
0.110065 0.335723 0.597255
0.233568 0.332281 0.593048
0.357072 0.328838 0.588842
0.480575 0.325395 0.584635
0.604079 0.321953 0.580429
0.727583 0.318510 0.576222
0.851086 0.315067 0.572016
0.974590 0.311624 0.567810
1.000000 0.308182 0.563603
0.102265 0.449955 0.589455
0.225769 0.446512 0.585249
0.349272 0.443070 0.581042
0.472776 0.439627 0.576836
0.596280 0.436184 0.572630
0.719783 0.432742 0.568423
0.843287 0.429299 0.564217
0.966790 0.425856 0.560010
1.000000 0.422413 0.555804
0.094466 0.564187 0.581656
0.217970 0.560744 0.577450
0.341473 0.557301 0.573243
0.464977 0.553859 0.569037
0.588480 0.550416 0.564830
0.711984 0.546973 0.560624
0.835487 0.543531 0.556417
0.958991 0.540088 0.552211
1.000000 0.536645 0.548005
0.086667 0.678419 0.573857
0.210170 0.674976 0.569650
0.333674 0.671533 0.565444
0.457177 0.668090 0.561237
0.580681 0.664648 0.557031
0.704185 0.661205 0.552825
0.827688 0.657762 0.548618
0.951192 0.654320 0.544412
1.000000 0.650877 0.540205
0.078867 0.792650 0.566057
0.202371 0.789208 0.561851
0.325874 0.785765 0.557644
0.449378 0.782322 0.553438
0.572882 0.778879 0.549232
0.696385 0.775437 0.545025
0.819889 0.771994 0.540819
0.943392 0.768551 0.536612
1.000000 0.765109 0.532406
0.071068 0.906882 0.558258
0.194572 0.903439 0.554052
0.318075 0.899997 0.549845
0.441579 0.896554 0.545639
0.565082 0.893111 0.541432
0.688586 0.889668 0.537226
0.812090 0.886226 0.533019
0.935593 0.882783 0.528813
1.000000 0.879340 0.524607
0.063269 1.000000 0.550459
0.186772 1.000000 0.546252
0.310276 1.000000 0.542046
0.433779 1.000000 0.537839
0.557283 1.000000 0.533633
0.680787 1.000000 0.529427
0.804290 1.000000 0.525220
0.927794 0.997015 0.521014
1.000000 0.993572 0.516807
0.124134 0.106008 0.733121
0.247637 0.102565 0.728915
0.371141 0.099123 0.724708
0.494644 0.095680 0.720502
0.618148 0.092237 0.716295
0.741652 0.088795 0.712089
0.865155 0.085352 0.707883
0.988659 0.081909 0.703676
1.000000 0.078466 0.699470
0.116334 0.220240 0.725322
0.239838 0.216797 0.721115
0.363342 0.213354 0.716909
0.486845 0.209912 0.712703
0.610349 0.206469 0.708496
0.733852 0.203026 0.704290
0.857356 0.199584 0.700083
0.980859 0.196141 0.695877
1.000000 0.192698 0.691670
0.108535 0.334472 0.717522
0.232039 0.331029 0.713316
0.355542 0.327586 0.709110
0.479046 0.324143 0.704903
0.602549 0.320701 0.700697
0.726053 0.317258 0.696490
0.849557 0.313815 0.692284
0.973060 0.310373 0.688078
1.000000 0.306930 0.683871
0.100736 0.448703 0.709723
0.224239 0.445261 0.705517
0.347743 0.441818 0.701310
0.471247 0.438375 0.697104
0.594750 0.434932 0.692897
0.718254 0.431490 0.688691
0.841757 0.428047 0.684485
0.965261 0.424604 0.680278
1.000000 0.421162 0.676072
0.092936 0.562935 0.701924
0.216440 0.559492 0.697717
0.339944 0.556050 0.693511
0.463447 0.552607 0.689305
0.586951 0.549164 0.685098
0.710454 0.545721 0.680892
0.833958 0.542279 0.676685
0.957462 0.538836 0.672479
1.000000 0.535393 0.668272
0.085137 0.677167 0.694125
0.208641 0.673724 0.689918
0.332144 0.670281 0.685712
0.455648 0.666839 0.681505
0.579151 0.663396 0.677299
0.702655 0.659953 0.673092
0.826159 0.656510 0.668886
0.949662 0.653068 0.664680
1.000000 0.649625 0.660473
0.077338 0.791398 0.686325
0.200841 0.787956 0.682119
0.324345 0.784513 0.677912
0.447849 0.781070 0.673706
0.571352 0.777628 0.669500
0.694856 0.774185 0.665293
0.818359 0.770742 0.661087
0.941863 0.767299 0.656880
1.000000 0.763857 0.652674
0.069538 0.905630 0.678526
0.193042 0.902187 0.674320
0.316546 0.898745 0.670113
0.440049 0.895302 0.665907
0.563553 0.891859 0.661700
0.687056 0.888417 0.657494
0.810560 0.884974 0.653287
0.934064 0.881531 0.649081
1.000000 0.878088 0.644875
0.061739 1.000000 0.670727
0.185243 1.000000 0.666520
0.308746 1.000000 0.662314
0.432250 1.000000 0.658107
0.555754 1.000000 0.653901
0.679257 1.000000 0.649695
0.802761 0.999205 0.645488
0.926264 0.995763 0.641282
1.000000 0.992320 0.637075
0.122604 0.104756 0.853389
0.246108 0.101314 0.849183
0.369611 0.097871 0.844976
0.493115 0.094428 0.840770
0.616618 0.090985 0.836563
0.740122 0.087543 0.832357
0.863626 0.084100 0.828151
0.987129 0.080657 0.823944
1.000000 0.077215 0.819738
0.114805 0.218988 0.845590
0.238308 0.215545 0.841383
0.361812 0.212103 0.837177
0.485316 0.208660 0.832971
0.608819 0.205217 0.828764
0.732323 0.201774 0.824558
0.855826 0.198332 0.820351
0.979330 0.194889 0.816145
1.000000 0.191446 0.811938
0.107006 0.333220 0.837791
0.230509 0.329777 0.833584
0.354013 0.326334 0.829378
0.477516 0.322892 0.825171
0.601020 0.319449 0.820965
0.724523 0.316006 0.816758
0.848027 0.312563 0.812552
0.971531 0.309121 0.808346
1.000000 0.305678 0.804139
0.099206 0.447451 0.829991
0.222710 0.444009 0.825785
0.346213 0.440566 0.821578
0.469717 0.437123 0.817372
0.593221 0.433681 0.813166
0.716724 0.430238 0.808959
0.840228 0.426795 0.804753
0.963731 0.423352 0.800546
1.000000 0.419910 0.796340
0.091407 0.561683 0.822192
0.214910 0.558240 0.817985
0.338414 0.554798 0.813779
0.461918 0.551355 0.809573
0.585421 0.547912 0.805366
0.708925 0.544470 0.801160
0.832428 0.541027 0.796953
0.955932 0.537584 0.792747
1.000000 0.534141 0.788541
0.083608 0.675915 0.814393
0.207111 0.672472 0.810186
0.330615 0.669029 0.805980
0.454118 0.665587 0.801773
0.577622 0.662144 0.797567
0.701126 0.658701 0.793360
0.824629 0.655259 0.789154
0.948133 0.651816 0.784948
1.000000 0.648373 0.780741
0.075808 0.790147 0.806593
0.199312 0.786704 0.802387
0.322815 0.783261 0.798180
0.446319 0.779818 0.793974
0.569823 0.776376 0.789768
0.693326 0.772933 0.785561
0.816830 0.769490 0.781355
0.940333 0.766048 0.777148
1.000000 0.762605 0.772942
0.068009 0.904378 0.798794
0.191513 0.900936 0.794588
0.315016 0.897493 0.790381
0.438520 0.894050 0.786175
0.562023 0.890607 0.781968
0.685527 0.887165 0.777762
0.809030 0.883722 0.773555
0.932534 0.880279 0.769349
1.000000 0.876837 0.765143
0.060210 1.000000 0.790995
0.183713 1.000000 0.786788
0.307217 1.000000 0.782582
0.430720 1.000000 0.778375
0.554224 1.000000 0.774169
0.677728 1.000000 0.769963
0.801231 0.997954 0.765756
0.924735 0.994511 0.761550
1.000000 0.991068 0.757343
0.121075 0.103504 0.973657
0.244578 0.100062 0.969451
0.368082 0.096619 0.965244
0.491585 0.093176 0.961038
0.615089 0.089734 0.956831
0.738593 0.086291 0.952625
0.862096 0.082848 0.948419
0.985600 0.079405 0.944212
1.000000 0.075963 0.940006
0.113275 0.217736 0.965858
0.236779 0.214293 0.961651
0.360282 0.210851 0.957445
0.483786 0.207408 0.953238
0.607290 0.203965 0.949032
0.730793 0.200523 0.944826
0.854297 0.197080 0.940619
0.977800 0.193637 0.936413
1.000000 0.190194 0.932206
0.105476 0.331968 0.958058
0.228980 0.328525 0.953852
0.352483 0.325082 0.949646
0.475987 0.321640 0.945439
0.599490 0.318197 0.941233
0.722994 0.314754 0.937026
0.846497 0.311312 0.932820
0.970001 0.307869 0.928613
1.000000 0.304426 0.924407
0.097677 0.446200 0.950259
0.221180 0.442757 0.946053
0.344684 0.439314 0.941846
0.468187 0.435871 0.937640
0.591691 0.432429 0.933433
0.715195 0.428986 0.929227
0.838698 0.425543 0.925021
0.962202 0.422101 0.920814
1.000000 0.418658 0.916608
0.089877 0.560431 0.942460
0.213381 0.556989 0.938253
0.336884 0.553546 0.934047
0.460388 0.550103 0.929841
0.583892 0.546660 0.925634
0.707395 0.543218 0.921428
0.830899 0.539775 0.917221
0.954402 0.536332 0.913015
1.000000 0.532890 0.908808
0.082078 0.674663 0.934661
0.205582 0.671220 0.930454
0.329085 0.667778 0.926248
0.452589 0.664335 0.922041
0.576092 0.660892 0.917835
0.699596 0.657449 0.913628
0.823100 0.654007 0.909422
0.946603 0.650564 0.905216
1.000000 0.647121 0.901009
0.074279 0.788895 0.926861
0.197782 0.785452 0.922655
0.321286 0.782009 0.918448
0.444790 0.778567 0.914242
0.568293 0.775124 0.910036
0.691797 0.771681 0.905829
0.815300 0.768238 0.901623
0.938804 0.764796 0.897416
1.000000 0.761353 0.893210
0.066479 0.903126 0.919062
0.189983 0.899684 0.914855
0.313487 0.896241 0.910649
0.436990 0.892798 0.906443
0.560494 0.889356 0.902236
0.683997 0.885913 0.898030
0.807501 0.882470 0.893823
0.931005 0.879027 0.889617
1.000000 0.875585 0.885411
0.058680 1.000000 0.911263
0.182184 1.000000 0.907056
0.305687 1.000000 0.902850
0.429191 1.000000 0.898643
0.552694 1.000000 0.894437
0.676198 1.000000 0.890230
0.799702 0.996702 0.886024
0.923205 0.993259 0.881818
1.000000 0.989816 0.877611
0.119545 0.102253 1.000000
0.243049 0.098810 1.000000
0.366552 0.095367 1.000000
0.490056 0.091924 1.000000
0.613559 0.088482 1.000000
0.737063 0.085039 1.000000
0.860567 0.081596 1.000000
0.984070 0.078154 1.000000
1.000000 0.074711 1.000000
0.111746 0.216484 1.000000
0.235249 0.213042 1.000000
0.358753 0.209599 1.000000
0.482257 0.206156 1.000000
0.605760 0.202713 1.000000
0.729264 0.199271 1.000000
0.852767 0.195828 1.000000
0.976271 0.192385 1.000000
1.000000 0.188943 1.000000
0.103946 0.330716 1.000000
0.227450 0.327273 1.000000
0.350954 0.323831 1.000000
0.474457 0.320388 1.000000
0.597961 0.316945 1.000000
0.721464 0.313502 1.000000
0.844968 0.310060 1.000000
0.968472 0.306617 1.000000
1.000000 0.303174 1.000000
0.096147 0.444948 1.000000
0.219651 0.441505 1.000000
0.343154 0.438062 1.000000
0.466658 0.434620 1.000000
0.590161 0.431177 1.000000
0.713665 0.427734 1.000000
0.837169 0.424291 1.000000
0.960672 0.420849 1.000000
1.000000 0.417406 1.000000
0.088348 0.559179 1.000000
0.211851 0.555737 1.000000
0.335355 0.552294 1.000000
0.458859 0.548851 1.000000
0.582362 0.545409 1.000000
0.705866 0.541966 1.000000
0.829369 0.538523 1.000000
0.952873 0.535080 1.000000
1.000000 0.531638 1.000000
0.080548 0.673411 1.000000
0.204052 0.669968 1.000000
0.327556 0.666526 1.000000
0.451059 0.663083 1.000000
0.574563 0.659640 1.000000
0.698066 0.656198 1.000000
0.821570 0.652755 1.000000
0.945074 0.649312 1.000000
1.000000 0.645869 1.000000
0.072749 0.787643 1.000000
0.196253 0.784200 1.000000
0.319756 0.780757 1.000000
0.443260 0.777315 1.000000
0.566764 0.773872 1.000000
0.690267 0.770429 1.000000
0.813771 0.766987 1.000000
0.937274 0.763544 1.000000
1.000000 0.760101 1.000000
0.064950 0.901875 1.000000
0.188453 0.898432 1.000000
0.311957 0.894989 1.000000
0.435461 0.891546 1.000000
0.558964 0.888104 1.000000
0.682468 0.884661 1.000000
0.805971 0.881218 1.000000
0.929475 0.877776 1.000000
1.000000 0.874333 1.000000
0.057151 1.000000 1.000000
0.180654 1.000000 1.000000
0.304158 1.000000 1.000000
0.427661 1.000000 1.000000
0.551165 1.000000 1.000000
0.674669 0.998893 1.000000
0.798172 0.995450 1.000000
0.921676 0.992007 1.000000
1.000000 0.988564 0.997879
