assets/luts/primelive_amb_film_muted.cube
TITLE "primelive Film Muted"
LUT_3D_SIZE 33
DOMAIN_MIN 0.0 0.0 0.0
DOMAIN_MAX 1.0 1.0 1.0
0.086865 0.097835 0.093835
0.112404 0.098826 0.094826
0.137476 0.099799 0.095799
0.162239 0.100760 0.096760
0.186774 0.101712 0.097712
0.211125 0.102657 0.098657
0.235324 0.103596 0.099596
0.259393 0.104530 0.100530
0.283348 0.105460 0.101460
0.307203 0.106385 0.102385
0.330968 0.107308 0.103308
0.354651 0.108227 0.104227
0.378260 0.109143 0.105143
0.401799 0.110056 0.106056
0.425274 0.110967 0.106967
0.448690 0.111876 0.107876
0.472051 0.112783 0.108783
0.495359 0.113687 0.109687
0.518617 0.114590 0.110590
0.541829 0.115490 0.111490
0.564997 0.116389 0.112389
0.588123 0.117287 0.113287
0.611208 0.118183 0.114183
0.634256 0.119077 0.115077
0.657266 0.119970 0.115970
0.680242 0.120862 0.116862
0.703183 0.121752 0.117752
0.726093 0.122641 0.118641
0.748971 0.123529 0.119529
0.771819 0.124415 0.120415
0.794637 0.125301 0.121301
0.817428 0.126185 0.122185
0.832982 0.126789 0.122789
0.090414 0.125370 0.097136
0.115953 0.126361 0.098127
0.141025 0.127334 0.099100
0.165788 0.128295 0.100061
0.190323 0.129247 0.101013
0.214674 0.130192 0.101958
0.238872 0.131131 0.102897
0.262941 0.132065 0.103831
0.286897 0.132995 0.104761
0.310752 0.133920 0.105687
0.334517 0.134843 0.106609
0.358200 0.135762 0.107528
0.381808 0.136678 0.108444
0.405348 0.137591 0.109358
0.428823 0.138502 0.110269
0.452239 0.139411 0.111177
0.475600 0.140317 0.112084
0.498907 0.141222 0.112988
0.522166 0.142124 0.113891
0.545378 0.143025 0.114792
0.568546 0.143924 0.115691
0.591672 0.144822 0.116588
0.614757 0.145718 0.117484
0.637805 0.146612 0.118378
0.660815 0.147505 0.119271
0.683791 0.148396 0.120163
0.706732 0.149287 0.121053
0.729642 0.150176 0.121942
0.752520 0.151064 0.122830
0.775367 0.151950 0.123717
0.798186 0.152836 0.124602
0.820977 0.153720 0.125487
0.836531 0.154324 0.126090
0.093898 0.152404 0.100378
0.119437 0.153395 0.101369
0.144509 0.154368 0.102342
0.169273 0.155329 0.103303
0.193807 0.156281 0.104255
0.218158 0.157226 0.105200
0.242357 0.158165 0.106139
0.266426 0.159099 0.107073
0.290381 0.160029 0.108002
0.314237 0.160955 0.108928
0.338002 0.161877 0.109850
0.361685 0.162796 0.110769
0.385293 0.163712 0.111685
0.408832 0.164626 0.112599
0.432308 0.165537 0.113510
0.455724 0.166445 0.114419
0.479084 0.167352 0.115325
0.502392 0.168256 0.116230
0.525651 0.169159 0.117132
0.548863 0.170060 0.118033
0.572030 0.170959 0.118932
0.595156 0.171856 0.119829
0.618242 0.172752 0.120725
0.641289 0.173646 0.121620
0.664300 0.174539 0.122513
0.687275 0.175431 0.123404
0.710217 0.176321 0.124294
0.733126 0.177210 0.125183
0.756004 0.178098 0.126071
0.778852 0.178985 0.126958
0.801671 0.179870 0.127843
0.824461 0.180754 0.128728
0.840015 0.181358 0.129331
0.097340 0.179108 0.103579
0.122879 0.180099 0.104570
0.147951 0.181072 0.105543
0.172715 0.182033 0.106504
0.197249 0.182985 0.107456
0.221600 0.183930 0.108401
0.245799 0.184869 0.109340
0.269868 0.185803 0.110274
0.293823 0.186733 0.111204
0.317678 0.187658 0.112130
0.341443 0.188581 0.113052
0.365126 0.189500 0.113971
0.388735 0.190416 0.114887
0.412274 0.191329 0.115801
0.435749 0.192240 0.116712
0.459165 0.193149 0.117620
0.482526 0.194055 0.118527
0.505834 0.194960 0.119431
0.529092 0.195862 0.120334
0.552304 0.196763 0.121235
0.575472 0.197662 0.122134
0.598598 0.198560 0.123031
0.621683 0.199456 0.123927
0.644731 0.200350 0.124821
0.667741 0.201243 0.125714
0.690717 0.202134 0.126606
0.713658 0.203025 0.127496
0.736568 0.203914 0.128385
0.759446 0.204802 0.129273
0.782294 0.205688 0.130160
0.805112 0.206574 0.131045
0.827903 0.207458 0.131929
0.843457 0.208062 0.132533
0.100750 0.205564 0.106751
0.126289 0.206556 0.107742
0.151361 0.207528 0.108715
0.176124 0.208489 0.109676
0.200659 0.209442 0.110628
0.225010 0.210386 0.111573
0.249209 0.211326 0.112512
0.273278 0.212260 0.113446
0.297233 0.213189 0.114376
0.321088 0.214115 0.115302
0.344853 0.215037 0.116224
0.368536 0.215956 0.117143
0.392145 0.216872 0.118059
0.415684 0.217786 0.118973
0.439159 0.218697 0.119884
0.462575 0.219605 0.120792
0.485936 0.220512 0.121699
0.509244 0.221416 0.122603
0.532502 0.222319 0.123506
0.555714 0.223220 0.124407
0.578882 0.224119 0.125306
0.602008 0.225016 0.126203
0.625093 0.225912 0.127099
0.648141 0.226806 0.127993
0.671151 0.227699 0.128886
0.694127 0.228591 0.129778
0.717068 0.229481 0.130668
0.739978 0.230370 0.131557
0.762856 0.231258 0.132445
0.785704 0.232145 0.133332
0.808522 0.233030 0.134217
0.831313 0.233915 0.135101
0.846867 0.234518 0.135705
0.104135 0.231824 0.109900
0.129673 0.232815 0.110891
0.154745 0.233788 0.111864
0.179509 0.234749 0.112825
0.204043 0.235701 0.113777
0.228394 0.236646 0.114722
0.252593 0.237585 0.115661
0.276662 0.238519 0.116595
0.300618 0.239449 0.117524
0.324473 0.240374 0.118450
0.348238 0.241297 0.119372
0.371921 0.242216 0.120291
0.395529 0.243132 0.121208
0.419068 0.244045 0.122121
0.442544 0.244956 0.123032
0.465960 0.245865 0.123941
0.489320 0.246772 0.124847
0.512628 0.247676 0.125752
0.535887 0.248579 0.126654
0.559099 0.249479 0.127555
0.582267 0.250378 0.128454
0.605392 0.251276 0.129351
0.628478 0.252172 0.130247
0.651525 0.253066 0.131142
0.674536 0.253959 0.132035
0.697511 0.254851 0.132926
0.720453 0.255741 0.133817
0.743362 0.256630 0.134706
0.766240 0.257518 0.135593
0.789088 0.258404 0.136480
0.811907 0.259290 0.137365
0.834697 0.260174 0.138250
0.850251 0.260778 0.138853
0.107498 0.257920 0.113028
0.133037 0.258911 0.114020
0.158109 0.259884 0.114992
0.182872 0.260845 0.115953
0.207407 0.261797 0.116906
0.231758 0.262742 0.117850
0.255957 0.263681 0.118790
0.280025 0.264615 0.119724
0.303981 0.265545 0.120653
0.327836 0.266470 0.121579
0.351601 0.267393 0.122501
0.375284 0.268312 0.123420
0.398893 0.269228 0.124336
0.422432 0.270141 0.125250
0.445907 0.271052 0.126161
0.469323 0.271961 0.127069
0.492684 0.272867 0.127976
0.515992 0.273772 0.128880
0.539250 0.274674 0.129783
0.562462 0.275575 0.130684
0.585630 0.276474 0.131583
0.608756 0.277372 0.132480
0.631841 0.278268 0.133376
0.654889 0.279162 0.134270
0.677899 0.280055 0.135163
0.700875 0.280946 0.136055
0.723816 0.281837 0.136945
0.746726 0.282726 0.137834
0.769604 0.283614 0.138722
0.792451 0.284500 0.139609
0.815270 0.285386 0.140494
0.838061 0.286270 0.141379
0.853615 0.286874 0.141982
0.110843 0.283876 0.116140
0.136382 0.284867 0.117132
0.161454 0.285840 0.118104
0.186218 0.286801 0.119065
0.210752 0.287753 0.120018
0.235103 0.288698 0.120962
0.259302 0.289637 0.121902
0.283371 0.290571 0.122836
0.307327 0.291501 0.123765
0.331182 0.292426 0.124691
0.354947 0.293349 0.125613
0.378630 0.294268 0.126532
0.402238 0.295184 0.127448
0.425777 0.296097 0.128362
0.449253 0.297008 0.129273
0.472669 0.297917 0.130181
0.496029 0.298823 0.131088
0.519337 0.299728 0.131992
0.542596 0.300630 0.132895
0.565808 0.301531 0.133796
0.588975 0.302430 0.134695
0.612101 0.303328 0.135592
0.635187 0.304223 0.136488
0.658234 0.305118 0.137382
0.681245 0.306011 0.138275
0.704220 0.306902 0.139167
0.727162 0.307793 0.140057
0.750071 0.308682 0.140946
0.772949 0.309569 0.141834
0.795797 0.310456 0.142721
0.818616 0.311342 0.143606
0.841406 0.312226 0.144491
0.856960 0.312830 0.145094
0.114173 0.309710 0.119238
0.139712 0.310701 0.120229
0.164784 0.311674 0.121202
0.189548 0.312635 0.122163
0.214082 0.313587 0.123115
0.238433 0.314532 0.124060
0.262632 0.315471 0.124999
0.286701 0.316405 0.125933
0.310656 0.317334 0.126863
0.334511 0.318260 0.127788
0.358276 0.319182 0.128710
0.381959 0.320101 0.129630
0.405568 0.321018 0.130546
0.429107 0.321931 0.131459
0.452582 0.322842 0.132370
0.475998 0.323751 0.133279
0.499359 0.324657 0.134185
0.522667 0.325562 0.135090
0.545925 0.326464 0.135992
0.569137 0.327365 0.136893
0.592305 0.328264 0.137792
0.615431 0.329162 0.138690
0.638516 0.330057 0.139585
0.661564 0.330952 0.140480
0.684574 0.331845 0.141373
0.707550 0.332736 0.142264
0.730491 0.333627 0.143155
0.753401 0.334516 0.144044
0.776279 0.335403 0.144931
0.799127 0.336290 0.145818
0.821945 0.337175 0.146704
0.844736 0.338060 0.147588
0.860290 0.338663 0.148192
0.117489 0.335435 0.122322
0.143028 0.336426 0.123313
0.168099 0.337399 0.124286
0.192863 0.338360 0.125247
0.217397 0.339312 0.126199
0.241748 0.340257 0.127144
0.265947 0.341196 0.128083
0.290016 0.342130 0.129017
0.313972 0.343060 0.129947
0.337827 0.343986 0.130873
0.361592 0.344908 0.131795
0.385275 0.345827 0.132714
0.408883 0.346743 0.133630
0.432423 0.347657 0.134544
0.455898 0.348568 0.135455
0.479314 0.349476 0.136363
0.502674 0.350383 0.137270
0.525982 0.351287 0.138174
0.549241 0.352190 0.139077
0.572453 0.353091 0.139978
0.595621 0.353990 0.140877
0.618746 0.354887 0.141774
0.641832 0.355783 0.142670
0.664879 0.356677 0.143564
0.687890 0.357570 0.144457
0.710865 0.358462 0.145349
0.733807 0.359352 0.146239
0.756716 0.360241 0.147128
0.779594 0.361129 0.148016
0.802442 0.362016 0.148902
0.825261 0.362901 0.149788
0.848052 0.363786 0.150672
0.863606 0.364389 0.151276
0.120792 0.361064 0.125395
0.146331 0.362055 0.126386
0.171403 0.363028 0.127359
0.196166 0.363989 0.128320
0.220701 0.364941 0.129272
0.245052 0.365886 0.130217
0.269250 0.366825 0.131156
0.293319 0.367759 0.132090
0.317275 0.368689 0.133020
0.341130 0.369614 0.133945
0.364895 0.370536 0.134868
0.388578 0.371456 0.135787
0.412186 0.372372 0.136703
0.435726 0.373285 0.137616
0.459201 0.374196 0.138527
0.482617 0.375105 0.139436
0.505978 0.376011 0.140342
0.529286 0.376916 0.141247
0.552544 0.377818 0.142150
0.575756 0.378719 0.143050
0.598924 0.379618 0.143949
0.622050 0.380516 0.144847
0.645135 0.381411 0.145743
0.668183 0.382306 0.146637
0.691193 0.383199 0.147530
0.714169 0.384090 0.148421
0.737110 0.384981 0.149312
0.760020 0.385870 0.150201
0.782898 0.386757 0.151089
0.805745 0.387644 0.151975
0.828564 0.388530 0.152861
0.851355 0.389414 0.153745
0.866909 0.390018 0.154349
0.124084 0.386604 0.128457
0.149623 0.387595 0.129448
0.174694 0.388568 0.130421
0.199458 0.389529 0.131382
0.223992 0.390481 0.132334
0.248343 0.391426 0.133279
0.272542 0.392365 0.134218
0.296611 0.393299 0.135152
0.320567 0.394229 0.136082
0.344422 0.395155 0.137008
0.368187 0.396077 0.137930
0.391870 0.396996 0.138849
0.415478 0.397912 0.139765
0.439018 0.398825 0.140678
0.462493 0.399736 0.141589
0.485909 0.400645 0.142498
0.509269 0.401552 0.143405
0.532577 0.402456 0.144309
0.555836 0.403359 0.145212
0.579048 0.404259 0.146112
0.602216 0.405159 0.147011
0.625341 0.406056 0.147909
0.648427 0.406952 0.148805
0.671474 0.407846 0.149699
0.694485 0.408739 0.150592
0.717460 0.409631 0.151484
0.740402 0.410521 0.152374
0.763311 0.411410 0.153263
0.786189 0.412298 0.154151
0.809037 0.413184 0.155037
0.831856 0.414070 0.155923
0.854647 0.414954 0.156807
0.870201 0.415558 0.157411
0.127365 0.412064 0.131510
0.152904 0.413055 0.132501
0.177976 0.414028 0.133474
0.202740 0.414989 0.134435
0.227274 0.415941 0.135387
0.251625 0.416886 0.136332
0.275824 0.417825 0.137271
0.299893 0.418759 0.138205
0.323848 0.419689 0.139134
0.347703 0.420614 0.140060
0.371468 0.421536 0.140982
0.395151 0.422456 0.141901
0.418760 0.423372 0.142817
0.442299 0.424285 0.143731
0.465775 0.425196 0.144642
0.489191 0.426105 0.145551
0.512551 0.427011 0.146457
0.535859 0.427916 0.147362
0.559117 0.428818 0.148264
0.582329 0.429719 0.149165
0.605497 0.430618 0.150064
0.628623 0.431516 0.150961
0.651709 0.432411 0.151857
0.674756 0.433306 0.152752
0.697766 0.434199 0.153645
0.720742 0.435090 0.154536
0.743684 0.435981 0.155426
0.766593 0.436870 0.156315
0.789471 0.437757 0.157203
0.812319 0.438644 0.158090
0.835137 0.439530 0.158975
0.857928 0.440414 0.159860
0.873482 0.441018 0.160463
0.130637 0.437449 0.134553
0.156176 0.438440 0.135544
0.181248 0.439413 0.136517
0.206012 0.440374 0.137478
0.230546 0.441326 0.138430
0.254897 0.442271 0.139375
0.279096 0.443210 0.140314
0.303165 0.444144 0.141248
0.327120 0.445074 0.142178
0.350975 0.446000 0.143104
0.374740 0.446922 0.144026
0.398423 0.447841 0.144945
0.422032 0.448757 0.145861
0.445571 0.449671 0.146775
0.469046 0.450582 0.147686
0.492462 0.451490 0.148594
0.515823 0.452397 0.149501
0.539131 0.453301 0.150405
0.562389 0.454204 0.151308
0.585601 0.455105 0.152209
0.608769 0.456004 0.153108
0.631895 0.456901 0.154005
0.654980 0.457797 0.154901
0.678028 0.458691 0.155795
0.701038 0.459584 0.156688
0.724014 0.460476 0.157580
0.746955 0.461366 0.158470
0.769865 0.462255 0.159359
0.792743 0.463143 0.160247
0.815591 0.464030 0.161133
0.838409 0.464915 0.162019
0.861200 0.465799 0.162903
0.876754 0.466403 0.163507
0.133900 0.462766 0.137589
0.159439 0.463757 0.138580
0.184511 0.464730 0.139553
0.209275 0.465691 0.140514
0.233809 0.466643 0.141466
0.258160 0.467588 0.142411
0.282359 0.468527 0.143350
0.306428 0.469461 0.144284
0.330383 0.470391 0.145213
0.354238 0.471316 0.146139
0.378003 0.472239 0.147061
0.401686 0.473158 0.147980
0.425295 0.474074 0.148896
0.448834 0.474987 0.149810
0.472309 0.475898 0.150721
0.495725 0.476807 0.151630
0.519086 0.477713 0.152536
0.542394 0.478618 0.153441
0.565652 0.479520 0.154343
0.588864 0.480421 0.155244
0.612032 0.481320 0.156143
0.635158 0.482218 0.157040
0.658243 0.483114 0.157936
0.681291 0.484008 0.158831
0.704301 0.484901 0.159724
0.727277 0.485792 0.160615
0.750218 0.486683 0.161505
0.773128 0.487572 0.162394
0.796006 0.488459 0.163282
0.818854 0.489346 0.164169
0.841672 0.490232 0.165054
0.864463 0.491116 0.165939
0.880017 0.491720 0.166542
0.137155 0.488018 0.140616
0.162694 0.489009 0.141607
0.187765 0.489982 0.142580
0.212529 0.490943 0.143541
0.237063 0.491895 0.144493
0.261414 0.492840 0.145438
0.285613 0.493779 0.146377
0.309682 0.494713 0.147311
0.333638 0.495643 0.148241
0.357493 0.496569 0.149167
0.381258 0.497491 0.150089
0.404941 0.498410 0.151008
0.428549 0.499326 0.151924
0.452089 0.500240 0.152838
0.475564 0.501151 0.153749
0.498980 0.502059 0.154657
0.522340 0.502966 0.155564
0.545648 0.503870 0.156468
0.568907 0.504773 0.157371
0.592119 0.505674 0.158272
0.615287 0.506573 0.159171
0.638413 0.507470 0.160068
0.661498 0.508366 0.160964
0.684545 0.509260 0.161858
0.707556 0.510153 0.162751
0.730531 0.511045 0.163643
0.753473 0.511935 0.164533
0.776382 0.512824 0.165422
0.799260 0.513712 0.166310
0.822108 0.514599 0.167196
0.844927 0.515484 0.168082
0.867718 0.516369 0.168966
0.883272 0.516972 0.169570
0.140402 0.513211 0.143637
0.165941 0.514202 0.144628
0.191012 0.515175 0.145601
0.215776 0.516136 0.146562
0.240310 0.517088 0.147514
0.264661 0.518033 0.148459
0.288860 0.518972 0.149398
0.312929 0.519906 0.150332
0.336885 0.520836 0.151261
0.360740 0.521761 0.152187
0.384505 0.522684 0.153109
0.408188 0.523603 0.154028
0.431796 0.524519 0.154945
0.455336 0.525432 0.155858
0.478811 0.526343 0.156769
0.502227 0.527252 0.157678
0.525587 0.528158 0.158584
0.548895 0.529063 0.159489
0.572154 0.529965 0.160391
0.595366 0.530866 0.161292
0.618534 0.531765 0.162191
0.641660 0.532663 0.163088
0.664745 0.533558 0.163984
0.687792 0.534453 0.164879
0.710803 0.535346 0.165772
0.733778 0.536237 0.166663
0.756720 0.537128 0.167553
0.779629 0.538017 0.168443
0.802507 0.538904 0.169330
0.825355 0.539791 0.170217
0.848174 0.540677 0.171102
0.870965 0.541561 0.171987
0.886519 0.542165 0.172590
0.143642 0.538347 0.146650
0.169180 0.539338 0.147641
0.194252 0.540311 0.148614
0.219016 0.541272 0.149575
0.243550 0.542224 0.150527
0.267901 0.543169 0.151472
0.292100 0.544108 0.152411
0.316169 0.545042 0.153345
0.340125 0.545972 0.154275
0.363980 0.546897 0.155201
0.387745 0.547820 0.156123
0.411428 0.548739 0.157042
0.435036 0.549655 0.157958
0.458575 0.550568 0.158872
0.482051 0.551479 0.159783
0.505467 0.552388 0.160691
0.528827 0.553294 0.161598
0.552135 0.554199 0.162502
0.575394 0.555102 0.163405
0.598606 0.556002 0.164306
0.621774 0.556901 0.165205
0.644899 0.557799 0.166102
0.667985 0.558695 0.166998
0.691032 0.559589 0.167892
0.714043 0.560482 0.168785
0.737018 0.561374 0.169677
0.759960 0.562264 0.170567
0.782869 0.563153 0.171456
0.805747 0.564041 0.172344
0.828595 0.564927 0.173231
0.851414 0.565813 0.174116
0.874204 0.566697 0.175001
0.889758 0.567301 0.175604
0.146874 0.563430 0.149658
0.172413 0.564421 0.150649
0.197485 0.565394 0.151622
0.222249 0.566355 0.152583
0.246783 0.567307 0.153535
0.271134 0.568252 0.154480
0.295333 0.569191 0.155419
0.319402 0.570125 0.156353
0.343358 0.571055 0.157282
0.367213 0.571980 0.158208
0.390978 0.572903 0.159130
0.414661 0.573822 0.160049
0.438269 0.574738 0.160966
0.461808 0.575651 0.161879
0.485284 0.576562 0.162790
0.508700 0.577471 0.163699
0.532060 0.578377 0.164605
0.555368 0.579282 0.165510
0.578627 0.580184 0.166412
0.601839 0.581085 0.167313
0.625006 0.581984 0.168212
0.648132 0.582882 0.169109
0.671218 0.583778 0.170005
0.694265 0.584672 0.170900
0.717276 0.585565 0.171793
0.740251 0.586456 0.172684
0.763193 0.587347 0.173575
0.786102 0.588236 0.174464
0.808980 0.589124 0.175351
0.831828 0.590010 0.176238
0.854647 0.590896 0.177123
0.877437 0.591780 0.178008
0.892991 0.592384 0.178611
0.150101 0.588463 0.152659
0.175640 0.589454 0.153650
0.200711 0.590427 0.154623
0.225475 0.591388 0.155584
0.250009 0.592340 0.156536
0.274360 0.593285 0.157481
0.298559 0.594224 0.158420
0.322628 0.595158 0.159354
0.346584 0.596087 0.160284
0.370439 0.597013 0.161209
0.394204 0.597935 0.162132
0.417887 0.598854 0.163051
0.441495 0.599770 0.163967
0.465035 0.600684 0.164880
0.488510 0.601595 0.165791
0.511926 0.602504 0.166700
0.535286 0.603410 0.167607
0.558594 0.604315 0.168511
0.581853 0.605217 0.169414
0.605065 0.606118 0.170314
0.628233 0.607017 0.171213
0.651359 0.607914 0.172111
0.674444 0.608810 0.173007
0.697491 0.609705 0.173901
0.720502 0.610598 0.174794
0.743477 0.611489 0.175686
0.766419 0.612379 0.176576
0.789328 0.613268 0.177465
0.812206 0.614156 0.178353
0.835054 0.615043 0.179239
0.857873 0.615928 0.180125
0.880664 0.616813 0.181009
0.896218 0.617416 0.181613
0.153321 0.613448 0.155655
0.178860 0.614439 0.156646
0.203932 0.615412 0.157619
0.228696 0.616373 0.158580
0.253230 0.617325 0.159532
0.277581 0.618270 0.160477
0.301780 0.619209 0.161416
0.325849 0.620143 0.162350
0.349804 0.621072 0.163279
0.373659 0.621998 0.164205
0.397424 0.622920 0.165127
0.421107 0.623839 0.166046
0.444716 0.624755 0.166962
0.468255 0.625669 0.167876
0.491730 0.626580 0.168787
0.515146 0.627489 0.169696
0.538507 0.628395 0.170602
0.561815 0.629300 0.171507
0.585073 0.630202 0.172409
0.608285 0.631103 0.173310
0.631453 0.632002 0.174209
0.654579 0.632899 0.175106
0.677664 0.633795 0.176002
0.700712 0.634690 0.176897
0.723722 0.635583 0.177790
0.746698 0.636474 0.178681
0.769639 0.637364 0.179571
0.792549 0.638253 0.180460
0.815427 0.639141 0.181348
0.838275 0.640028 0.182235
0.861093 0.640913 0.183120
0.883884 0.641798 0.184005
0.899438 0.642401 0.184608
0.156536 0.638387 0.158645
0.182074 0.639378 0.159636
0.207146 0.640351 0.160609
0.231910 0.641312 0.161570
0.256444 0.642264 0.162522
0.280795 0.643209 0.163467
0.304994 0.644148 0.164406
0.329063 0.645082 0.165340
0.353019 0.646012 0.166269
0.376874 0.646938 0.167195
0.400639 0.647860 0.168117
0.424322 0.648779 0.169036
0.447930 0.649695 0.169953
0.471469 0.650609 0.170866
0.494945 0.651520 0.171777
0.518361 0.652428 0.172686
0.541721 0.653335 0.173592
0.565029 0.654239 0.174497
0.588288 0.655142 0.175399
0.611500 0.656043 0.176300
0.634667 0.656942 0.177199
0.657793 0.657839 0.178097
0.680879 0.658735 0.178992
0.703926 0.659629 0.179887
0.726937 0.660522 0.180780
0.749912 0.661414 0.181671
0.772854 0.662304 0.182562
0.795763 0.663193 0.183451
0.818641 0.664081 0.184338
0.841489 0.664968 0.185225
0.864308 0.665853 0.186111
0.887098 0.666737 0.186995
0.902652 0.667341 0.187599
0.159744 0.663284 0.161630
0.185283 0.664275 0.162621
0.210355 0.665248 0.163594
0.235119 0.666209 0.164555
0.259653 0.667161 0.165507
0.284004 0.668106 0.166452
0.308203 0.669045 0.167391
0.332272 0.669979 0.168325
0.356227 0.670908 0.169254
0.380083 0.671834 0.170180
0.403848 0.672756 0.171102
0.427531 0.673675 0.172021
0.451139 0.674592 0.172938
0.474678 0.675505 0.173851
0.498154 0.676416 0.174762
0.521570 0.677325 0.175671
0.544930 0.678231 0.176577
0.568238 0.679136 0.177482
0.591497 0.680038 0.178384
0.614709 0.680939 0.179285
0.637876 0.681838 0.180184
0.661002 0.682735 0.181082
0.684088 0.683631 0.181977
0.707135 0.684526 0.182872
0.730146 0.685419 0.183765
0.753121 0.686310 0.184656
0.776063 0.687201 0.185547
0.798972 0.688090 0.186436
0.821850 0.688977 0.187323
0.844698 0.689864 0.188210
0.867517 0.690749 0.189095
0.890307 0.691634 0.189980
0.905861 0.692237 0.190583
0.162948 0.688139 0.164610
0.188487 0.689130 0.165601
0.213558 0.690103 0.166574
0.238322 0.691064 0.167535
0.262856 0.692016 0.168487
0.287207 0.692961 0.169432
0.311406 0.693900 0.170371
0.335475 0.694834 0.171305
0.359431 0.695764 0.172234
0.383286 0.696689 0.173160
0.407051 0.697611 0.174082
0.430734 0.698531 0.175001
0.454342 0.699447 0.175918
0.477882 0.700360 0.176831
0.501357 0.701271 0.177742
0.524773 0.702180 0.178651
0.548133 0.703086 0.179557
0.571441 0.703991 0.180462
0.594700 0.704893 0.181364
0.617912 0.705794 0.182265
0.641080 0.706693 0.183164
0.664206 0.707591 0.184062
0.687291 0.708486 0.184957
0.710338 0.709381 0.185852
0.733349 0.710274 0.186745
0.756325 0.711165 0.187636
0.779266 0.712056 0.188527
0.802176 0.712945 0.189416
0.825053 0.713832 0.190303
0.847901 0.714719 0.191190
0.870720 0.715605 0.192076
0.893511 0.716489 0.192960
0.909065 0.717093 0.193564
0.166146 0.712954 0.167585
0.191685 0.713946 0.168576
0.216757 0.714918 0.169549
0.241521 0.715879 0.170510
0.266055 0.716832 0.171462
0.290406 0.717776 0.172407
0.314605 0.718716 0.173346
0.338674 0.719650 0.174280
0.362629 0.720579 0.175210
0.386485 0.721505 0.176135
0.410249 0.722427 0.177058
0.433933 0.723346 0.177977
0.457541 0.724262 0.178893
0.481080 0.725176 0.179806
0.504556 0.726087 0.180717
0.527972 0.726995 0.181626
0.551332 0.727902 0.182533
0.574640 0.728806 0.183437
0.597898 0.729709 0.184340
0.621111 0.730610 0.185240
0.644278 0.731509 0.186139
0.667404 0.732406 0.187037
0.690490 0.733302 0.187933
0.713537 0.734196 0.188827
0.736547 0.735089 0.189720
0.759523 0.735981 0.190612
0.782465 0.736871 0.191502
0.805374 0.737760 0.192391
0.828252 0.738648 0.193279
0.851100 0.739535 0.194165
0.873918 0.740420 0.195051
0.896709 0.741305 0.195935
0.912263 0.741908 0.196539
0.169340 0.737732 0.170556
0.194879 0.738723 0.171547
0.219950 0.739696 0.172520
0.244714 0.740657 0.173481
0.269248 0.741609 0.174433
0.293599 0.742554 0.175378
0.317798 0.743493 0.176317
0.341867 0.744427 0.177251
0.365823 0.745357 0.178180
0.389678 0.746283 0.179106
0.413443 0.747205 0.180028
0.437126 0.748124 0.180947
0.460734 0.749040 0.181864
0.484274 0.749953 0.182777
0.507749 0.750864 0.183688
0.531165 0.751773 0.184597
0.554525 0.752680 0.185503
0.577833 0.753584 0.186408
0.601092 0.754487 0.187310
0.624304 0.755388 0.188211
0.647472 0.756287 0.189110
0.670598 0.757184 0.190008
0.693683 0.758080 0.190903
0.716730 0.758974 0.191798
0.739741 0.759867 0.192691
0.762716 0.760759 0.193582
0.785658 0.761649 0.194473
0.808567 0.762538 0.195362
0.831445 0.763426 0.196249
0.854293 0.764312 0.197136
0.877112 0.765198 0.198022
0.899903 0.766082 0.198906
0.915457 0.766686 0.199510
0.172529 0.762474 0.173522
0.198067 0.763465 0.174513
0.223139 0.764438 0.175486
0.247903 0.765399 0.176447
0.272437 0.766351 0.177399
0.296788 0.767296 0.178344
0.320987 0.768235 0.179283
0.345056 0.769169 0.180217
0.369012 0.770098 0.181147
0.392867 0.771024 0.182073
0.416632 0.771946 0.182995
0.440315 0.772865 0.183914
0.463923 0.773781 0.184830
0.487463 0.774695 0.185743
0.510938 0.775606 0.186654
0.534354 0.776515 0.187563
0.557714 0.777421 0.188470
0.581022 0.778326 0.189374
0.604281 0.779228 0.190277
0.627493 0.780129 0.191177
0.650661 0.781028 0.192076
0.673786 0.781925 0.192974
0.696872 0.782821 0.193870
0.719919 0.783716 0.194764
0.742930 0.784608 0.195657
0.765905 0.785500 0.196549
0.788847 0.786390 0.197439
