assets/luts/primelive_amb_rainy_bluegrey.cube
TITLE "primelive Rainy Blue-Grey"
LUT_3D_SIZE 9
DOMAIN_MIN 0.0 0.0 0.0
DOMAIN_MAX 1.0 1.0 1.0
0.027652 0.042279 0.061906
0.139048 0.044844 0.064214
0.247362 0.047338 0.066459
0.354206 0.049798 0.068673
0.460070 0.052235 0.070867
0.565197 0.054655 0.073045
0.669735 0.057062 0.075211
0.773781 0.059458 0.077367
0.877407 0.061844 0.079514
0.037431 0.163039 0.069907
0.148827 0.165604 0.072215
0.257141 0.168098 0.074460
0.363985 0.170558 0.076674
0.469849 0.172995 0.078868
0.574976 0.175416 0.081046
0.679514 0.177822 0.083212
0.783560 0.180218 0.085368
0.887186 0.182604 0.087515
0.046937 0.280433 0.077685
0.158333 0.282998 0.079993
0.266647 0.285491 0.082238
0.373491 0.287951 0.084452
0.479355 0.290389 0.086645
0.584482 0.292809 0.088824
0.689020 0.295216 0.090990
0.793066 0.297612 0.093146
0.896692 0.299997 0.095293
0.056314 0.396229 0.085357
0.167710 0.398793 0.087665
0.276024 0.401287 0.089910
0.382868 0.403747 0.092124
0.488732 0.406185 0.094317
0.593859 0.408605 0.096496
0.698397 0.411012 0.098662
0.802443 0.413407 0.100818
0.906069 0.415793 0.102965
0.065605 0.510959 0.092959
0.177001 0.513524 0.095267
0.285315 0.516018 0.097511
0.392159 0.518478 0.099725
0.498023 0.520915 0.101919
0.603150 0.523336 0.104097
0.707688 0.525743 0.106264
0.811734 0.528138 0.108420
0.915360 0.530524 0.110567
0.074831 0.624891 0.100507
0.186227 0.627456 0.102815
0.294541 0.629950 0.105060
0.401385 0.632409 0.107274
0.507249 0.634847 0.109467
0.612376 0.637267 0.111646
0.716913 0.639674 0.113812
0.820960 0.642070 0.115968
0.924586 0.644456 0.118115
0.084005 0.738183 0.108013
0.195401 0.740747 0.110322
0.303715 0.743241 0.112566
0.410559 0.745701 0.114780
0.516423 0.748139 0.116974
0.621550 0.750559 0.119152
0.726088 0.752966 0.121318
0.830134 0.755362 0.123474
0.933760 0.757747 0.125622
0.093136 0.850942 0.115484
0.204532 0.853506 0.117792
0.312846 0.856000 0.120037
0.419690 0.858460 0.122251
0.525554 0.860898 0.124444
0.630681 0.863318 0.126623
0.735219 0.865725 0.128789
0.839265 0.868121 0.130945
0.942891 0.870506 0.133092
0.102230 0.963244 0.122925
0.213626 0.965809 0.125233
0.321940 0.968303 0.127477
0.428784 0.970763 0.129691
0.534648 0.973200 0.131885
0.639775 0.975621 0.134063
0.744313 0.978028 0.136230
0.848359 0.980423 0.138386
0.951985 0.982809 0.140533
0.028678 0.043212 0.179006
0.140074 0.045776 0.181314
0.248388 0.048270 0.183559
0.355232 0.050730 0.185773
0.461096 0.053168 0.187966
0.566223 0.055588 0.190145
0.670761 0.057995 0.192311
0.774807 0.060390 0.194467
0.878433 0.062776 0.196614
0.038457 0.163972 0.187007
0.149853 0.166537 0.189315
0.258167 0.169030 0.191560
0.365011 0.171490 0.193774
0.470875 0.173928 0.195967
0.576002 0.176348 0.198146
0.680539 0.178755 0.200312
0.784586 0.181151 0.202468
0.888212 0.183537 0.204615
0.047963 0.281365 0.194785
0.159359 0.283930 0.197093
0.267673 0.286424 0.199338
0.374517 0.288884 0.201552
0.480381 0.291321 0.203745
0.585508 0.293742 0.205924
0.690046 0.296149 0.208090
0.794092 0.298544 0.210246
0.897718 0.300930 0.212393
0.057340 0.397161 0.202457
0.168736 0.399726 0.204765
0.277050 0.402220 0.207010
0.383894 0.404680 0.209224
0.489758 0.407117 0.211417
0.594885 0.409538 0.213596
0.699423 0.411945 0.215762
0.803469 0.414340 0.217918
0.907095 0.416726 0.220065
0.066631 0.511892 0.210058
0.178027 0.514457 0.212367
0.286341 0.516951 0.214611
0.393185 0.519411 0.216825
0.499049 0.521848 0.219019
0.604176 0.524269 0.221197
0.708713 0.526675 0.223363
0.812760 0.529071 0.225519
0.916386 0.531457 0.227667
0.075857 0.625824 0.217607
0.187253 0.628388 0.219915
0.295567 0.630882 0.222160
0.402411 0.633342 0.224374
0.508275 0.635780 0.226567
0.613402 0.638200 0.228746
0.717939 0.640607 0.230912
0.821986 0.643002 0.233068
0.925612 0.645388 0.235215
0.085031 0.739115 0.225113
0.196427 0.741680 0.227421
0.304741 0.744174 0.229666
0.411585 0.746634 0.231880
0.517449 0.749071 0.234073
0.622576 0.751492 0.236252
0.727114 0.753899 0.238418
0.831160 0.756294 0.240574
0.934786 0.758680 0.242721
0.094162 0.851874 0.232584
0.205558 0.854439 0.234892
0.313872 0.856933 0.237137
0.420716 0.859393 0.239351
0.526580 0.861830 0.241544
0.631707 0.864251 0.243723
0.736245 0.866658 0.245889
0.840291 0.869053 0.248045
0.943917 0.871439 0.250192
0.103256 0.964177 0.240024
0.214652 0.966742 0.242333
0.322966 0.969236 0.244577
0.429810 0.971696 0.246791
0.535674 0.974133 0.248985
0.640801 0.976553 0.251163
0.745339 0.978960 0.253329
0.849385 0.981356 0.255485
0.953011 0.983742 0.257633
0.029675 0.044118 0.292810
0.141071 0.046683 0.295118
0.249385 0.049177 0.297363
0.356229 0.051637 0.299577
0.462093 0.054074 0.301770
0.567220 0.056494 0.303949
0.671758 0.058901 0.306115
0.775804 0.061297 0.308271
0.879430 0.063683 0.310418
0.039454 0.164878 0.300811
0.150850 0.167443 0.303119
0.259164 0.169937 0.305364
0.366008 0.172397 0.307578
0.471872 0.174834 0.309771
0.576999 0.177255 0.311950
0.681537 0.179661 0.314116
0.785583 0.182057 0.316272
0.889209 0.184443 0.318419
0.048960 0.282272 0.308589
0.160356 0.284837 0.310897
0.268670 0.287330 0.313142
0.375514 0.289790 0.315356
0.481378 0.292228 0.317549
0.586505 0.294648 0.319728
0.691043 0.297055 0.321894
0.795089 0.299451 0.324050
0.898715 0.301837 0.326197
0.058337 0.398068 0.316261
0.169733 0.400633 0.318569
0.278047 0.403126 0.320814
0.384891 0.405586 0.323028
0.490755 0.408024 0.325221
0.595882 0.410444 0.327400
0.700420 0.412851 0.329566
0.804466 0.415247 0.331722
0.908092 0.417632 0.333869
0.067628 0.512799 0.323862
0.179024 0.515363 0.326171
0.287338 0.517857 0.328415
0.394182 0.520317 0.330629
0.500046 0.522755 0.332823
0.605173 0.525175 0.335001
0.709711 0.527582 0.337167
0.813757 0.529977 0.339323
0.917383 0.532363 0.341471
0.076854 0.626730 0.331411
0.188250 0.629295 0.333719
0.296564 0.631789 0.335964
0.403408 0.634249 0.338178
0.509272 0.636686 0.340371
0.614399 0.639106 0.342550
0.718936 0.641513 0.344716
0.822983 0.643909 0.346872
0.926609 0.646295 0.349019
0.086028 0.740022 0.338917
0.197424 0.742587 0.341225
0.305738 0.745080 0.343470
0.412582 0.747540 0.345684
0.518446 0.749978 0.347877
0.623573 0.752398 0.350056
0.728111 0.754805 0.352222
0.832157 0.757201 0.354378
0.935783 0.759587 0.356525
0.095159 0.852781 0.346388
0.206555 0.855346 0.348696
0.314869 0.857839 0.350941
0.421713 0.860299 0.353155
0.527577 0.862737 0.355348
0.632704 0.865157 0.357527
0.737242 0.867564 0.359693
0.841288 0.869960 0.361849
0.944914 0.872346 0.363996
0.104253 0.965083 0.353829
0.215649 0.967648 0.356137
0.323963 0.970142 0.358381
0.430807 0.972602 0.360595
0.536671 0.975039 0.362789
0.641798 0.977460 0.364967
0.746336 0.979867 0.367133
0.850382 0.982262 0.369289
0.954008 0.984648 0.371437
0.030658 0.045012 0.405059
0.142054 0.047577 0.407367
0.250368 0.050071 0.409612
0.357213 0.052531 0.411826
0.463076 0.054968 0.414020
0.568203 0.057389 0.416198
0.672741 0.059795 0.418364
0.776788 0.062191 0.420520
0.880413 0.064577 0.422667
0.040437 0.165772 0.413060
0.151833 0.168337 0.415368
0.260147 0.170831 0.417613
0.366991 0.173291 0.419827
0.472855 0.175728 0.422020
0.577982 0.178149 0.424199
0.682520 0.180556 0.426365
0.786567 0.182951 0.428521
0.890192 0.185337 0.430668
0.049943 0.283166 0.420838
0.161339 0.285731 0.423146
0.269653 0.288224 0.425391
0.376498 0.290684 0.427605
0.482361 0.293122 0.429798
0.587489 0.295542 0.431977
0.692026 0.297949 0.434143
0.796073 0.300345 0.436299
0.899699 0.302731 0.438446
0.059320 0.398962 0.428510
0.170716 0.401527 0.430818
0.279030 0.404020 0.433063
0.385875 0.406480 0.435277
0.491738 0.408918 0.437470
0.596866 0.411338 0.439649
0.701403 0.413745 0.441815
0.805450 0.416141 0.443971
0.909076 0.418526 0.446118
0.068611 0.513693 0.436112
0.180007 0.516257 0.438420
0.288321 0.518751 0.440664
0.395165 0.521211 0.442878
0.501029 0.523649 0.445072
0.606156 0.526069 0.447250
0.710694 0.528476 0.449417
0.814741 0.530871 0.451573
0.918366 0.533257 0.453720
0.077837 0.627624 0.443660
0.189233 0.630189 0.445968
0.297547 0.632683 0.448213
0.404391 0.635143 0.450427
0.510255 0.637580 0.452620
0.615382 0.640000 0.454799
0.719920 0.642407 0.456965
0.823966 0.644803 0.459121
0.927592 0.647189 0.461268
0.087011 0.740916 0.451166
0.198407 0.743481 0.453475
0.306721 0.745974 0.455719
0.413566 0.748434 0.457933
0.519429 0.750872 0.460127
0.624556 0.753292 0.462305
0.729094 0.755699 0.464471
0.833141 0.758095 0.466627
0.936767 0.760481 0.468774
0.096142 0.853675 0.458637
0.207538 0.856240 0.460945
0.315852 0.858733 0.463190
0.422697 0.861193 0.465404
0.528560 0.863631 0.467597
0.633687 0.866051 0.469776
0.738225 0.868458 0.471942
0.842272 0.870854 0.474098
0.945898 0.873240 0.476245
0.105236 0.965977 0.466078
0.216632 0.968542 0.468386
0.324946 0.971036 0.470630
0.431791 0.973496 0.472844
0.537654 0.975933 0.475038
0.642782 0.978354 0.477216
0.747319 0.980761 0.479383
0.851366 0.983156 0.481539
0.954992 0.985542 0.483686
0.031633 0.045898 0.516273
0.143029 0.048463 0.518582
0.251343 0.050956 0.520826
0.358187 0.053416 0.523040
0.464051 0.055854 0.525234
0.569178 0.058274 0.527412
0.673715 0.060681 0.529578
0.777762 0.063077 0.531734
0.881388 0.065463 0.533881
0.041412 0.166658 0.524274
0.152808 0.169223 0.526582
0.261122 0.171717 0.528827
0.367966 0.174177 0.531041
0.473830 0.176614 0.533235
0.578957 0.179034 0.535413
0.683494 0.181441 0.537579
0.787541 0.183837 0.539735
0.891167 0.186223 0.541882
0.050918 0.284052 0.532052
0.162314 0.286616 0.534360
0.270628 0.289110 0.536605
0.377472 0.291570 0.538819
0.483336 0.294008 0.541012
0.588463 0.296428 0.543191
0.693001 0.298835 0.545357
0.797047 0.301231 0.547513
0.900673 0.303616 0.549660
0.060295 0.399848 0.539724
0.171691 0.402412 0.542032
0.280005 0.404906 0.544277
0.386849 0.407366 0.546491
0.492713 0.409804 0.548685
0.597840 0.412224 0.550863
0.702378 0.414631 0.553029
0.806424 0.417026 0.555185
0.910050 0.419412 0.557332
0.069585 0.514578 0.547326
0.180982 0.517143 0.549634
0.289295 0.519637 0.551878
0.396140 0.522097 0.554092
0.502004 0.524534 0.556286
0.607131 0.526955 0.558464
0.711668 0.529362 0.560631
0.815715 0.531757 0.562787
0.919341 0.534143 0.564934
0.078811 0.628510 0.554874
0.190207 0.631075 0.557182
0.298521 0.633568 0.559427
0.405366 0.636028 0.561641
0.511229 0.638466 0.563835
0.616357 0.640886 0.566013
0.720894 0.643293 0.568179
0.824941 0.645689 0.570335
0.928567 0.648075 0.572482
0.087986 0.741802 0.562380
0.199382 0.744366 0.564689
0.307696 0.746860 0.566933
0.414540 0.749320 0.569147
0.520404 0.751758 0.571341
0.625531 0.754178 0.573519
0.730068 0.756585 0.575685
0.834115 0.758980 0.577841
0.937741 0.761366 0.579989
0.097117 0.854561 0.569851
0.208513 0.857125 0.572159
0.316827 0.859619 0.574404
0.423671 0.862079 0.576618
0.529535 0.864517 0.578812
0.634662 0.866937 0.580990
0.739199 0.869344 0.583156
0.843246 0.871739 0.585312
0.946872 0.874125 0.587459
0.106211 0.966863 0.577292
0.217607 0.969428 0.579600
0.325921 0.971922 0.581844
0.432765 0.974382 0.584058
0.538629 0.976819 0.586252
0.643756 0.979240 0.588431
0.748294 0.981647 0.590597
0.852340 0.984042 0.592753
0.955966 0.986428 0.594900
0.032600 0.046777 0.626711
0.143996 0.049342 0.629019
0.252310 0.051836 0.631264
0.359154 0.054296 0.633478
0.465018 0.056733 0.635671
0.570145 0.059154 0.637850
0.674683 0.061561 0.640016
0.778730 0.063956 0.642172
0.882355 0.066342 0.644319
0.042379 0.167538 0.634712
0.153775 0.170102 0.637020
0.262089 0.172596 0.639265
0.368933 0.175056 0.641479
0.474797 0.177494 0.643672
0.579924 0.179914 0.645851
0.684462 0.182321 0.648017
0.788508 0.184716 0.650173
0.892134 0.187102 0.652320
0.051885 0.284931 0.642490
0.163281 0.287496 0.644798
0.271595 0.289990 0.647043
0.378440 0.292450 0.649256
0.484303 0.294887 0.651450
0.589431 0.297308 0.653629
0.693968 0.299715 0.655795
0.798015 0.302110 0.657951
0.901641 0.304496 0.660098
0.061262 0.400727 0.650162
0.172658 0.403292 0.652470
0.280972 0.405786 0.654715
0.387817 0.408246 0.656929
0.493680 0.410683 0.659122
0.598808 0.413104 0.661301
0.703345 0.415510 0.663467
0.807392 0.417906 0.665623
0.911018 0.420292 0.667770
0.070553 0.515458 0.657763
0.181949 0.518023 0.660072
0.290263 0.520517 0.662316
0.397107 0.522977 0.664530
0.502971 0.525414 0.666724
0.608098 0.527834 0.668902
0.712636 0.530241 0.671068
0.816682 0.532637 0.673224
0.920308 0.535023 0.675372
0.079779 0.629389 0.665312
0.191175 0.631954 0.667620
0.299489 0.634448 0.669865
0.406333 0.636908 0.672079
0.512197 0.639345 0.674272
0.617324 0.641766 0.676451
0.721862 0.644173 0.678617
0.825908 0.646568 0.680773
0.929534 0.648954 0.682920
0.088953 0.742681 0.672818
0.200349 0.745246 0.675126
0.308663 0.747740 0.677371
0.415508 0.750200 0.679585
0.521371 0.752637 0.681778
0.626498 0.755058 0.683957
0.731036 0.757465 0.686123
0.835083 0.759860 0.688279
0.938708 0.762246 0.690426
0.098084 0.855440 0.680289
0.209480 0.858005 0.682597
0.317794 0.860499 0.684842
0.424639 0.862959 0.687056
0.530502 0.865396 0.689249
0.635629 0.867817 0.691428
0.740167 0.870223 0.693594
0.844214 0.872619 0.695750
0.947839 0.875005 0.697897
0.107178 0.967743 0.687729
0.218574 0.970308 0.690038
0.326888 0.972801 0.692282
0.433733 0.975261 0.694496
0.539596 0.977699 0.696690
0.644723 0.980119 0.698868
0.749261 0.982526 0.701034
0.853308 0.984922 0.703190
0.956934 0.987308 0.705338
0.033562 0.047652 0.736528
0.144958 0.050217 0.738836
0.253272 0.052711 0.741080
0.360117 0.055171 0.743294
0.465980 0.057608 0.745488
0.571107 0.060029 0.747666
0.675645 0.062435 0.749833
0.779692 0.064831 0.751989
0.883318 0.067217 0.754136
0.043341 0.168412 0.744529
0.154737 0.170977 0.746837
0.263051 0.173471 0.749081
0.369896 0.175931 0.751295
0.475759 0.178368 0.753489
0.580886 0.180789 0.755667
0.685424 0.183196 0.757834
0.789471 0.185591 0.759990
0.893096 0.187977 0.762137
0.052848 0.285806 0.752306
0.164244 0.288371 0.754615
0.272558 0.290865 0.756859
0.379402 0.293324 0.759073
0.485266 0.295762 0.761267
0.590393 0.298182 0.763445
0.694930 0.300589 0.765611
0.798977 0.302985 0.767767
0.902603 0.305371 0.769915
0.062224 0.401602 0.759979
0.173620 0.404167 0.762287
0.281934 0.406660 0.764531
0.388779 0.409120 0.766745
0.494642 0.411558 0.768939
0.599770 0.413978 0.771117
0.704307 0.416385 0.773283
0.808354 0.418781 0.775439
0.911980 0.421167 0.777587
0.071515 0.516333 0.767580
0.182911 0.518897 0.769888
0.291225 0.521391 0.772133
0.398070 0.523851 0.774347
0.503933 0.526289 0.776540
0.609060 0.528709 0.778719
0.713598 0.531116 0.780885
0.817645 0.533512 0.783041
0.921270 0.535897 0.785188
0.080741 0.630264 0.775129
0.192137 0.632829 0.777437
0.300451 0.635323 0.779681
0.407296 0.637783 0.781895
0.513159 0.640220 0.784089
0.618286 0.642641 0.786267
0.722824 0.645047 0.788433
0.826871 0.647443 0.790589
0.930496 0.649829 0.792737
0.089915 0.743556 0.782635
0.201311 0.746121 0.784943
0.309625 0.748614 0.787187
0.416470 0.751074 0.789401
0.522333 0.753512 0.791595
0.627460 0.755932 0.793773
0.731998 0.758339 0.795940
0.836045 0.760735 0.798096
0.939671 0.763121 0.800243
0.099046 0.856315 0.790106
0.210442 0.858880 0.792414
0.318756 0.861373 0.794658
0.425601 0.863833 0.796872
0.531464 0.866271 0.799066
0.636592 0.868691 0.801244
0.741129 0.871098 0.803410
0.845176 0.873494 0.805566
0.948802 0.875880 0.807714
0.108140 0.968618 0.797546
0.219536 0.971182 0.799854
0.327850 0.973676 0.802099
0.434695 0.976136 0.804313
0.540558 0.978574 0.806506
0.645686 0.980994 0.808685
0.750223 0.983401 0.810851
0.854270 0.985796 0.813007
0.957896 0.988182 0.815154
0.034520 0.048523 0.845827
0.145916 0.051087 0.848135
0.254230 0.053581 0.850380
0.361074 0.056041 0.852594
0.466938 0.058479 0.854788
0.572065 0.060899 0.856966
0.676603 0.063306 0.859132
0.780649 0.065702 0.861288
0.884275 0.068087 0.863435
0.044299 0.169283 0.853828
0.155695 0.171848 0.856136
0.264009 0.174341 0.858381
0.370853 0.176801 0.860595
0.476717 0.179239 0.862789
0.581844 0.181659 0.864967
0.686382 0.184066 0.867133
0.790428 0.186462 0.869289
0.894054 0.188848 0.871436
0.053805 0.286676 0.861606
0.165201 0.289241 0.863914
0.273515 0.291735 0.866159
0.380359 0.294195 0.868373
0.486223 0.296632 0.870566
0.591350 0.299053 0.872745
0.695888 0.301460 0.874911
0.799935 0.303855 0.877067
0.903560 0.306241 0.879214
0.063182 0.402472 0.869278
0.174578 0.405037 0.871586
0.282892 0.407531 0.873831
0.389736 0.409991 0.876045
0.495600 0.412428 0.878238
0.600727 0.414849 0.880417
0.705265 0.417256 0.882583
0.809311 0.419651 0.884739
0.912937 0.422037 0.886886
0.072473 0.517203 0.876880
0.183869 0.519768 0.879188
0.292183 0.522262 0.881432
0.399027 0.524722 0.883646
0.504891 0.527159 0.885840
0.610018 0.529580 0.888018
0.714556 0.531986 0.890185
0.818602 0.534382 0.892341
0.922228 0.536768 0.894488
0.081699 0.631135 0.884428
0.193095 0.633699 0.886736
0.301409 0.636193 0.888981
0.408253 0.638653 0.891195
0.514117 0.641091 0.893388
0.619244 0.643511 0.895567
0.723782 0.645918 0.897733
0.827828 0.648313 0.899889
0.931454 0.650699 0.902036
0.090873 0.744426 0.891934
0.202269 0.746991 0.894243
0.310583 0.749485 0.896487
0.417427 0.751945 0.898701
0.523291 0.754382 0.900895
0.628418 0.756803 0.903073
0.732956 0.759210 0.905239
0.837002 0.761605 0.907395
0.940628 0.763991 0.909543
0.100004 0.857185 0.899405
0.211400 0.859750 0.901713
0.319714 0.862244 0.903958
0.426558 0.864704 0.906172
0.532422 0.867141 0.908365
0.637549 0.869562 0.910544
0.742087 0.871969 0.912710
0.846133 0.874364 0.914866
0.949759 0.876750 0.917013
0.109098 0.969488 0.906846
0.220494 0.972053 0.909154
0.328808 0.974547 0.911398
0.435652 0.977007 0.913612
0.541516 0.979444 0.915806
0.646643 0.981864 0.917984
0.751181 0.984271 0.920151
0.855227 0.986667 0.922307
0.958853 0.989053 0.924454
0.035180 0.049123 0.921233
0.146577 0.051688 0.923541
0.254890 0.054182 0.925786
0.361735 0.056642 0.928000
0.467599 0.059079 0.930193
0.572726 0.061500 0.932372
0.677263 0.063907 0.934538
0.781310 0.066302 0.936694
0.884936 0.068688 0.938841
0.044959 0.169883 0.929234
0.156355 0.172448 0.931542
0.264669 0.174942 0.933787
0.371514 0.177402 0.936001
0.477377 0.179839 0.938194
0.582505 0.182260 0.940373
0.687042 0.184667 0.942539
0.791089 0.187062 0.944695
0.894715 0.189448 0.946842
0.054466 0.287277 0.937012
0.165862 0.289842 0.939320
0.274176 0.292336 0.941565
0.381020 0.294796 0.943779
0.486884 0.297233 0.945972
0.592011 0.299653 0.948151
0.696549 0.302060 0.950317
0.800595 0.304456 0.952473
0.904221 0.306842 0.954620
0.063843 0.403073 0.944684
0.175239 0.405638 0.946992
0.283553 0.408132 0.949237
0.390397 0.410592 0.951451
0.496261 0.413029 0.953644
0.601388 0.415449 0.955823
0.705926 0.417856 0.957989
0.809972 0.420252 0.960145
0.913598 0.422638 0.962292
0.073133 0.517804 0.952286
0.184529 0.520369 0.954594
0.292843 0.522862 0.956838
0.399688 0.525322 0.959052
0.505551 0.527760 0.961246
0.610679 0.530180 0.963424
0.715216 0.532587 0.965590
0.819263 0.534983 0.967746
0.922889 0.537369 0.969894
0.082359 0.631735 0.959834
0.193755 0.634300 0.962142
0.302069 0.636794 0.964387
0.408914 0.639254 0.966601
0.514777 0.641691 0.968794
0.619905 0.644112 0.970973
0.724442 0.646518 0.973139
0.828489 0.648914 0.975295
0.932115 0.651300 0.977442
0.091534 0.745027 0.967340
0.202930 0.747592 0.969648
0.311244 0.750086 0.971893
0.418088 0.752546 0.974107
0.523952 0.754983 0.976301
0.629079 0.757403 0.978479
0.733616 0.759810 0.980645
0.837663 0.762206 0.982801
0.941289 0.764592 0.984948
0.100665 0.857786 0.974811
0.212061 0.860351 0.977119
0.320375 0.862845 0.979364
0.427219 0.865305 0.981578
0.533083 0.867742 0.983771
0.638210 0.870162 0.985950
0.742747 0.872569 0.988116
0.846794 0.874965 0.990272
0.950420 0.877351 0.992419
0.109759 0.970089 0.982252
0.221155 0.972653 0.984560
0.329469 0.975147 0.986804
0.436313 0.977607 0.989018
0.542177 0.980045 0.991212
0.647304 0.982465 0.993390
0.751841 0.984872 0.995557
0.855888 0.987268 0.997713
0.959514 0.989653 0.999860
