assets/luts/primelive_jing_baixi.cube
TITLE "primelive_jing_baixi"
LUT_3D_SIZE 5
0.140000 0.140000 0.140000
0.374326 0.137941 0.137941
0.608653 0.135883 0.135883
0.842979 0.133824 0.133824
1.000000 0.131766 0.131766
0.135840 0.379177 0.135840
0.370166 0.377118 0.133781
0.604492 0.375060 0.131722
0.838819 0.373001 0.129664
1.000000 0.370943 0.127605
0.131679 0.618354 0.131679
0.366006 0.616296 0.129621
0.600332 0.614237 0.127562
0.834658 0.612178 0.125503
1.000000 0.610120 0.123445
0.127519 0.857531 0.127519
0.361845 0.855473 0.125460
0.596172 0.853414 0.123402
0.830498 0.851356 0.121343
1.000000 0.849297 0.119284
0.123359 1.000000 0.123359
0.357685 1.000000 0.121300
0.592011 1.000000 0.119241
0.826338 1.000000 0.117183
1.000000 1.000000 0.115124
0.139154 0.139154 0.394079
0.373480 0.137095 0.392020
0.607806 0.135036 0.389961
0.842133 0.132978 0.387903
1.000000 0.130919 0.385844
0.134993 0.378331 0.389918
0.369320 0.376272 0.387860
0.603646 0.374213 0.385801
0.837972 0.372155 0.383742
1.000000 0.370096 0.381684
0.130833 0.617508 0.385758
0.365159 0.615449 0.383699
0.599486 0.613391 0.381641
0.833812 0.611332 0.379582
1.000000 0.609273 0.377523
0.126672 0.856685 0.381597
0.360999 0.854626 0.379539
0.595325 0.852568 0.377480
0.829652 0.850509 0.375422
1.000000 0.848450 0.373363
0.122512 1.000000 0.377437
0.356838 1.000000 0.375378
0.591165 1.000000 0.373320
0.825491 1.000000 0.371261
1.000000 1.000000 0.369203
0.138307 0.138307 0.648157
0.372633 0.136249 0.646099
0.606960 0.134190 0.644040
0.841286 0.132131 0.641981
1.000000 0.130073 0.639923
0.134147 0.377484 0.643997
0.368473 0.375426 0.641938
0.602799 0.373367 0.639880
0.837126 0.371308 0.637821
1.000000 0.369250 0.635762
0.129986 0.616661 0.639836
0.364313 0.614603 0.637778
0.598639 0.612544 0.635719
0.832966 0.610486 0.633661
1.000000 0.608427 0.631602
0.125826 0.855839 0.635676
0.360152 0.853780 0.633617
0.594479 0.851721 0.631559
0.828805 0.849663 0.629500
1.000000 0.847604 0.627442
0.121666 1.000000 0.631516
0.355992 1.000000 0.629457
0.590318 1.000000 0.627398
0.824645 1.000000 0.625340
1.000000 1.000000 0.623281
0.137461 0.137461 0.902236
0.371787 0.135402 0.900177
0.606113 0.133343 0.898118
0.840440 0.131285 0.896060
1.000000 0.129226 0.894001
0.133300 0.376638 0.898075
0.367627 0.374579 0.896017
0.601953 0.372521 0.893958
0.836279 0.370462 0.891899
1.000000 0.368403 0.889841
0.129140 0.615815 0.893915
0.363466 0.613756 0.891856
0.597793 0.611698 0.889798
0.832119 0.609639 0.887739
1.000000 0.607580 0.885681
0.124980 0.854992 0.889755
0.359306 0.852933 0.887696
0.593632 0.850875 0.885637
0.827959 0.848816 0.883579
1.000000 0.846758 0.881520
0.120819 1.000000 0.885594
0.355146 1.000000 0.883536
0.589472 1.000000 0.881477
0.823798 1.000000 0.879418
1.000000 1.000000 0.877360
0.136614 0.136614 1.000000
0.370941 0.134556 1.000000
0.605267 0.132497 1.000000
0.839593 0.130438 1.000000
1.000000 0.128380 1.000000
0.132454 0.375791 1.000000
0.366780 0.373733 1.000000
0.601107 0.371674 1.000000
0.835433 0.369615 1.000000
1.000000 0.367557 1.000000
0.128293 0.614968 1.000000
0.362620 0.612910 1.000000
0.596946 0.610851 1.000000
0.831273 0.608793 1.000000
1.000000 0.606734 1.000000
0.124133 0.854146 1.000000
0.358459 0.852087 1.000000
0.592786 0.850028 1.000000
0.827112 0.847970 1.000000
1.000000 0.845911 1.000000
0.119973 1.000000 1.000000
0.354299 1.000000 1.000000
0.588625 1.000000 1.000000
0.822952 1.000000 1.000000
1.000000 1.000000 1.000000
