assets/luts/primelive_jing_baixi.cube
TITLE "primelive_jing_baixi"
LUT_3D_SIZE 33
0.140000 0.140000 0.140000
0.169291 0.139743 0.139743
0.198582 0.139485 0.139485
0.227872 0.139228 0.139228
0.257163 0.138971 0.138971
0.286454 0.138713 0.138713
0.315745 0.138456 0.138456
0.345036 0.138199 0.138199
0.374326 0.137941 0.137941
0.403617 0.137684 0.137684
0.432908 0.137427 0.137427
0.462199 0.137169 0.137169
0.491490 0.136912 0.136912
0.520780 0.136655 0.136655
0.550071 0.136397 0.136397
0.579362 0.136140 0.136140
0.608653 0.135883 0.135883
0.637944 0.135625 0.135625
0.667234 0.135368 0.135368
0.696525 0.135111 0.135111
0.725816 0.134853 0.134853
0.755107 0.134596 0.134596
0.784398 0.134339 0.134339
0.813688 0.134081 0.134081
0.842979 0.133824 0.133824
0.872270 0.133567 0.133567
0.901561 0.133310 0.133310
0.930852 0.133052 0.133052
0.960142 0.132795 0.132795
0.989433 0.132538 0.132538
1.000000 0.132280 0.132280
1.000000 0.132023 0.132023
1.000000 0.131766 0.131766
0.139480 0.169897 0.139480
0.168771 0.169640 0.139223
0.198062 0.169382 0.138965
0.227352 0.169125 0.138708
0.256643 0.168868 0.138451
0.285934 0.168611 0.138193
0.315225 0.168353 0.137936
0.344516 0.168096 0.137679
0.373806 0.167839 0.137421
0.403097 0.167581 0.137164
0.432388 0.167324 0.136907
0.461679 0.167067 0.136649
0.490970 0.166809 0.136392
0.520260 0.166552 0.136135
0.549551 0.166295 0.135877
0.578842 0.166037 0.135620
0.608133 0.165780 0.135363
0.637424 0.165523 0.135105
0.666714 0.165265 0.134848
0.696005 0.165008 0.134591
0.725296 0.164751 0.134333
0.754587 0.164493 0.134076
0.783877 0.164236 0.133819
0.813168 0.163979 0.133561
0.842459 0.163721 0.133304
0.871750 0.163464 0.133047
0.901041 0.163207 0.132789
0.930331 0.162949 0.132532
0.959622 0.162692 0.132275
0.988913 0.162435 0.132017
1.000000 0.162177 0.131760
1.000000 0.161920 0.131503
1.000000 0.161663 0.131246
0.138960 0.199794 0.138960
0.168251 0.199537 0.138703
0.197542 0.199280 0.138445
0.226832 0.199022 0.138188
0.256123 0.198765 0.137931
0.285414 0.198508 0.137673
0.314705 0.198250 0.137416
0.343996 0.197993 0.137159
0.373286 0.197736 0.136901
0.402577 0.197478 0.136644
0.431868 0.197221 0.136387
0.461159 0.196964 0.136129
0.490449 0.196706 0.135872
0.519740 0.196449 0.135615
0.549031 0.196192 0.135357
0.578322 0.195934 0.135100
0.607613 0.195677 0.134843
0.636903 0.195420 0.134585
0.666194 0.195162 0.134328
0.695485 0.194905 0.134071
0.724776 0.194648 0.133813
0.754067 0.194390 0.133556
0.783357 0.194133 0.133299
0.812648 0.193876 0.133041
0.841939 0.193618 0.132784
0.871230 0.193361 0.132527
0.900521 0.193104 0.132269
0.929811 0.192846 0.132012
0.959102 0.192589 0.131755
0.988393 0.192332 0.131497
1.000000 0.192075 0.131240
1.000000 0.191817 0.130983
1.000000 0.191560 0.130725
0.138440 0.229691 0.138440
0.167731 0.229434 0.138183
0.197021 0.229177 0.137925
0.226312 0.228919 0.137668
0.255603 0.228662 0.137411
0.284894 0.228405 0.137153
0.314185 0.228147 0.136896
0.343475 0.227890 0.136639
0.372766 0.227633 0.136381
0.402057 0.227376 0.136124
0.431348 0.227118 0.135867
0.460639 0.226861 0.135609
0.489929 0.226604 0.135352
0.519220 0.226346 0.135095
0.548511 0.226089 0.134837
0.577802 0.225832 0.134580
0.607093 0.225574 0.134323
0.636383 0.225317 0.134065
0.665674 0.225060 0.133808
0.694965 0.224802 0.133551
0.724256 0.224545 0.133293
0.753547 0.224288 0.133036
0.782837 0.224030 0.132779
0.812128 0.223773 0.132521
0.841419 0.223516 0.132264
0.870710 0.223258 0.132007
0.900001 0.223001 0.131749
0.929291 0.222744 0.131492
0.958582 0.222486 0.131235
0.987873 0.222229 0.130977
1.000000 0.221972 0.130720
1.000000 0.221714 0.130463
1.000000 0.221457 0.130205
0.137920 0.259589 0.137920
0.167211 0.259331 0.137663
0.196501 0.259074 0.137405
0.225792 0.258817 0.137148
0.255083 0.258559 0.136891
0.284374 0.258302 0.136633
0.313665 0.258045 0.136376
0.342955 0.257787 0.136119
0.372246 0.257530 0.135861
0.401537 0.257273 0.135604
0.430828 0.257015 0.135347
0.460119 0.256758 0.135089
0.489409 0.256501 0.134832
0.518700 0.256243 0.134575
0.547991 0.255986 0.134317
0.577282 0.255729 0.134060
0.606573 0.255471 0.133803
0.635863 0.255214 0.133545
0.665154 0.254957 0.133288
0.694445 0.254699 0.133031
0.723736 0.254442 0.132773
0.753027 0.254185 0.132516
0.782317 0.253927 0.132259
0.811608 0.253670 0.132001
0.840899 0.253413 0.131744
0.870190 0.253155 0.131487
0.899481 0.252898 0.131229
0.928771 0.252641 0.130972
0.958062 0.252383 0.130715
0.987353 0.252126 0.130457
1.000000 0.251869 0.130200
1.000000 0.251611 0.129943
1.000000 0.251354 0.129685
0.137400 0.289486 0.137400
0.166691 0.289228 0.137142
0.195981 0.288971 0.136885
0.225272 0.288714 0.136628
0.254563 0.288456 0.136370
0.283854 0.288199 0.136113
0.313145 0.287942 0.135856
0.342435 0.287684 0.135599
0.371726 0.287427 0.135341
0.401017 0.287170 0.135084
0.430308 0.286912 0.134827
0.459599 0.286655 0.134569
0.488889 0.286398 0.134312
0.518180 0.286140 0.134055
0.547471 0.285883 0.133797
0.576762 0.285626 0.133540
0.606053 0.285368 0.133283
0.635343 0.285111 0.133025
0.664634 0.284854 0.132768
0.693925 0.284596 0.132511
0.723216 0.284339 0.132253
0.752507 0.284082 0.131996
0.781797 0.283825 0.131739
0.811088 0.283567 0.131481
0.840379 0.283310 0.131224
0.869670 0.283053 0.130967
0.898961 0.282795 0.130709
0.928251 0.282538 0.130452
0.957542 0.282281 0.130195
0.986833 0.282023 0.129937
1.000000 0.281766 0.129680
1.000000 0.281509 0.129423
1.000000 0.281251 0.129165
0.136880 0.319383 0.136880
0.166171 0.319126 0.136622
0.195461 0.318868 0.136365
0.224752 0.318611 0.136108
0.254043 0.318354 0.135850
0.283334 0.318096 0.135593
0.312625 0.317839 0.135336
0.341915 0.317582 0.135078
0.371206 0.317324 0.134821
0.400497 0.317067 0.134564
0.429788 0.316810 0.134306
0.459078 0.316552 0.134049
0.488369 0.316295 0.133792
0.517660 0.316038 0.133534
0.546951 0.315780 0.133277
0.576242 0.315523 0.133020
0.605532 0.315266 0.132763
0.634823 0.315008 0.132505
0.664114 0.314751 0.132248
0.693405 0.314494 0.131991
0.722696 0.314236 0.131733
0.751986 0.313979 0.131476
0.781277 0.313722 0.131219
0.810568 0.313464 0.130961
0.839859 0.313207 0.130704
0.869150 0.312950 0.130447
0.898440 0.312692 0.130189
0.927731 0.312435 0.129932
0.957022 0.312178 0.129675
0.986313 0.311920 0.129417
1.000000 0.311663 0.129160
1.000000 0.311406 0.128903
1.000000 0.311148 0.128645
0.136360 0.349280 0.136360
0.165651 0.349023 0.136102
0.194941 0.348765 0.135845
0.224232 0.348508 0.135588
0.253523 0.348251 0.135330
0.282814 0.347993 0.135073
0.312104 0.347736 0.134816
0.341395 0.347479 0.134558
0.370686 0.347221 0.134301
0.399977 0.346964 0.134044
0.429268 0.346707 0.133786
0.458558 0.346449 0.133529
0.487849 0.346192 0.133272
0.517140 0.345935 0.133014
0.546431 0.345677 0.132757
0.575722 0.345420 0.132500
0.605012 0.345163 0.132242
0.634303 0.344905 0.131985
0.663594 0.344648 0.131728
0.692885 0.344391 0.131470
0.722176 0.344133 0.131213
0.751466 0.343876 0.130956
0.780757 0.343619 0.130699
0.810048 0.343361 0.130441
0.839339 0.343104 0.130184
0.868630 0.342847 0.129927
0.897920 0.342589 0.129669
0.927211 0.342332 0.129412
0.956502 0.342075 0.129155
0.985793 0.341817 0.128897
1.000000 0.341560 0.128640
1.000000 0.341303 0.128383
1.000000 0.341046 0.128125
0.135840 0.379177 0.135840
0.165130 0.378920 0.135582
0.194421 0.378662 0.135325
0.223712 0.378405 0.135068
0.253003 0.378148 0.134810
0.282294 0.377890 0.134553
0.311584 0.377633 0.134296
0.340875 0.377376 0.134038
0.370166 0.377118 0.133781
0.399457 0.376861 0.133524
0.428748 0.376604 0.133266
0.458038 0.376347 0.133009
0.487329 0.376089 0.132752
0.516620 0.375832 0.132494
0.545911 0.375575 0.132237
0.575202 0.375317 0.131980
0.604492 0.375060 0.131722
0.633783 0.374803 0.131465
0.663074 0.374545 0.131208
0.692365 0.374288 0.130950
0.721656 0.374031 0.130693
0.750946 0.373773 0.130436
0.780237 0.373516 0.130178
0.809528 0.373259 0.129921
0.838819 0.373001 0.129664
0.868110 0.372744 0.129406
0.897400 0.372487 0.129149
0.926691 0.372229 0.128892
0.955982 0.371972 0.128635
0.985273 0.371715 0.128377
1.000000 0.371457 0.128120
1.000000 0.371200 0.127863
1.000000 0.370943 0.127605
0.135320 0.409074 0.135320
0.164610 0.408817 0.135062
0.193901 0.408560 0.134805
0.223192 0.408302 0.134548
0.252483 0.408045 0.134290
0.281774 0.407788 0.134033
0.311064 0.407530 0.133776
0.340355 0.407273 0.133518
0.369646 0.407016 0.133261
0.398937 0.406758 0.133004
0.428228 0.406501 0.132746
0.457518 0.406244 0.132489
0.486809 0.405986 0.132232
0.516100 0.405729 0.131974
0.545391 0.405472 0.131717
0.574682 0.405214 0.131460
0.603972 0.404957 0.131202
0.633263 0.404700 0.130945
0.662554 0.404442 0.130688
0.691845 0.404185 0.130430
0.721136 0.403928 0.130173
0.750426 0.403670 0.129916
0.779717 0.403413 0.129658
0.809008 0.403156 0.129401
0.838299 0.402898 0.129144
0.867590 0.402641 0.128886
0.896880 0.402384 0.128629
0.926171 0.402126 0.128372
0.955462 0.401869 0.128114
0.984753 0.401612 0.127857
1.000000 0.401354 0.127600
1.000000 0.401097 0.127342
1.000000 0.400840 0.127085
0.134800 0.438971 0.134800
0.164090 0.438714 0.134542
0.193381 0.438457 0.134285
0.222672 0.438199 0.134028
0.251963 0.437942 0.133770
0.281254 0.437685 0.133513
0.310544 0.437427 0.133256
0.339835 0.437170 0.132998
0.369126 0.436913 0.132741
0.398417 0.436655 0.132484
0.427708 0.436398 0.132226
0.456998 0.436141 0.131969
0.486289 0.435884 0.131712
0.515580 0.435626 0.131454
0.544871 0.435369 0.131197
0.574162 0.435112 0.130940
0.603452 0.434854 0.130682
0.632743 0.434597 0.130425
0.662034 0.434340 0.130168
0.691325 0.434082 0.129910
0.720616 0.433825 0.129653
0.749906 0.433568 0.129396
0.779197 0.433310 0.129138
0.808488 0.433053 0.128881
0.837779 0.432796 0.128624
0.867070 0.432538 0.128366
0.896360 0.432281 0.128109
0.925651 0.432024 0.127852
0.954942 0.431766 0.127594
0.984233 0.431509 0.127337
1.000000 0.431252 0.127080
1.000000 0.430994 0.126822
1.000000 0.430737 0.126565
0.134280 0.468869 0.134280
0.163570 0.468611 0.134022
0.192861 0.468354 0.133765
0.222152 0.468097 0.133508
0.251443 0.467839 0.133250
0.280733 0.467582 0.132993
0.310024 0.467325 0.132736
0.339315 0.467067 0.132478
0.368606 0.466810 0.132221
0.397897 0.466553 0.131964
0.427187 0.466295 0.131706
0.456478 0.466038 0.131449
0.485769 0.465781 0.131192
0.515060 0.465523 0.130934
0.544351 0.465266 0.130677
0.573641 0.465009 0.130420
0.602932 0.464751 0.130162
0.632223 0.464494 0.129905
0.661514 0.464237 0.129648
0.690805 0.463979 0.129390
0.720095 0.463722 0.129133
0.749386 0.463465 0.128876
0.778677 0.463207 0.128618
0.807968 0.462950 0.128361
0.837259 0.462693 0.128104
0.866549 0.462435 0.127846
0.895840 0.462178 0.127589
0.925131 0.461921 0.127332
0.954422 0.461663 0.127074
0.983713 0.461406 0.126817
1.000000 0.461149 0.126560
1.000000 0.460891 0.126302
1.000000 0.460634 0.126045
0.133759 0.498766 0.133759
0.163050 0.498508 0.133502
0.192341 0.498251 0.133245
0.221632 0.497994 0.132987
0.250923 0.497736 0.132730
0.280213 0.497479 0.132473
0.309504 0.497222 0.132216
0.338795 0.496964 0.131958
0.368086 0.496707 0.131701
0.397377 0.496450 0.131444
0.426667 0.496192 0.131186
0.455958 0.495935 0.130929
0.485249 0.495678 0.130672
0.514540 0.495420 0.130414
0.543831 0.495163 0.130157
0.573121 0.494906 0.129900
0.602412 0.494648 0.129642
0.631703 0.494391 0.129385
0.660994 0.494134 0.129128
0.690285 0.493876 0.128870
0.719575 0.493619 0.128613
0.748866 0.493362 0.128356
0.778157 0.493105 0.128098
0.807448 0.492847 0.127841
0.836739 0.492590 0.127584
0.866029 0.492333 0.127326
0.895320 0.492075 0.127069
0.924611 0.491818 0.126812
0.953902 0.491561 0.126554
0.983193 0.491303 0.126297
1.000000 0.491046 0.126040
1.000000 0.490789 0.125782
1.000000 0.490531 0.125525
0.133239 0.528663 0.133239
0.162530 0.528406 0.132982
0.191821 0.528148 0.132725
0.221112 0.527891 0.132467
0.250403 0.527634 0.132210
0.279693 0.527376 0.131953
0.308984 0.527119 0.131695
0.338275 0.526862 0.131438
0.367566 0.526604 0.131181
0.396857 0.526347 0.130923
0.426147 0.526090 0.130666
0.455438 0.525832 0.130409
0.484729 0.525575 0.130152
0.514020 0.525318 0.129894
0.543311 0.525060 0.129637
0.572601 0.524803 0.129380
0.601892 0.524546 0.129122
0.631183 0.524288 0.128865
0.660474 0.524031 0.128608
0.689765 0.523774 0.128350
0.719055 0.523516 0.128093
0.748346 0.523259 0.127836
0.777637 0.523002 0.127578
0.806928 0.522744 0.127321
0.836219 0.522487 0.127064
0.865509 0.522230 0.126806
0.894800 0.521972 0.126549
0.924091 0.521715 0.126292
0.953382 0.521458 0.126034
0.982672 0.521200 0.125777
1.000000 0.520943 0.125520
1.000000 0.520686 0.125262
1.000000 0.520428 0.125005
0.132719 0.558560 0.132719
0.162010 0.558303 0.132462
0.191301 0.558045 0.132205
0.220592 0.557788 0.131947
0.249883 0.557531 0.131690
0.279173 0.557273 0.131433
0.308464 0.557016 0.131175
0.337755 0.556759 0.130918
0.367046 0.556501 0.130661
0.396337 0.556244 0.130403
0.425627 0.555987 0.130146
0.454918 0.555729 0.129889
0.484209 0.555472 0.129631
0.513500 0.555215 0.129374
0.542791 0.554957 0.129117
0.572081 0.554700 0.128859
0.601372 0.554443 0.128602
0.630663 0.554185 0.128345
0.659954 0.553928 0.128087
0.689245 0.553671 0.127830
0.718535 0.553413 0.127573
0.747826 0.553156 0.127316
0.777117 0.552899 0.127058
0.806408 0.552641 0.126801
0.835699 0.552384 0.126544
0.864989 0.552127 0.126286
0.894280 0.551869 0.126029
0.923571 0.551612 0.125772
0.952862 0.551355 0.125514
0.982152 0.551097 0.125257
1.000000 0.550840 0.125000
1.000000 0.550583 0.124742
1.000000 0.550326 0.124485
0.132199 0.588457 0.132199
0.161490 0.588200 0.131942
0.190781 0.587942 0.131685
0.220072 0.587685 0.131427
0.249363 0.587428 0.131170
0.278653 0.587170 0.130913
0.307944 0.586913 0.130655
0.337235 0.586656 0.130398
0.366526 0.586398 0.130141
0.395817 0.586141 0.129883
0.425107 0.585884 0.129626
0.454398 0.585626 0.129369
0.483689 0.585369 0.129111
0.512980 0.585112 0.128854
0.542270 0.584855 0.128597
0.571561 0.584597 0.128339
0.600852 0.584340 0.128082
0.630143 0.584083 0.127825
0.659434 0.583825 0.127567
0.688725 0.583568 0.127310
0.718015 0.583311 0.127053
0.747306 0.583053 0.126795
0.776597 0.582796 0.126538
0.805888 0.582539 0.126281
0.835179 0.582281 0.126023
0.864469 0.582024 0.125766
0.893760 0.581767 0.125509
0.923051 0.581509 0.125252
0.952342 0.581252 0.124994
0.981632 0.580995 0.124737
1.000000 0.580737 0.124480
1.000000 0.580480 0.124222
1.000000 0.580223 0.123965
0.131679 0.618354 0.131679
0.160970 0.618097 0.131422
0.190261 0.617840 0.131165
0.219552 0.617582 0.130907
0.248842 0.617325 0.130650
0.278133 0.617068 0.130393
0.307424 0.616810 0.130135
0.336715 0.616553 0.129878
0.366006 0.616296 0.129621
0.395296 0.616038 0.129363
0.424587 0.615781 0.129106
0.453878 0.615524 0.128849
0.483169 0.615266 0.128591
0.512460 0.615009 0.128334
0.541750 0.614752 0.128077
0.571041 0.614494 0.127819
0.600332 0.614237 0.127562
0.629623 0.613980 0.127305
0.658914 0.613722 0.127047
0.688204 0.613465 0.126790
0.717495 0.613208 0.126533
0.746786 0.612950 0.126275
0.776077 0.612693 0.126018
0.805368 0.612436 0.125761
0.834658 0.612178 0.125503
0.863949 0.611921 0.125246
0.893240 0.611664 0.124989
0.922531 0.611406 0.124731
0.951822 0.611149 0.124474
0.981112 0.610892 0.124217
1.000000 0.610634 0.123959
1.000000 0.610377 0.123702
1.000000 0.610120 0.123445
0.131159 0.648251 0.131159
0.160450 0.647994 0.130902
0.189741 0.647737 0.130645
0.219032 0.647479 0.130387
0.248322 0.647222 0.130130
0.277613 0.646965 0.129873
0.306904 0.646707 0.129615
0.336195 0.646450 0.129358
0.365486 0.646193 0.129101
0.394776 0.645935 0.128843
0.424067 0.645678 0.128586
0.453358 0.645421 0.128329
0.482649 0.645163 0.128071
0.511940 0.644906 0.127814
0.541230 0.644649 0.127557
0.570521 0.644391 0.127299
0.599812 0.644134 0.127042
0.629103 0.643877 0.126785
0.658394 0.643619 0.126527
0.687684 0.643362 0.126270
0.716975 0.643105 0.126013
0.746266 0.642847 0.125755
0.775557 0.642590 0.125498
0.804848 0.642333 0.125241
0.834138 0.642076 0.124983
0.863429 0.641818 0.124726
0.892720 0.641561 0.124469
0.922011 0.641304 0.124211
0.951302 0.641046 0.123954
0.980592 0.640789 0.123697
1.000000 0.640532 0.123439
1.000000 0.640274 0.123182
1.000000 0.640017 0.122925
0.130639 0.678149 0.130639
0.159930 0.677891 0.130382
0.189221 0.677634 0.130125
0.218512 0.677377 0.129867
0.247802 0.677119 0.129610
0.277093 0.676862 0.129353
0.306384 0.676605 0.129095
0.335675 0.676347 0.128838
0.364966 0.676090 0.128581
0.394256 0.675833 0.128323
0.423547 0.675575 0.128066
0.452838 0.675318 0.127809
0.482129 0.675061 0.127551
0.511420 0.674803 0.127294
0.540710 0.674546 0.127037
0.570001 0.674289 0.126779
0.599292 0.674031 0.126522
0.628583 0.673774 0.126265
0.657874 0.673517 0.126007
0.687164 0.673259 0.125750
0.716455 0.673002 0.125493
0.745746 0.672745 0.125235
0.775037 0.672487 0.124978
0.804328 0.672230 0.124721
0.833618 0.671973 0.124463
0.862909 0.671715 0.124206
0.892200 0.671458 0.123949
0.921491 0.671201 0.123691
0.950782 0.670943 0.123434
0.980072 0.670686 0.123177
1.000000 0.670429 0.122919
1.000000 0.670171 0.122662
1.000000 0.669914 0.122405
0.130119 0.708046 0.130119
0.159410 0.707788 0.129862
0.188701 0.707531 0.129605
0.217992 0.707274 0.129347
0.247282 0.707016 0.129090
0.276573 0.706759 0.128833
0.305864 0.706502 0.128575
0.335155 0.706244 0.128318
0.364446 0.705987 0.128061
0.393736 0.705730 0.127803
0.423027 0.705472 0.127546
0.452318 0.705215 0.127289
0.481609 0.704958 0.127031
0.510900 0.704700 0.126774
0.540190 0.704443 0.126517
0.569481 0.704186 0.126259
0.598772 0.703928 0.126002
0.628063 0.703671 0.125745
0.657354 0.703414 0.125487
0.686644 0.703156 0.125230
0.715935 0.702899 0.124973
0.745226 0.702642 0.124715
0.774517 0.702384 0.124458
0.803807 0.702127 0.124201
0.833098 0.701870 0.123943
0.862389 0.701613 0.123686
0.891680 0.701355 0.123429
0.920971 0.701098 0.123171
0.950261 0.700841 0.122914
0.979552 0.700583 0.122657
1.000000 0.700326 0.122399
1.000000 0.700069 0.122142
1.000000 0.699811 0.121885
0.129599 0.737943 0.129599
0.158890 0.737686 0.129342
0.188181 0.737428 0.129084
0.217471 0.737171 0.128827
0.246762 0.736914 0.128570
0.276053 0.736656 0.128312
0.305344 0.736399 0.128055
0.334635 0.736142 0.127798
0.363925 0.735884 0.127540
0.393216 0.735627 0.127283
0.422507 0.735370 0.127026
0.451798 0.735112 0.126769
0.481089 0.734855 0.126511
0.510380 0.734598 0.126254
0.539670 0.734340 0.125997
0.568961 0.734083 0.125739
0.598252 0.733826 0.125482
0.627543 0.733568 0.125225
0.656834 0.733311 0.124967
0.686124 0.733054 0.124710
0.715415 0.732796 0.124453
0.744706 0.732539 0.124195
0.773997 0.732282 0.123938
0.803287 0.732024 0.123681
0.832578 0.731767 0.123423
0.861869 0.731510 0.123166
0.891160 0.731252 0.122909
0.920451 0.730995 0.122651
0.949741 0.730738 0.122394
0.979032 0.730480 0.122137
1.000000 0.730223 0.121879
1.000000 0.729966 0.121622
1.000000 0.729708 0.121365
0.129079 0.767840 0.129079
0.158370 0.767583 0.128822
0.187661 0.767325 0.128564
0.216951 0.767068 0.128307
0.246242 0.766811 0.128050
0.275533 0.766553 0.127792
0.304824 0.766296 0.127535
0.334115 0.766039 0.127278
0.363405 0.765781 0.127020
0.392696 0.765524 0.126763
0.421987 0.765267 0.126506
0.451278 0.765009 0.126248
0.480569 0.764752 0.125991
0.509859 0.764495 0.125734
0.539150 0.764237 0.125476
0.568441 0.763980 0.125219
0.597732 0.763723 0.124962
0.627023 0.763465 0.124705
0.656313 0.763208 0.124447
0.685604 0.762951 0.124190
0.714895 0.762693 0.123933
0.744186 0.762436 0.123675
0.773477 0.762179 0.123418
0.802767 0.761921 0.123161
0.832058 0.761664 0.122903
0.861349 0.761407 0.122646
0.890640 0.761150 0.122389
0.919931 0.760892 0.122131
0.949221 0.760635 0.121874
0.978512 0.760378 0.121617
1.000000 0.760120 0.121359
1.000000 0.759863 0.121102
1.000000 0.759606 0.120845
0.128559 0.797737 0.128559
0.157850 0.797480 0.128302
0.187141 0.797222 0.128044
0.216431 0.796965 0.127787
0.245722 0.796708 0.127530
0.275013 0.796451 0.127272
0.304304 0.796193 0.127015
0.333595 0.795936 0.126758
0.362885 0.795679 0.126500
0.392176 0.795421 0.126243
0.421467 0.795164 0.125986
0.450758 0.794907 0.125728
0.480049 0.794649 0.125471
0.509339 0.794392 0.125214
0.538630 0.794135 0.124956
0.567921 0.793877 0.124699
0.597212 0.793620 0.124442
0.626503 0.793363 0.124184
0.655793 0.793105 0.123927
0.685084 0.792848 0.123670
0.714375 0.792591 0.123412
0.743666 0.792333 0.123155
0.772957 0.792076 0.122898
0.802247 0.791819 0.122641
0.831538 0.791561 0.122383
0.860829 0.791304 0.122126
0.890120 0.791047 0.121869
0.919411 0.790789 0.121611
0.948701 0.790532 0.121354
0.977992 0.790275 0.121097
1.000000 0.790017 0.120839
1.000000 0.789760 0.120582
1.000000 0.789503 0.120325
0.128039 0.827634 0.128039
0.157330 0.827377 0.127782
0.186621 0.827120 0.127524
0.215911 0.826862 0.127267
0.245202 0.826605 0.127010
0.274493 0.826348 0.126752
0.303784 0.826090 0.126495
0.333075 0.825833 0.126238
0.362365 0.825576 0.125980
0.391656 0.825318 0.125723
0.420947 0.825061 0.125466
0.450238 0.824804 0.125208
0.479529 0.824546 0.124951
0.508819 0.824289 0.124694
0.538110 0.824032 0.124436
0.567401 0.823774 0.124179
0.596692 0.823517 0.123922
0.625983 0.823260 0.123664
0.655273 0.823002 0.123407
0.684564 0.822745 0.123150
0.713855 0.822488 0.122892
0.743146 0.822230 0.122635
0.772436 0.821973 0.122378
0.801727 0.821716 0.122120
0.831018 0.821458 0.121863
0.860309 0.821201 0.121606
0.889600 0.820944 0.121348
0.918890 0.820686 0.121091
0.948181 0.820429 0.120834
0.977472 0.820172 0.120576
1.000000 0.819914 0.120319
1.000000 0.819657 0.120062
1.000000 0.819400 0.119805
0.127519 0.857531 0.127519
0.156810 0.857274 0.127262
0.186101 0.857017 0.127004
0.215391 0.856759 0.126747
0.244682 0.856502 0.126490
0.273973 0.856245 0.126232
0.303264 0.855987 0.125975
0.332555 0.855730 0.125718
0.361845 0.855473 0.125460
0.391136 0.855215 0.125203
0.420427 0.854958 0.124946
0.449718 0.854701 0.124688
0.479008 0.854443 0.124431
0.508299 0.854186 0.124174
0.537590 0.853929 0.123916
0.566881 0.853672 0.123659
0.596172 0.853414 0.123402
0.625462 0.853157 0.123144
0.654753 0.852900 0.122887
0.684044 0.852642 0.122630
0.713335 0.852385 0.122372
0.742626 0.852128 0.122115
0.771916 0.851870 0.121858
0.801207 0.851613 0.121600
0.830498 0.851356 0.121343
0.859789 0.851098 0.121086
0.889080 0.850841 0.120828
0.918370 0.850584 0.120571
0.947661 0.850326 0.120314
0.976952 0.850069 0.120056
1.000000 0.849812 0.119799
1.000000 0.849554 0.119542
1.000000 0.849297 0.119284
0.126999 0.887429 0.126999
0.156290 0.887171 0.126742
0.185580 0.886914 0.126484
0.214871 0.886657 0.126227
0.244162 0.886399 0.125970
0.273453 0.886142 0.125712
0.302744 0.885885 0.125455
0.332034 0.885627 0.125198
0.361325 0.885370 0.124940
0.390616 0.885113 0.124683
0.419907 0.884855 0.124426
0.449198 0.884598 0.124168
0.478488 0.884341 0.123911
0.507779 0.884083 0.123654
0.537070 0.883826 0.123396
0.566361 0.883569 0.123139
0.595652 0.883311 0.122882
0.624942 0.883054 0.122624
0.654233 0.882797 0.122367
0.683524 0.882539 0.122110
0.712815 0.882282 0.121852
0.742106 0.882025 0.121595
0.771396 0.881767 0.121338
0.800687 0.881510 0.121080
0.829978 0.881253 0.120823
0.859269 0.880995 0.120566
0.888560 0.880738 0.120308
0.917850 0.880481 0.120051
0.947141 0.880223 0.119794
0.976432 0.879966 0.119536
1.000000 0.879709 0.119279
1.000000 0.879451 0.119022
1.000000 0.879194 0.118764
0.126479 0.917326 0.126479
0.155770 0.917068 0.126222
0.185060 0.916811 0.125964
0.214351 0.916554 0.125707
0.243642 0.916296 0.125450
0.272933 0.916039 0.125192
0.302224 0.915782 0.124935
0.331514 0.915524 0.124678
0.360805 0.915267 0.124420
0.390096 0.915010 0.124163
0.419387 0.914752 0.123906
0.448678 0.914495 0.123648
0.477968 0.914238 0.123391
0.507259 0.913980 0.123134
0.536550 0.913723 0.122876
0.565841 0.913466 0.122619
0.595132 0.913208 0.122362
0.624422 0.912951 0.122104
0.653713 0.912694 0.121847
0.683004 0.912436 0.121590
0.712295 0.912179 0.121332
0.741586 0.911922 0.121075
0.770876 0.911664 0.120818
0.800167 0.911407 0.120560
0.829458 0.911150 0.120303
0.858749 0.910893 0.120046
0.888040 0.910635 0.119788
0.917330 0.910378 0.119531
0.946621 0.910121 0.119274
