assets/luts/primelive_tianxin.cube
TITLE "primelive_tianxin"
LUT_3D_SIZE 33
0.131781 0.112267 0.131781
0.162657 0.111407 0.130730
0.193533 0.110546 0.129678
0.224409 0.109685 0.128627
0.255285 0.108825 0.127575
0.286161 0.107964 0.126523
0.317037 0.107103 0.125472
0.347913 0.106243 0.124420
0.378788 0.105382 0.123368
0.409664 0.104521 0.122317
0.440540 0.103661 0.121265
0.471416 0.102800 0.120214
0.502292 0.101939 0.119162
0.533168 0.101079 0.118110
0.564044 0.100218 0.117059
0.594920 0.099357 0.116007
0.625796 0.098496 0.114956
0.656672 0.097636 0.113904
0.687547 0.096775 0.112852
0.718423 0.095914 0.111801
0.749299 0.095054 0.110749
0.780175 0.094193 0.109698
0.811051 0.093332 0.108646
0.841927 0.092472 0.107594
0.872803 0.091611 0.106543
0.903679 0.090750 0.105491
0.934555 0.089890 0.104440
0.965431 0.089029 0.103388
0.996306 0.088168 0.102336
1.000000 0.087308 0.101285
1.000000 0.086447 0.100233
1.000000 0.085586 0.099182
1.000000 0.084726 0.098130
0.129832 0.140825 0.129832
0.160707 0.139965 0.128780
0.191583 0.139104 0.127728
0.222459 0.138243 0.126677
0.253335 0.137383 0.125625
0.284211 0.136522 0.124573
0.315087 0.135661 0.123522
0.345963 0.134800 0.122470
0.376839 0.133940 0.121419
0.407715 0.133079 0.120367
0.438590 0.132218 0.119315
0.469466 0.131358 0.118264
0.500342 0.130497 0.117212
0.531218 0.129636 0.116161
0.562094 0.128776 0.115109
0.592970 0.127915 0.114057
0.623846 0.127054 0.113006
0.654722 0.126194 0.111954
0.685598 0.125333 0.110903
0.716474 0.124472 0.109851
0.747349 0.123612 0.108799
0.778225 0.122751 0.107748
0.809101 0.121890 0.106696
0.839977 0.121030 0.105645
0.870853 0.120169 0.104593
0.901729 0.119308 0.103541
0.932605 0.118448 0.102490
0.963481 0.117587 0.101438
0.994357 0.116726 0.100387
1.000000 0.115866 0.099335
1.000000 0.115005 0.098283
1.000000 0.114144 0.097232
1.000000 0.113284 0.096180
0.127882 0.169383 0.127882
0.158758 0.168522 0.126830
0.189633 0.167662 0.125778
0.220509 0.166801 0.124727
0.251385 0.165940 0.123675
0.282261 0.165080 0.122624
0.313137 0.164219 0.121572
0.344013 0.163358 0.120520
0.374889 0.162498 0.119469
0.405765 0.161637 0.118417
0.436641 0.160776 0.117366
0.467517 0.159916 0.116314
0.498392 0.159055 0.115262
0.529268 0.158194 0.114211
0.560144 0.157334 0.113159
0.591020 0.156473 0.112108
0.621896 0.155612 0.111056
0.652772 0.154752 0.110004
0.683648 0.153891 0.108953
0.714524 0.153030 0.107901
0.745400 0.152170 0.106850
0.776275 0.151309 0.105798
0.807151 0.150448 0.104746
0.838027 0.149588 0.103695
0.868903 0.148727 0.102643
0.899779 0.147866 0.101592
0.930655 0.147006 0.100540
0.961531 0.146145 0.099488
0.992407 0.145284 0.098437
1.000000 0.144423 0.097385
1.000000 0.143563 0.096334
1.000000 0.142702 0.095282
1.000000 0.141841 0.094230
0.125932 0.197941 0.125932
0.156808 0.197080 0.124880
0.187684 0.196220 0.123829
0.218560 0.195359 0.122777
0.249435 0.194498 0.121725
0.280311 0.193638 0.120674
0.311187 0.192777 0.119622
0.342063 0.191916 0.118571
0.372939 0.191056 0.117519
0.403815 0.190195 0.116467
0.434691 0.189334 0.115416
0.465567 0.188474 0.114364
0.496443 0.187613 0.113313
0.527319 0.186752 0.112261
0.558194 0.185892 0.111209
0.589070 0.185031 0.110158
0.619946 0.184170 0.109106
0.650822 0.183310 0.108055
0.681698 0.182449 0.107003
0.712574 0.181588 0.105951
0.743450 0.180728 0.104900
0.774326 0.179867 0.103848
0.805202 0.179006 0.102797
0.836077 0.178145 0.101745
0.866953 0.177285 0.100693
0.897829 0.176424 0.099642
0.928705 0.175563 0.098590
0.959581 0.174703 0.097539
0.990457 0.173842 0.096487
1.000000 0.172981 0.095435
1.000000 0.172121 0.094384
1.000000 0.171260 0.093332
1.000000 0.170399 0.092280
0.123982 0.226499 0.123982
0.154858 0.225638 0.122930
0.185734 0.224778 0.121879
0.216610 0.223917 0.120827
0.247486 0.223056 0.119776
0.278362 0.222196 0.118724
0.309237 0.221335 0.117672
0.340113 0.220474 0.116621
0.370989 0.219614 0.115569
0.401865 0.218753 0.114518
0.432741 0.217892 0.113466
0.463617 0.217032 0.112414
0.494493 0.216171 0.111363
0.525369 0.215310 0.110311
0.556245 0.214450 0.109260
0.587120 0.213589 0.108208
0.617996 0.212728 0.107156
0.648872 0.211867 0.106105
0.679748 0.211007 0.105053
0.710624 0.210146 0.104002
0.741500 0.209285 0.102950
0.772376 0.208425 0.101898
0.803252 0.207564 0.100847
0.834128 0.206703 0.099795
0.865004 0.205843 0.098743
0.895879 0.204982 0.097692
0.926755 0.204121 0.096640
0.957631 0.203261 0.095589
0.988507 0.202400 0.094537
1.000000 0.201539 0.093485
1.000000 0.200679 0.092434
1.000000 0.199818 0.091382
1.000000 0.198957 0.090331
0.122032 0.255057 0.122032
0.152908 0.254196 0.120981
0.183784 0.253336 0.119929
0.214660 0.252475 0.118877
0.245536 0.251614 0.117826
0.276412 0.250754 0.116774
0.307288 0.249893 0.115723
0.338163 0.249032 0.114671
0.369039 0.248172 0.113619
0.399915 0.247311 0.112568
0.430791 0.246450 0.111516
0.461667 0.245590 0.110465
0.492543 0.244729 0.109413
0.523419 0.243868 0.108361
0.554295 0.243007 0.107310
0.585171 0.242147 0.106258
0.616047 0.241286 0.105207
0.646922 0.240425 0.104155
0.677798 0.239565 0.103103
0.708674 0.238704 0.102052
0.739550 0.237843 0.101000
0.770426 0.236983 0.099948
0.801302 0.236122 0.098897
0.832178 0.235261 0.097845
0.863054 0.234401 0.096794
0.893930 0.233540 0.095742
0.924805 0.232679 0.094690
0.955681 0.231819 0.093639
0.986557 0.230958 0.092587
1.000000 0.230097 0.091536
1.000000 0.229237 0.090484
1.000000 0.228376 0.089432
1.000000 0.227515 0.088381
0.120082 0.283615 0.120082
0.150958 0.282754 0.119031
0.181834 0.281894 0.117979
0.212710 0.281033 0.116928
0.243586 0.280172 0.115876
0.274462 0.279312 0.114824
0.305338 0.278451 0.113773
0.336214 0.277590 0.112721
0.367090 0.276729 0.111670
0.397965 0.275869 0.110618
0.428841 0.275008 0.109566
0.459717 0.274147 0.108515
0.490593 0.273287 0.107463
0.521469 0.272426 0.106412
0.552345 0.271565 0.105360
0.583221 0.270705 0.104308
0.614097 0.269844 0.103257
0.644973 0.268983 0.102205
0.675848 0.268123 0.101153
0.706724 0.267262 0.100102
0.737600 0.266401 0.099050
0.768476 0.265541 0.097999
0.799352 0.264680 0.096947
0.830228 0.263819 0.095895
0.861104 0.262959 0.094844
0.891980 0.262098 0.093792
0.922856 0.261237 0.092741
0.953732 0.260377 0.091689
0.984607 0.259516 0.090637
1.000000 0.258655 0.089586
1.000000 0.257795 0.088534
1.000000 0.256934 0.087483
1.000000 0.256073 0.086431
0.118133 0.312173 0.118133
0.149008 0.311312 0.117081
0.179884 0.310451 0.116029
0.210760 0.309591 0.114978
0.241636 0.308730 0.113926
0.272512 0.307869 0.112875
0.303388 0.307009 0.111823
0.334264 0.306148 0.110771
0.365140 0.305287 0.109720
0.396016 0.304427 0.108668
0.426892 0.303566 0.107616
0.457767 0.302705 0.106565
0.488643 0.301845 0.105513
0.519519 0.300984 0.104462
0.550395 0.300123 0.103410
0.581271 0.299263 0.102358
0.612147 0.298402 0.101307
0.643023 0.297541 0.100255
0.673899 0.296681 0.099204
0.704775 0.295820 0.098152
0.735650 0.294959 0.097100
0.766526 0.294099 0.096049
0.797402 0.293238 0.094997
0.828278 0.292377 0.093946
0.859154 0.291517 0.092894
0.890030 0.290656 0.091842
0.920906 0.289795 0.090791
0.951782 0.288934 0.089739
0.982658 0.288074 0.088688
1.000000 0.287213 0.087636
1.000000 0.286352 0.086584
1.000000 0.285492 0.085533
1.000000 0.284631 0.084481
0.116183 0.340731 0.116183
0.147059 0.339870 0.115131
0.177935 0.339009 0.114080
0.208810 0.338149 0.113028
0.239686 0.337288 0.111976
0.270562 0.336427 0.110925
0.301438 0.335567 0.109873
0.332314 0.334706 0.108821
0.363190 0.333845 0.107770
0.394066 0.332985 0.106718
0.424942 0.332124 0.105667
0.455818 0.331263 0.104615
0.486693 0.330403 0.103563
0.517569 0.329542 0.102512
0.548445 0.328681 0.101460
0.579321 0.327821 0.100409
0.610197 0.326960 0.099357
0.641073 0.326099 0.098305
0.671949 0.325239 0.097254
0.702825 0.324378 0.096202
0.733701 0.323517 0.095151
0.764577 0.322657 0.094099
0.795452 0.321796 0.093047
0.826328 0.320935 0.091996
0.857204 0.320074 0.090944
0.888080 0.319214 0.089893
0.918956 0.318353 0.088841
0.949832 0.317492 0.087789
0.980708 0.316632 0.086738
1.000000 0.315771 0.085686
1.000000 0.314910 0.084635
1.000000 0.314050 0.083583
1.000000 0.313189 0.082531
0.114233 0.369289 0.114233
0.145109 0.368428 0.113181
0.175985 0.367567 0.112130
0.206861 0.366707 0.111078
0.237736 0.365846 0.110026
0.268612 0.364985 0.108975
0.299488 0.364125 0.107923
0.330364 0.363264 0.106872
0.361240 0.362403 0.105820
0.392116 0.361543 0.104768
0.422992 0.360682 0.103717
0.453868 0.359821 0.102665
0.484744 0.358961 0.101614
0.515620 0.358100 0.100562
0.546495 0.357239 0.099510
0.577371 0.356379 0.098459
0.608247 0.355518 0.097407
0.639123 0.354657 0.096356
0.669999 0.353796 0.095304
0.700875 0.352936 0.094252
0.731751 0.352075 0.093201
0.762627 0.351214 0.092149
0.793503 0.350354 0.091098
0.824379 0.349493 0.090046
0.855254 0.348632 0.088994
0.886130 0.347772 0.087943
0.917006 0.346911 0.086891
0.947882 0.346050 0.085840
0.978758 0.345190 0.084788
1.000000 0.344329 0.083736
1.000000 0.343468 0.082685
1.000000 0.342608 0.081633
1.000000 0.341747 0.080582
0.112283 0.397847 0.112283
0.143159 0.396986 0.111231
0.174035 0.396125 0.110180
0.204911 0.395265 0.109128
0.235787 0.394404 0.108077
0.266663 0.393543 0.107025
0.297538 0.392683 0.105973
0.328414 0.391822 0.104922
0.359290 0.390961 0.103870
0.390166 0.390101 0.102819
0.421042 0.389240 0.101767
0.451918 0.388379 0.100715
0.482794 0.387518 0.099664
0.513670 0.386658 0.098612
0.544546 0.385797 0.097561
0.575421 0.384936 0.096509
0.606297 0.384076 0.095457
0.637173 0.383215 0.094406
0.668049 0.382354 0.093354
0.698925 0.381494 0.092303
0.729801 0.380633 0.091251
0.760677 0.379772 0.090199
0.791553 0.378912 0.089148
0.822429 0.378051 0.088096
0.853305 0.377190 0.087045
0.884181 0.376330 0.085993
0.915056 0.375469 0.084941
0.945932 0.374608 0.083890
0.976808 0.373748 0.082838
1.000000 0.372887 0.081787
1.000000 0.372026 0.080735
1.000000 0.371166 0.079683
1.000000 0.370305 0.078632
0.110333 0.426405 0.110333
0.141209 0.425544 0.109282
0.172085 0.424683 0.108230
0.202961 0.423822 0.107178
0.233837 0.422962 0.106127
0.264713 0.422101 0.105075
0.295589 0.421240 0.104024
0.326465 0.420380 0.102972
0.357340 0.419519 0.101920
0.388216 0.418658 0.100869
0.419092 0.417798 0.099817
0.449968 0.416937 0.098766
0.480844 0.416076 0.097714
0.511720 0.415216 0.096662
0.542596 0.414355 0.095611
0.573472 0.413494 0.094559
0.604348 0.412634 0.093508
0.635223 0.411773 0.092456
0.666099 0.410912 0.091404
0.696975 0.410052 0.090353
0.727851 0.409191 0.089301
0.758727 0.408330 0.088250
0.789603 0.407470 0.087198
0.820479 0.406609 0.086146
0.851355 0.405748 0.085095
0.882231 0.404888 0.084043
0.913107 0.404027 0.082991
0.943982 0.403166 0.081940
0.974858 0.402306 0.080888
1.000000 0.401445 0.079837
1.000000 0.400584 0.078785
1.000000 0.399723 0.077733
1.000000 0.398863 0.076682
0.108383 0.454962 0.108383
0.139259 0.454102 0.107332
0.170135 0.453241 0.106280
0.201011 0.452380 0.105229
0.231887 0.451520 0.104177
0.262763 0.450659 0.103125
0.293639 0.449798 0.102074
0.324515 0.448938 0.101022
0.355391 0.448077 0.099971
0.386266 0.447216 0.098919
0.417142 0.446356 0.097867
0.448018 0.445495 0.096816
0.478894 0.444634 0.095764
0.509770 0.443774 0.094713
0.540646 0.442913 0.093661
0.571522 0.442052 0.092609
0.602398 0.441192 0.091558
0.633274 0.440331 0.090506
0.664150 0.439470 0.089455
0.695025 0.438610 0.088403
0.725901 0.437749 0.087351
0.756777 0.436888 0.086300
0.787653 0.436028 0.085248
0.818529 0.435167 0.084196
0.849405 0.434306 0.083145
0.880281 0.433445 0.082093
0.911157 0.432585 0.081042
0.942033 0.431724 0.079990
0.972909 0.430863 0.078938
1.000000 0.430003 0.077887
1.000000 0.429142 0.076835
1.000000 0.428281 0.075784
1.000000 0.427421 0.074732
0.106434 0.483520 0.106434
0.137309 0.482660 0.105382
0.168185 0.481799 0.104330
0.199061 0.480938 0.103279
0.229937 0.480078 0.102227
0.260813 0.479217 0.101176
0.291689 0.478356 0.100124
0.322565 0.477496 0.099072
0.353441 0.476635 0.098021
0.384317 0.475774 0.096969
0.415193 0.474914 0.095918
0.446068 0.474053 0.094866
0.476944 0.473192 0.093814
0.507820 0.472332 0.092763
0.538696 0.471471 0.091711
0.569572 0.470610 0.090660
0.600448 0.469750 0.089608
0.631324 0.468889 0.088556
0.662200 0.468028 0.087505
0.693076 0.467168 0.086453
0.723952 0.466307 0.085401
0.754827 0.465446 0.084350
0.785703 0.464585 0.083298
0.816579 0.463725 0.082247
0.847455 0.462864 0.081195
0.878331 0.462003 0.080143
0.909207 0.461143 0.079092
0.940083 0.460282 0.078040
0.970959 0.459421 0.076989
1.000000 0.458561 0.075937
1.000000 0.457700 0.074885
1.000000 0.456839 0.073834
1.000000 0.455979 0.072782
0.104484 0.512078 0.104484
0.135360 0.511218 0.103432
0.166236 0.510357 0.102381
0.197111 0.509496 0.101329
0.227987 0.508636 0.100277
0.258863 0.507775 0.099226
0.289739 0.506914 0.098174
0.320615 0.506054 0.097123
0.351491 0.505193 0.096071
0.382367 0.504332 0.095019
0.413243 0.503472 0.093968
0.444119 0.502611 0.092916
0.474995 0.501750 0.091864
0.505870 0.500889 0.090813
0.536746 0.500029 0.089761
0.567622 0.499168 0.088710
0.598498 0.498307 0.087658
0.629374 0.497447 0.086606
0.660250 0.496586 0.085555
0.691126 0.495725 0.084503
0.722002 0.494865 0.083452
0.752878 0.494004 0.082400
0.783753 0.493143 0.081348
0.814629 0.492283 0.080297
0.845505 0.491422 0.079245
0.876381 0.490561 0.078194
0.907257 0.489701 0.077142
0.938133 0.488840 0.076090
0.969009 0.487979 0.075039
0.999885 0.487119 0.073987
1.000000 0.486258 0.072936
1.000000 0.485397 0.071884
1.000000 0.484537 0.070832
0.102534 0.540636 0.102534
0.133410 0.539776 0.101482
0.164286 0.538915 0.100431
0.195162 0.538054 0.099379
0.226037 0.537194 0.098328
0.256913 0.536333 0.097276
0.287789 0.535472 0.096224
0.318665 0.534612 0.095173
0.349541 0.533751 0.094121
0.380417 0.532890 0.093069
0.411293 0.532029 0.092018
0.442169 0.531169 0.090966
0.473045 0.530308 0.089915
0.503921 0.529447 0.088863
0.534797 0.528587 0.087811
0.565672 0.527726 0.086760
0.596548 0.526865 0.085708
0.627424 0.526005 0.084657
0.658300 0.525144 0.083605
0.689176 0.524283 0.082553
0.720052 0.523423 0.081502
0.750928 0.522562 0.080450
0.781804 0.521701 0.079399
0.812680 0.520841 0.078347
0.843555 0.519980 0.077295
0.874431 0.519119 0.076244
0.905307 0.518259 0.075192
0.936183 0.517398 0.074141
0.967059 0.516537 0.073089
0.997935 0.515677 0.072037
1.000000 0.514816 0.070986
1.000000 0.513955 0.069934
1.000000 0.513095 0.068883
0.100584 0.569194 0.100584
0.131460 0.568333 0.099532
0.162336 0.567473 0.098481
0.193212 0.566612 0.097429
0.224088 0.565751 0.096378
0.254964 0.564891 0.095326
0.285839 0.564030 0.094274
0.316715 0.563169 0.093223
0.347591 0.562309 0.092171
0.378467 0.561448 0.091120
0.409343 0.560587 0.090068
0.440219 0.559727 0.089016
0.471095 0.558866 0.087965
0.501971 0.558005 0.086913
0.532847 0.557145 0.085862
0.563723 0.556284 0.084810
0.594598 0.555423 0.083758
0.625474 0.554563 0.082707
0.656350 0.553702 0.081655
0.687226 0.552841 0.080604
0.718102 0.551981 0.079552
0.748978 0.551120 0.078500
0.779854 0.550259 0.077449
0.810730 0.549399 0.076397
0.841606 0.548538 0.075346
0.872482 0.547677 0.074294
0.903357 0.546816 0.073242
0.934233 0.545956 0.072191
0.965109 0.545095 0.071139
0.995985 0.544234 0.070088
1.000000 0.543374 0.069036
1.000000 0.542513 0.067984
1.000000 0.541652 0.066933
0.098634 0.597752 0.098634
0.129510 0.596891 0.097583
0.160386 0.596031 0.096531
0.191262 0.595170 0.095479
0.222138 0.594309 0.094428
0.253014 0.593449 0.093376
0.283890 0.592588 0.092325
0.314766 0.591727 0.091273
0.345641 0.590867 0.090221
0.376517 0.590006 0.089170
0.407393 0.589145 0.088118
0.438269 0.588285 0.087067
0.469145 0.587424 0.086015
0.500021 0.586563 0.084963
0.530897 0.585703 0.083912
0.561773 0.584842 0.082860
0.592649 0.583981 0.081809
0.623525 0.583121 0.080757
0.654400 0.582260 0.079705
0.685276 0.581399 0.078654
0.716152 0.580539 0.077602
0.747028 0.579678 0.076551
0.777904 0.578817 0.075499
0.808780 0.577956 0.074447
0.839656 0.577096 0.073396
0.870532 0.576235 0.072344
0.901408 0.575374 0.071293
0.932283 0.574514 0.070241
0.963159 0.573653 0.069189
0.994035 0.572792 0.068138
1.000000 0.571932 0.067086
1.000000 0.571071 0.066035
1.000000 0.570210 0.064983
0.096684 0.626310 0.096684
0.127560 0.625449 0.095633
0.158436 0.624589 0.094581
0.189312 0.623728 0.093530
0.220188 0.622867 0.092478
0.251064 0.622007 0.091426
0.281940 0.621146 0.090375
0.312816 0.620285 0.089323
0.343692 0.619425 0.088272
0.374568 0.618564 0.087220
0.405443 0.617703 0.086168
0.436319 0.616843 0.085117
0.467195 0.615982 0.084065
0.498071 0.615121 0.083014
0.528947 0.614261 0.081962
0.559823 0.613400 0.080910
0.590699 0.612539 0.079859
0.621575 0.611679 0.078807
0.652451 0.610818 0.077756
0.683326 0.609957 0.076704
0.714202 0.609096 0.075652
0.745078 0.608236 0.074601
0.775954 0.607375 0.073549
0.806830 0.606514 0.072498
0.837706 0.605654 0.071446
0.868582 0.604793 0.070394
0.899458 0.603932 0.069343
0.930334 0.603072 0.068291
0.961210 0.602211 0.067239
0.992085 0.601350 0.066188
1.000000 0.600490 0.065136
1.000000 0.599629 0.064085
1.000000 0.598768 0.063033
0.094735 0.654868 0.094735
0.125611 0.654007 0.093683
0.156486 0.653147 0.092631
0.187362 0.652286 0.091580
0.218238 0.651425 0.090528
0.249114 0.650565 0.089477
0.279990 0.649704 0.088425
0.310866 0.648843 0.087373
0.341742 0.647982 0.086322
0.372618 0.647122 0.085270
0.403494 0.646261 0.084219
0.434369 0.645400 0.083167
0.465245 0.644540 0.082115
0.496121 0.643679 0.081064
0.526997 0.642818 0.080012
0.557873 0.641958 0.078961
0.588749 0.641097 0.077909
0.619625 0.640236 0.076857
0.650501 0.639376 0.075806
0.681377 0.638515 0.074754
0.712253 0.637654 0.073703
0.743128 0.636794 0.072651
0.774004 0.635933 0.071599
0.804880 0.635072 0.070548
0.835756 0.634212 0.069496
0.866632 0.633351 0.068444
0.897508 0.632490 0.067393
0.928384 0.631630 0.066341
0.959260 0.630769 0.065290
0.990136 0.629908 0.064238
1.000000 0.629048 0.063186
1.000000 0.628187 0.062135
1.000000 0.627326 0.061083
0.092785 0.683426 0.092785
0.123661 0.682565 0.091733
0.154537 0.681705 0.090682
0.185412 0.680844 0.089630
0.216288 0.679983 0.088578
0.247164 0.679122 0.087527
0.278040 0.678262 0.086475
0.308916 0.677401 0.085424
0.339792 0.676540 0.084372
0.370668 0.675680 0.083320
0.401544 0.674819 0.082269
0.432420 0.673958 0.081217
0.463296 0.673098 0.080166
0.494171 0.672237 0.079114
0.525047 0.671376 0.078062
0.555923 0.670516 0.077011
0.586799 0.669655 0.075959
0.617675 0.668794 0.074907
0.648551 0.667934 0.073856
0.679427 0.667073 0.072804
0.710303 0.666212 0.071753
0.741179 0.665352 0.070701
0.772054 0.664491 0.069649
0.802930 0.663630 0.068598
0.833806 0.662770 0.067546
0.864682 0.661909 0.066495
0.895558 0.661048 0.065443
0.926434 0.660188 0.064391
0.957310 0.659327 0.063340
0.988186 0.658466 0.062288
1.000000 0.657606 0.061237
1.000000 0.656745 0.060185
1.000000 0.655884 0.059133
0.090835 0.711984 0.090835
0.121711 0.711123 0.089783
0.152587 0.710262 0.088732
0.183463 0.709402 0.087680
0.214339 0.708541 0.086629
0.245214 0.707680 0.085577
0.276090 0.706820 0.084525
0.306966 0.705959 0.083474
0.337842 0.705098 0.082422
0.368718 0.704238 0.081371
0.399594 0.703377 0.080319
0.430470 0.702516 0.079267
0.461346 0.701656 0.078216
0.492222 0.700795 0.077164
0.523098 0.699934 0.076112
0.553973 0.699074 0.075061
0.584849 0.698213 0.074009
0.615725 0.697352 0.072958
0.646601 0.696492 0.071906
0.677477 0.695631 0.070854
0.708353 0.694770 0.069803
0.739229 0.693910 0.068751
0.770105 0.693049 0.067700
0.800981 0.692188 0.066648
0.831856 0.691328 0.065596
0.862732 0.690467 0.064545
0.893608 0.689606 0.063493
0.924484 0.688746 0.062442
0.955360 0.687885 0.061390
0.986236 0.687024 0.060338
1.000000 0.686163 0.059287
1.000000 0.685303 0.058235
1.000000 0.684442 0.057184
0.088885 0.740542 0.088885
0.119761 0.739681 0.087834
0.150637 0.738820 0.086782
0.181513 0.737960 0.085730
0.212389 0.737099 0.084679
0.243265 0.736238 0.083627
0.274141 0.735378 0.082576
0.305016 0.734517 0.081524
0.335892 0.733656 0.080472
0.366768 0.732796 0.079421
0.397644 0.731935 0.078369
0.428520 0.731074 0.077317
0.459396 0.730214 0.076266
0.490272 0.729353 0.075214
0.521148 0.728492 0.074163
0.552024 0.727631 0.073111
0.582899 0.726771 0.072059
0.613775 0.725910 0.071008
0.644651 0.725049 0.069956
0.675527 0.724189 0.068905
0.706403 0.723328 0.067853
0.737279 0.722467 0.066801
0.768155 0.721607 0.065750
0.799031 0.720746 0.064698
0.829907 0.719885 0.063647
0.860783 0.719025 0.062595
0.891658 0.718164 0.061543
0.922534 0.717303 0.060492
0.953410 0.716443 0.059440
0.984286 0.715582 0.058389
1.000000 0.714721 0.057337
1.000000 0.713861 0.056285
1.000000 0.713000 0.055234
0.086935 0.769100 0.086935
0.117811 0.768239 0.085884
0.148687 0.767378 0.084832
0.179563 0.766518 0.083780
0.210439 0.765657 0.082729
0.241315 0.764796 0.081677
0.272191 0.763936 0.080626
0.303067 0.763075 0.079574
0.333942 0.762214 0.078522
0.364818 0.761354 0.077471
0.395694 0.760493 0.076419
0.426570 0.759632 0.075368
0.457446 0.758771 0.074316
0.488322 0.757911 0.073264
0.519198 0.757050 0.072213
0.550074 0.756189 0.071161
0.580950 0.755329 0.070110
0.611826 0.754468 0.069058
0.642701 0.753607 0.068006
0.673577 0.752747 0.066955
0.704453 0.751886 0.065903
0.735329 0.751025 0.064852
0.766205 0.750165 0.063800
0.797081 0.749304 0.062748
0.827957 0.748443 0.061697
0.858833 0.747583 0.060645
0.889709 0.746722 0.059594
0.920585 0.745861 0.058542
0.951460 0.745001 0.057490
0.982336 0.744140 0.056439
1.000000 0.743279 0.055387
1.000000 0.742419 0.054336
1.000000 0.741558 0.053284
0.084985 0.797658 0.084985
0.115861 0.796797 0.083934
0.146737 0.795936 0.082882
0.177613 0.795076 0.081831
0.208489 0.794215 0.080779
0.239365 0.793354 0.079727
0.270241 0.792494 0.078676
0.301117 0.791633 0.077624
0.331993 0.790772 0.076573
0.362869 0.789911 0.075521
0.393744 0.789051 0.074469
0.424620 0.788190 0.073418
0.455496 0.787329 0.072366
0.486372 0.786469 0.071315
0.517248 0.785608 0.070263
0.548124 0.784747 0.069211
0.579000 0.783887 0.068160
0.609876 0.783026 0.067108
0.640752 0.782165 0.066057
0.671627 0.781305 0.065005
0.702503 0.780444 0.063953
0.733379 0.779583 0.062902
0.764255 0.778723 0.061850
0.795131 0.777862 0.060799
0.826007 0.777001 0.059747
0.856883 0.776141 0.058695
0.887759 0.775280 0.057644
0.918635 0.774419 0.056592
0.949511 0.773559 0.055541
0.980386 0.772698 0.054489
1.000000 0.771837 0.053437
1.000000 0.770977 0.052386
1.000000 0.770116 0.051334
0.083036 0.826216 0.083036
0.113912 0.825355 0.081984
0.144787 0.824494 0.080932
0.175663 0.823634 0.079881
0.206539 0.822773 0.078829
0.237415 0.821912 0.077778
0.268291 0.821051 0.076726
0.299167 0.820191 0.075674
0.330043 0.819330 0.074623
0.360919 0.818469 0.073571
0.391795 0.817609 0.072520
0.422670 0.816748 0.071468
0.453546 0.815887 0.070416
0.484422 0.815027 0.069365
0.515298 0.814166 0.068313
0.546174 0.813305 0.067262
0.577050 0.812445 0.066210
0.607926 0.811584 0.065158
0.638802 0.810723 0.064107
0.669678 0.809863 0.063055
0.700554 0.809002 0.062004
0.731429 0.808141 0.060952
0.762305 0.807281 0.059900
0.793181 0.806420 0.058849
0.824057 0.805559 0.057797
0.854933 0.804699 0.056746
0.885809 0.803838 0.055694
0.916685 0.802977 0.054642
0.947561 0.802117 0.053591
0.978437 0.801256 0.052539
1.000000 0.800395 0.051487
1.000000 0.799535 0.050436
1.000000 0.798674 0.049384
0.081086 0.854773 0.081086
0.111962 0.853913 0.080034
0.142838 0.853052 0.078983
0.173714 0.852191 0.077931
0.204589 0.851331 0.076879
0.235465 0.850470 0.075828
0.266341 0.849609 0.074776
0.297217 0.848749 0.073725
0.328093 0.847888 0.072673
0.358969 0.847027 0.071621
0.389845 0.846167 0.070570
0.420721 0.845306 0.069518
0.451597 0.844445 0.068467
0.482472 0.843585 0.067415
0.513348 0.842724 0.066363
0.544224 0.841863 0.065312
0.575100 0.841003 0.064260
0.605976 0.840142 0.063209
0.636852 0.839281 0.062157
0.667728 0.838421 0.061105
0.698604 0.837560 0.060054
0.729480 0.836699 0.059002
0.760356 0.835839 0.057951
0.791231 0.834978 0.056899
0.822107 0.834117 0.055847
0.852983 0.833256 0.054796
0.883859 0.832396 0.053744
0.914735 0.831535 0.052692
0.945611 0.830674 0.051641
