assets/luts/primelive_jing_baixi.cube
TITLE "primelive_jing_baixi"
LUT_3D_SIZE 9
0.140000 0.140000 0.140000
0.257163 0.138971 0.138971
0.374326 0.137941 0.137941
0.491490 0.136912 0.136912
0.608653 0.135883 0.135883
0.725816 0.134853 0.134853
0.842979 0.133824 0.133824
0.960142 0.132795 0.132795
1.000000 0.131766 0.131766
0.137920 0.259589 0.137920
0.255083 0.258559 0.136891
0.372246 0.257530 0.135861
0.489409 0.256501 0.134832
0.606573 0.255471 0.133803
0.723736 0.254442 0.132773
0.840899 0.253413 0.131744
0.958062 0.252383 0.130715
1.000000 0.251354 0.129685
0.135840 0.379177 0.135840
0.253003 0.378148 0.134810
0.370166 0.377118 0.133781
0.487329 0.376089 0.132752
0.604492 0.375060 0.131722
0.721656 0.374031 0.130693
0.838819 0.373001 0.129664
0.955982 0.371972 0.128635
1.000000 0.370943 0.127605
0.133759 0.498766 0.133759
0.250923 0.497736 0.132730
0.368086 0.496707 0.131701
0.485249 0.495678 0.130672
0.602412 0.494648 0.129642
0.719575 0.493619 0.128613
0.836739 0.492590 0.127584
0.953902 0.491561 0.126554
1.000000 0.490531 0.125525
0.131679 0.618354 0.131679
0.248842 0.617325 0.130650
0.366006 0.616296 0.129621
0.483169 0.615266 0.128591
0.600332 0.614237 0.127562
0.717495 0.613208 0.126533
0.834658 0.612178 0.125503
0.951822 0.611149 0.124474
1.000000 0.610120 0.123445
0.129599 0.737943 0.129599
0.246762 0.736914 0.128570
0.363925 0.735884 0.127540
0.481089 0.734855 0.126511
0.598252 0.733826 0.125482
0.715415 0.732796 0.124453
0.832578 0.731767 0.123423
0.949741 0.730738 0.122394
1.000000 0.729708 0.121365
0.127519 0.857531 0.127519
0.244682 0.856502 0.126490
0.361845 0.855473 0.125460
0.479008 0.854443 0.124431
0.596172 0.853414 0.123402
0.713335 0.852385 0.122372
0.830498 0.851356 0.121343
0.947661 0.850326 0.120314
1.000000 0.849297 0.119284
0.125439 0.977120 0.125439
0.242602 0.976091 0.124409
0.359765 0.975061 0.123380
0.476928 0.974032 0.122351
0.594091 0.973003 0.121322
0.711255 0.971973 0.120292
0.828418 0.970944 0.119263
0.945581 0.969915 0.118234
1.000000 0.968885 0.117204
0.123359 1.000000 0.123359
0.240522 1.000000 0.122329
0.357685 1.000000 0.121300
0.474848 1.000000 0.120271
0.592011 1.000000 0.119241
0.709175 1.000000 0.118212
0.826338 1.000000 0.117183
0.943501 1.000000 0.116153
1.000000 1.000000 0.115124
0.139577 0.139577 0.267039
0.256740 0.138547 0.266010
0.373903 0.137518 0.264981
0.491066 0.136489 0.263951
0.608230 0.135460 0.262922
0.725393 0.134430 0.261893
0.842556 0.133401 0.260863
0.959719 0.132372 0.259834
1.000000 0.131342 0.258805
0.137497 0.259165 0.264959
0.254660 0.258136 0.263930
0.371823 0.257107 0.262900
0.488986 0.256077 0.261871
0.606149 0.255048 0.260842
0.723313 0.254019 0.259813
0.840476 0.252990 0.258783
0.957639 0.251960 0.257754
1.000000 0.250931 0.256725
0.135416 0.378754 0.262879
0.252580 0.377725 0.261850
0.369743 0.376695 0.260820
0.486906 0.375666 0.259791
0.604069 0.374637 0.258762
0.721232 0.373607 0.257732
0.838396 0.372578 0.256703
0.955559 0.371549 0.255674
1.000000 0.370519 0.254644
0.133336 0.498342 0.260799
0.250499 0.497313 0.259769
0.367663 0.496284 0.258740
0.484826 0.495255 0.257711
0.601989 0.494225 0.256682
0.719152 0.493196 0.255652
0.836315 0.492167 0.254623
0.953479 0.491137 0.253594
1.000000 0.490108 0.252564
0.131256 0.617931 0.258719
0.248419 0.616902 0.257689
0.365582 0.615872 0.256660
0.482746 0.614843 0.255631
0.599909 0.613814 0.254601
0.717072 0.612785 0.253572
0.834235 0.611755 0.252543
0.951398 0.610726 0.251513
1.000000 0.609697 0.250484
0.129176 0.737520 0.256638
0.246339 0.736490 0.255609
0.363502 0.735461 0.254580
0.480665 0.734432 0.253550
0.597829 0.733402 0.252521
0.714992 0.732373 0.251492
0.832155 0.731344 0.250463
0.949318 0.730314 0.249433
1.000000 0.729285 0.248404
0.127096 0.857108 0.254558
0.244259 0.856079 0.253529
0.361422 0.855050 0.252500
0.478585 0.854020 0.251470
0.595748 0.852991 0.250441
0.712912 0.851962 0.249412
0.830075 0.850932 0.248382
0.947238 0.849903 0.247353
1.000000 0.848874 0.246324
0.125016 0.976697 0.252478
0.242179 0.975667 0.251449
0.359342 0.974638 0.250419
0.476505 0.973609 0.249390
0.593668 0.972579 0.248361
0.710831 0.971550 0.247331
0.827995 0.970521 0.246302
0.945158 0.969492 0.245273
1.000000 0.968462 0.244244
0.122935 1.000000 0.250398
0.240099 1.000000 0.249369
0.357262 1.000000 0.248339
0.474425 1.000000 0.247310
0.591588 1.000000 0.246281
0.708751 1.000000 0.245251
0.825915 1.000000 0.244222
0.943078 1.000000 0.243193
1.000000 1.000000 0.242163
0.139154 0.139154 0.394079
0.256317 0.138124 0.393049
0.373480 0.137095 0.392020
0.490643 0.136066 0.390991
0.607806 0.135036 0.389961
0.724970 0.134007 0.388932
0.842133 0.132978 0.387903
0.959296 0.131948 0.386873
1.000000 0.130919 0.385844
0.137073 0.258742 0.391998
0.254237 0.257713 0.390969
0.371400 0.256684 0.389940
0.488563 0.255654 0.388910
0.605726 0.254625 0.387881
0.722889 0.253596 0.386852
0.840053 0.252566 0.385823
0.957216 0.251537 0.384793
1.000000 0.250508 0.383764
0.134993 0.378331 0.389918
0.252156 0.377301 0.388889
0.369320 0.376272 0.387860
0.486483 0.375243 0.386830
0.603646 0.374213 0.385801
0.720809 0.373184 0.384772
0.837972 0.372155 0.383742
0.955136 0.371126 0.382713
1.000000 0.370096 0.381684
0.132913 0.497919 0.387838
0.250076 0.496890 0.386809
0.367239 0.495861 0.385779
0.484403 0.494831 0.384750
0.601566 0.493802 0.383721
0.718729 0.492773 0.382691
0.835892 0.491743 0.381662
0.953055 0.490714 0.380633
1.000000 0.489685 0.379604
0.130833 0.617508 0.385758
0.247996 0.616479 0.384729
0.365159 0.615449 0.383699
0.482322 0.614420 0.382670
0.599486 0.613391 0.381641
0.716649 0.612361 0.380611
0.833812 0.611332 0.379582
0.950975 0.610303 0.378553
1.000000 0.609273 0.377523
0.128753 0.737096 0.383678
0.245916 0.736067 0.382648
0.363079 0.735038 0.381619
0.480242 0.734009 0.380590
0.597405 0.732979 0.379560
0.714569 0.731950 0.378531
0.831732 0.730921 0.377502
0.948895 0.729891 0.376472
1.000000 0.728862 0.375443
0.126672 0.856685 0.381597
0.243836 0.855656 0.380568
0.360999 0.854626 0.379539
0.478162 0.853597 0.378510
0.595325 0.852568 0.377480
0.712488 0.851538 0.376451
0.829652 0.850509 0.375422
0.946815 0.849480 0.374392
1.000000 0.848450 0.373363
0.124592 0.976273 0.379517
0.241755 0.975244 0.378488
0.358919 0.974215 0.377459
0.476082 0.973186 0.376429
0.593245 0.972156 0.375400
0.710408 0.971127 0.374371
0.827571 0.970098 0.373341
0.944735 0.969068 0.372312
1.000000 0.968039 0.371283
0.122512 1.000000 0.377437
0.239675 1.000000 0.376408
0.356838 1.000000 0.375378
0.474002 1.000000 0.374349
0.591165 1.000000 0.373320
0.708328 1.000000 0.372291
0.825491 1.000000 0.371261
0.942654 1.000000 0.370232
1.000000 1.000000 0.369203
0.138730 0.138730 0.521118
0.255894 0.137701 0.520089
0.373057 0.136672 0.519059
0.490220 0.135642 0.518030
0.607383 0.134613 0.517001
0.724546 0.133584 0.515971
0.841710 0.132554 0.514942
0.958873 0.131525 0.513913
1.000000 0.130496 0.512883
0.136650 0.258319 0.519038
0.253813 0.257290 0.518008
0.370977 0.256260 0.516979
0.488140 0.255231 0.515950
0.605303 0.254202 0.514920
0.722466 0.253172 0.513891
0.839629 0.252143 0.512862
0.956792 0.251114 0.511833
1.000000 0.250084 0.510803
0.134570 0.377907 0.516957
0.251733 0.376878 0.515928
0.368896 0.375849 0.514899
0.486060 0.374820 0.513870
0.603223 0.373790 0.512840
0.720386 0.372761 0.511811
0.837549 0.371732 0.510782
0.954712 0.370702 0.509752
1.000000 0.369673 0.508723
0.132490 0.497496 0.514877
0.249653 0.496467 0.513848
0.366816 0.495437 0.512819
0.483979 0.494408 0.511789
0.601143 0.493379 0.510760
0.718306 0.492349 0.509731
0.835469 0.491320 0.508701
0.952632 0.490291 0.507672
1.000000 0.489262 0.506643
0.130410 0.617085 0.512797
0.247573 0.616055 0.511768
0.364736 0.615026 0.510739
0.481899 0.613997 0.509709
0.599062 0.612967 0.508680
0.716226 0.611938 0.507651
0.833389 0.610909 0.506621
0.950552 0.609879 0.505592
1.000000 0.608850 0.504563
0.128329 0.736673 0.510717
0.245493 0.735644 0.509688
0.362656 0.734615 0.508658
0.479819 0.733585 0.507629
0.596982 0.732556 0.506600
0.714145 0.731527 0.505570
0.831309 0.730497 0.504541
0.948472 0.729468 0.503512
1.000000 0.728439 0.502482
0.126249 0.856262 0.508637
0.243412 0.855232 0.507607
0.360576 0.854203 0.506578
0.477739 0.853174 0.505549
0.594902 0.852145 0.504520
0.712065 0.851115 0.503490
0.829228 0.850086 0.502461
0.946392 0.849057 0.501432
1.000000 0.848027 0.500402
0.124169 0.975850 0.506557
0.241332 0.974821 0.505527
0.358495 0.973792 0.504498
0.475659 0.972762 0.503469
0.592822 0.971733 0.502439
0.709985 0.970704 0.501410
0.827148 0.969674 0.500381
0.944311 0.968645 0.499351
1.000000 0.967616 0.498322
0.122089 1.000000 0.504476
0.239252 1.000000 0.503447
0.356415 1.000000 0.502418
0.473578 1.000000 0.501388
0.590742 1.000000 0.500359
0.707905 1.000000 0.499330
0.825068 1.000000 0.498301
0.942231 1.000000 0.497271
1.000000 1.000000 0.496242
0.138307 0.138307 0.648157
0.255470 0.137278 0.647128
0.372633 0.136249 0.646099
0.489797 0.135219 0.645069
0.606960 0.134190 0.644040
0.724123 0.133161 0.643011
0.841286 0.132131 0.641981
0.958449 0.131102 0.640952
1.000000 0.130073 0.639923
0.136227 0.257896 0.646077
0.253390 0.256866 0.645048
0.370553 0.255837 0.644018
0.487716 0.254808 0.642989
0.604880 0.253778 0.641960
0.722043 0.252749 0.640930
0.839206 0.251720 0.639901
0.956369 0.250691 0.638872
1.000000 0.249661 0.637843
0.134147 0.377484 0.643997
0.251310 0.376455 0.642967
0.368473 0.375426 0.641938
0.485636 0.374396 0.640909
0.602799 0.373367 0.639880
0.719963 0.372338 0.638850
0.837126 0.371308 0.637821
0.954289 0.370279 0.636792
1.000000 0.369250 0.635762
0.132067 0.497073 0.641917
0.249230 0.496043 0.640887
0.366393 0.495014 0.639858
0.483556 0.493985 0.638829
0.600719 0.492956 0.637799
0.717883 0.491926 0.636770
0.835046 0.490897 0.635741
0.952209 0.489868 0.634711
1.000000 0.488838 0.633682
0.129986 0.616661 0.639836
0.247150 0.615632 0.638807
0.364313 0.614603 0.637778
0.481476 0.613573 0.636749
0.598639 0.612544 0.635719
0.715802 0.611515 0.634690
0.832966 0.610486 0.633661
0.950129 0.609456 0.632631
1.000000 0.608427 0.631602
0.127906 0.736250 0.637756
0.245069 0.735221 0.636727
0.362233 0.734191 0.635698
0.479396 0.733162 0.634668
0.596559 0.732133 0.633639
0.713722 0.731103 0.632610
0.830885 0.730074 0.631580
0.948049 0.729045 0.630551
1.000000 0.728016 0.629522
0.125826 0.855839 0.635676
0.242989 0.854809 0.634647
0.360152 0.853780 0.633617
0.477316 0.852751 0.632588
0.594479 0.851721 0.631559
0.711642 0.850692 0.630530
0.828805 0.849663 0.629500
0.945968 0.848633 0.628471
1.000000 0.847604 0.627442
0.123746 0.975427 0.633596
0.240909 0.974398 0.632567
0.358072 0.973368 0.631537
0.475235 0.972339 0.630508
0.592399 0.971310 0.629479
0.709562 0.970281 0.628449
0.826725 0.969251 0.627420
0.943888 0.968222 0.626391
1.000000 0.967193 0.625361
0.121666 1.000000 0.631516
0.238829 1.000000 0.630486
0.355992 1.000000 0.629457
0.473155 1.000000 0.628428
0.590318 1.000000 0.627398
0.707482 1.000000 0.626369
0.824645 1.000000 0.625340
0.941808 1.000000 0.624311
1.000000 1.000000 0.623281
0.137884 0.137884 0.775196
0.255047 0.136855 0.774167
0.372210 0.135825 0.773138
0.489373 0.134796 0.772108
0.606537 0.133767 0.771079
0.723700 0.132737 0.770050
0.840863 0.131708 0.769021
0.958026 0.130679 0.767991
1.000000 0.129649 0.766962
0.135804 0.257472 0.773116
0.252967 0.256443 0.772087
0.370130 0.255414 0.771058
0.487293 0.254385 0.770028
0.604456 0.253355 0.768999
0.721620 0.252326 0.767970
0.838783 0.251297 0.766940
0.955946 0.250267 0.765911
1.000000 0.249238 0.764882
0.133724 0.377061 0.771036
0.250887 0.376032 0.770007
0.368050 0.375002 0.768977
0.485213 0.373973 0.767948
0.602376 0.372944 0.766919
0.719539 0.371914 0.765889
0.836703 0.370885 0.764860
0.953866 0.369856 0.763831
1.000000 0.368827 0.762802
0.131643 0.496650 0.768956
0.248807 0.495620 0.767927
0.365970 0.494591 0.766897
0.483133 0.493562 0.765868
0.600296 0.492532 0.764839
0.717459 0.491503 0.763809
0.834623 0.490474 0.762780
0.951786 0.489444 0.761751
1.000000 0.488415 0.760721
0.129563 0.616238 0.766876
0.246726 0.615209 0.765846
0.363890 0.614180 0.764817
0.481053 0.613150 0.763788
0.598216 0.612121 0.762758
0.715379 0.611092 0.761729
0.832542 0.610062 0.760700
0.949705 0.609033 0.759671
1.000000 0.608004 0.758641
0.127483 0.735827 0.764795
0.244646 0.734797 0.763766
0.361809 0.733768 0.762737
0.478973 0.732739 0.761708
0.596136 0.731710 0.760678
0.713299 0.730680 0.759649
0.830462 0.729651 0.758620
0.947625 0.728622 0.757590
1.000000 0.727592 0.756561
0.125403 0.855415 0.762715
0.242566 0.854386 0.761686
0.359729 0.853357 0.760657
0.476892 0.852327 0.759627
0.594056 0.851298 0.758598
0.711219 0.850269 0.757569
0.828382 0.849239 0.756539
0.945545 0.848210 0.755510
1.000000 0.847181 0.754481
0.123323 0.975004 0.760635
0.240486 0.973975 0.759606
0.357649 0.972945 0.758577
0.474812 0.971916 0.757547
0.591975 0.970887 0.756518
0.709139 0.969857 0.755489
0.826302 0.968828 0.754459
0.943465 0.967799 0.753430
1.000000 0.966769 0.752401
0.121242 1.000000 0.758555
0.238406 1.000000 0.757526
0.355569 1.000000 0.756496
0.472732 1.000000 0.755467
0.589895 1.000000 0.754438
0.707058 1.000000 0.753408
0.824222 1.000000 0.752379
0.941385 1.000000 0.751350
1.000000 1.000000 0.750320
0.137461 0.137461 0.902236
0.254624 0.136431 0.901206
0.371787 0.135402 0.900177
0.488950 0.134373 0.899148
0.606113 0.133343 0.898118
0.723277 0.132314 0.897089
0.840440 0.131285 0.896060
0.957603 0.130256 0.895031
1.000000 0.129226 0.894001
0.135380 0.257049 0.900156
0.252544 0.256020 0.899126
0.369707 0.254991 0.898097
0.486870 0.253961 0.897068
0.604033 0.252932 0.896038
0.721196 0.251903 0.895009
0.838360 0.250873 0.893980
0.955523 0.249844 0.892950
1.000000 0.248815 0.891921
0.133300 0.376638 0.898075
0.250463 0.375608 0.897046
0.367627 0.374579 0.896017
0.484790 0.373550 0.894987
0.601953 0.372521 0.893958
0.719116 0.371491 0.892929
0.836279 0.370462 0.891899
0.953443 0.369433 0.890870
1.000000 0.368403 0.889841
0.131220 0.496226 0.895995
0.248383 0.495197 0.894966
0.365546 0.494168 0.893937
0.482710 0.493138 0.892907
0.599873 0.492109 0.891878
0.717036 0.491080 0.890849
0.834199 0.490051 0.889819
0.951362 0.489021 0.888790
1.000000 0.487992 0.887761
0.129140 0.615815 0.893915
0.246303 0.614786 0.892886
0.363466 0.613756 0.891856
0.480629 0.612727 0.890827
0.597793 0.611698 0.889798
0.714956 0.610668 0.888768
0.832119 0.609639 0.887739
0.949282 0.608610 0.886710
1.000000 0.607580 0.885681
0.127060 0.735404 0.891835
0.244223 0.734374 0.890805
0.361386 0.733345 0.889776
0.478549 0.732316 0.888747
0.595712 0.731286 0.887718
0.712876 0.730257 0.886688
0.830039 0.729228 0.885659
0.947202 0.728198 0.884630
1.000000 0.727169 0.883600
0.124980 0.854992 0.889755
0.242143 0.853963 0.888725
0.359306 0.852933 0.887696
0.476469 0.851904 0.886667
0.593632 0.850875 0.885637
0.710796 0.849846 0.884608
0.827959 0.848816 0.883579
0.945122 0.847787 0.882549
1.000000 0.846758 0.881520
0.122899 0.974581 0.887674
0.240063 0.973551 0.886645
0.357226 0.972522 0.885616
0.474389 0.971493 0.884587
0.591552 0.970463 0.883557
0.708715 0.969434 0.882528
0.825879 0.968405 0.881499
0.943042 0.967375 0.880469
1.000000 0.966346 0.879440
0.120819 1.000000 0.885594
0.237982 1.000000 0.884565
0.355146 1.000000 0.883536
0.472309 1.000000 0.882506
0.589472 1.000000 0.881477
0.706635 1.000000 0.880448
0.823798 1.000000 0.879418
0.940962 1.000000 0.878389
1.000000 1.000000 0.877360
0.137037 0.137037 1.000000
0.254201 0.136008 1.000000
0.371364 0.134979 1.000000
0.488527 0.133950 1.000000
0.605690 0.132920 1.000000
0.722853 0.131891 1.000000
0.840017 0.130862 1.000000
0.957180 0.129832 1.000000
1.000000 0.128803 1.000000
0.134957 0.256626 1.000000
0.252120 0.255597 1.000000
0.369284 0.254567 1.000000
0.486447 0.253538 1.000000
0.603610 0.252509 1.000000
0.720773 0.251479 1.000000
0.837936 0.250450 1.000000
0.955100 0.249421 1.000000
1.000000 0.248392 1.000000
0.132877 0.376215 1.000000
0.250040 0.375185 1.000000
0.367203 0.374156 1.000000
0.484367 0.373127 1.000000
0.601530 0.372097 1.000000
0.718693 0.371068 1.000000
0.835856 0.370039 1.000000
0.953019 0.369009 1.000000
1.000000 0.367980 1.000000
0.130797 0.495803 1.000000
0.247960 0.494774 1.000000
0.365123 0.493745 1.000000
0.482286 0.492715 1.000000
0.599450 0.491686 1.000000
0.716613 0.490657 1.000000
0.833776 0.489627 1.000000
0.950939 0.488598 1.000000
1.000000 0.487569 1.000000
0.128717 0.615392 1.000000
0.245880 0.614362 1.000000
0.363043 0.613333 1.000000
0.480206 0.612304 1.000000
0.597369 0.611274 1.000000
0.714533 0.610245 1.000000
0.831696 0.609216 1.000000
0.948859 0.608187 1.000000
1.000000 0.607157 1.000000
0.126637 0.734980 1.000000
0.243800 0.733951 1.000000
0.360963 0.732922 1.000000
0.478126 0.731892 1.000000
0.595289 0.730863 1.000000
0.712452 0.729834 1.000000
0.829616 0.728804 1.000000
0.946779 0.727775 1.000000
1.000000 0.726746 1.000000
0.124556 0.854569 1.000000
0.241720 0.853540 1.000000
0.358883 0.852510 1.000000
0.476046 0.851481 1.000000
0.593209 0.850452 1.000000
0.710372 0.849422 1.000000
0.827536 0.848393 1.000000
0.944699 0.847364 1.000000
1.000000 0.846334 1.000000
0.122476 0.974157 1.000000
0.239639 0.973128 1.000000
0.356803 0.972099 1.000000
0.473966 0.971069 1.000000
0.591129 0.970040 1.000000
0.708292 0.969011 1.000000
0.825455 0.967982 1.000000
0.942619 0.966952 1.000000
1.000000 0.965923 1.000000
0.120396 1.000000 1.000000
0.237559 1.000000 1.000000
0.354722 1.000000 1.000000
0.471886 1.000000 1.000000
0.589049 1.000000 1.000000
0.706212 1.000000 1.000000
0.823375 1.000000 1.000000
0.940538 1.000000 1.000000
1.000000 1.000000 1.000000
0.136614 0.136614 1.000000
0.253777 0.135585 1.000000
0.370941 0.134556 1.000000
0.488104 0.133526 1.000000
0.605267 0.132497 1.000000
0.722430 0.131468 1.000000
0.839593 0.130438 1.000000
0.956757 0.129409 1.000000
1.000000 0.128380 1.000000
0.134534 0.256203 1.000000
0.251697 0.255173 1.000000
0.368860 0.254144 1.000000
0.486024 0.253115 1.000000
0.603187 0.252086 1.000000
0.720350 0.251056 1.000000
0.837513 0.250027 1.000000
0.954676 0.248998 1.000000
1.000000 0.247968 1.000000
0.132454 0.375791 1.000000
0.249617 0.374762 1.000000
0.366780 0.373733 1.000000
0.483943 0.372703 1.000000
0.601107 0.371674 1.000000
0.718270 0.370645 1.000000
0.835433 0.369615 1.000000
0.952596 0.368586 1.000000
1.000000 0.367557 1.000000
0.130374 0.495380 1.000000
0.247537 0.494351 1.000000
0.364700 0.493321 1.000000
0.481863 0.492292 1.000000
0.599026 0.491263 1.000000
0.716190 0.490233 1.000000
0.833353 0.489204 1.000000
0.950516 0.488175 1.000000
1.000000 0.487145 1.000000
0.128293 0.614968 1.000000
0.245457 0.613939 1.000000
0.362620 0.612910 1.000000
0.479783 0.611881 1.000000
0.596946 0.610851 1.000000
0.714109 0.609822 1.000000
0.831273 0.608793 1.000000
0.948436 0.607763 1.000000
1.000000 0.606734 1.000000
0.126213 0.734557 1.000000
0.243376 0.733528 1.000000
0.360540 0.732498 1.000000
0.477703 0.731469 1.000000
0.594866 0.730440 1.000000
0.712029 0.729411 1.000000
0.829192 0.728381 1.000000
0.946356 0.727352 1.000000
1.000000 0.726323 1.000000
0.124133 0.854146 1.000000
0.241296 0.853116 1.000000
0.358459 0.852087 1.000000
0.475623 0.851058 1.000000
0.592786 0.850028 1.000000
0.709949 0.848999 1.000000
0.827112 0.847970 1.000000
0.944275 0.846940 1.000000
1.000000 0.845911 1.000000
0.122053 0.973734 1.000000
0.239216 0.972705 1.000000
0.356379 0.971676 1.000000
0.473542 0.970646 1.000000
0.590706 0.969617 1.000000
0.707869 0.968588 1.000000
0.825032 0.967558 1.000000
0.942195 0.966529 1.000000
1.000000 0.965500 1.000000
0.119973 1.000000 1.000000
0.237136 1.000000 1.000000
0.354299 1.000000 1.000000
0.471462 1.000000 1.000000
0.588625 1.000000 1.000000
0.705789 1.000000 1.000000
0.822952 1.000000 1.000000
0.940115 1.000000 1.000000
1.000000 1.000000 1.000000
