assets/luts/primelive_nuandiao.cube
TITLE "primelive_nuandiao"
LUT_3D_SIZE 5
0.139200 0.139200 0.139200
0.363704 0.137876 0.137876
0.588208 0.136552 0.136552
0.812712 0.135228 0.135228
1.000000 0.133904 0.133904
0.136721 0.352094 0.136721
0.361225 0.350770 0.135397
0.585729 0.349446 0.134073
0.810233 0.348122 0.132749
1.000000 0.346798 0.131425
0.134242 0.564988 0.134242
0.358746 0.563664 0.132918
0.583250 0.562340 0.131594
0.807754 0.561016 0.130270
1.000000 0.559692 0.128946
0.131763 0.777882 0.131763
0.356267 0.776558 0.130439
0.580771 0.775234 0.129115
0.805275 0.773910 0.127791
1.000000 0.772586 0.126467
0.129284 0.990776 0.129284
0.353788 0.989452 0.127960
0.578292 0.988128 0.126636
0.802797 0.986804 0.125312
1.000000 0.985480 0.123989
0.138742 0.138742 0.343660
0.363246 0.137418 0.342336
0.587750 0.136094 0.341012
0.812254 0.134770 0.339688
1.000000 0.133446 0.338364
0.136263 0.351636 0.341181
0.360767 0.350312 0.339857
0.585271 0.348988 0.338533
0.809775 0.347664 0.337209
1.000000 0.346340 0.335885
0.133784 0.564530 0.338702
0.358288 0.563206 0.337378
0.582792 0.561882 0.336054
0.807296 0.560558 0.334730
1.000000 0.559234 0.333406
0.131305 0.777424 0.336223
0.355809 0.776100 0.334899
0.580313 0.774776 0.333575
0.804817 0.773452 0.332251
1.000000 0.772128 0.330927
0.128826 0.990318 0.333744
0.353330 0.988994 0.332420
0.577834 0.987670 0.331096
0.802338 0.986346 0.329772
1.000000 0.985022 0.328448
0.138284 0.138284 0.548120
0.362788 0.136960 0.546796
0.587292 0.135636 0.545472
0.811796 0.134312 0.544148
1.000000 0.132988 0.542824
0.135805 0.351178 0.545641
0.360309 0.349854 0.544317
0.584813 0.348530 0.542993
0.809317 0.347206 0.541669
1.000000 0.345882 0.540345
0.133326 0.564072 0.543162
0.357830 0.562748 0.541838
0.582334 0.561424 0.540514
0.806838 0.560100 0.539190
1.000000 0.558776 0.537866
0.130847 0.776966 0.540683
0.355351 0.775642 0.539359
0.579855 0.774318 0.538035
0.804359 0.772994 0.536711
1.000000 0.771670 0.535387
0.128368 0.989860 0.538204
0.352872 0.988536 0.536880
0.577376 0.987212 0.535556
0.801880 0.985888 0.534232
1.000000 0.984564 0.532908
0.137826 0.137826 0.752580
0.362330 0.136502 0.751256
0.586834 0.135178 0.749932
0.811338 0.133854 0.748608
1.000000 0.132530 0.747284
0.135347 0.350720 0.750101
0.359851 0.349396 0.748777
0.584355 0.348072 0.747453
0.808859 0.346748 0.746129
1.000000 0.345424 0.744805
0.132868 0.563614 0.747622
0.357372 0.562290 0.746298
0.581876 0.560966 0.744974
0.806380 0.559642 0.743650
1.000000 0.558318 0.742326
0.130389 0.776508 0.745143
0.354893 0.775184 0.743819
0.579397 0.773860 0.742495
0.803901 0.772536 0.741171
1.000000 0.771212 0.739847
0.127910 0.989402 0.742664
0.352414 0.988078 0.741340
0.576918 0.986754 0.740016
0.801422 0.985430 0.738692
1.000000 0.984106 0.737368
0.137368 0.137368 0.957040
0.361872 0.136044 0.955716
0.586376 0.134720 0.954392
0.810880 0.133396 0.953068
1.000000 0.132072 0.951744
0.134889 0.350262 0.954561
0.359393 0.348938 0.953237
0.583897 0.347614 0.951913
0.808401 0.346290 0.950589
1.000000 0.344966 0.949265
0.132410 0.563156 0.952082
0.356914 0.561832 0.950758
0.581418 0.560508 0.949434
0.805922 0.559184 0.948110
1.000000 0.557860 0.946786
0.129931 0.776050 0.949603
0.354435 0.774726 0.948279
0.578939 0.773402 0.946955
0.803443 0.772078 0.945631
1.000000 0.770754 0.944307
0.127452 0.988944 0.947124
0.351956 0.987620 0.945800
0.576460 0.986296 0.944476
0.800964 0.984972 0.943152
1.000000 0.983648 0.941828
