assets/luts/primelive_amb_fairytale_soft.cube
TITLE "primelive Fairytale Soft"
LUT_3D_SIZE 5
DOMAIN_MIN 0.0 0.0 0.0
DOMAIN_MAX 1.0 1.0 1.0
0.131798 0.117074 0.125691
0.393779 0.115069 0.123017
0.623273 0.113312 0.120675
0.838902 0.111662 0.118474
1.000000 0.110383 0.116769
0.124825 0.366467 0.116975
0.386806 0.364462 0.114301
0.616300 0.362705 0.111958
0.831929 0.361055 0.109758
0.998962 0.359776 0.108053
0.118710 0.585170 0.109331
0.380691 0.583165 0.106657
0.610185 0.581408 0.104315
0.825814 0.579758 0.102114
0.992847 0.578479 0.100409
0.112963 0.790701 0.102148
0.374944 0.788695 0.099474
0.604438 0.786939 0.097131
0.820067 0.785288 0.094931
0.987100 0.784010 0.093226
0.107787 0.975839 0.095677
0.369768 0.973833 0.093003
0.599262 0.972077 0.090661
0.814891 0.970426 0.088460
0.981924 0.969147 0.086755
0.131113 0.116433 0.373720
0.393094 0.114427 0.371046
0.622588 0.112671 0.368704
0.838217 0.111020 0.366503
1.000000 0.109741 0.364798
0.124140 0.365826 0.365004
0.386121 0.363820 0.362330
0.615615 0.362063 0.359987
0.831244 0.360413 0.357787
0.998277 0.359134 0.356082
0.118025 0.584529 0.357360
0.380007 0.582523 0.354686
0.609500 0.580766 0.352344
0.825129 0.579116 0.350143
0.992162 0.577837 0.348438
0.112279 0.790059 0.350177
0.374260 0.788054 0.347503
0.603754 0.786297 0.345160
0.819383 0.784646 0.342960
0.986416 0.783368 0.341255
0.107102 0.975197 0.343706
0.369083 0.973192 0.341032
0.598577 0.971435 0.338690
0.814206 0.969784 0.336489
0.981239 0.968506 0.334784
0.130512 0.115869 0.591438
0.392494 0.113864 0.588764
0.621987 0.112107 0.586422
0.837617 0.110457 0.584221
1.000000 0.109178 0.582516
0.123539 0.365262 0.582722
0.385521 0.363257 0.580048
0.615014 0.361500 0.577705
0.830644 0.359849 0.575504
0.997676 0.358571 0.573800
0.117424 0.583965 0.575078
0.379406 0.581960 0.572404
0.608899 0.580203 0.570062
0.824529 0.578552 0.567861
0.991562 0.577274 0.566156
0.111678 0.789496 0.567895
0.373659 0.787490 0.565221
0.603153 0.785734 0.562878
0.818782 0.784083 0.560678
0.985815 0.782804 0.558973
0.106501 0.974634 0.561424
0.368483 0.972628 0.558750
0.597976 0.970872 0.556408
0.813606 0.969221 0.554207
0.980638 0.967942 0.552502
0.129947 0.115340 0.796079
0.391929 0.113334 0.793405
0.621422 0.111578 0.791063
0.837052 0.109927 0.788862
1.000000 0.108648 0.787157
0.122974 0.364733 0.787362
0.384956 0.362727 0.784689
0.614449 0.360971 0.782346
0.830079 0.359320 0.780145
0.997112 0.358041 0.778441
0.116860 0.583436 0.779719
0.378841 0.581430 0.777045
0.608334 0.579674 0.774703
0.823964 0.578023 0.772502
0.990997 0.576744 0.770797
0.111113 0.788966 0.772536
0.373094 0.786961 0.769862
0.602588 0.785204 0.767519
0.818217 0.783554 0.765319
0.985250 0.782275 0.763614
0.105937 0.974104 0.766065
0.367918 0.972099 0.763391
0.597411 0.970342 0.761049
0.813041 0.968691 0.758848
0.980074 0.967413 0.757143
0.129406 0.114832 0.992378
0.391387 0.112826 0.989704
0.620881 0.111070 0.987362
0.836510 0.109419 0.985161
1.000000 0.108141 0.983456
0.122433 0.364225 0.983662
0.384414 0.362219 0.980988
0.613908 0.360463 0.978646
0.829537 0.358812 0.976445
0.996570 0.357533 0.974740
0.116318 0.582928 0.976018
0.378299 0.580922 0.973344
0.607793 0.579166 0.971002
0.823422 0.577515 0.968801
0.990455 0.576236 0.967096
0.110571 0.788458 0.968835
0.372552 0.786453 0.966161
0.602046 0.784696 0.963819
0.817675 0.783046 0.961618
0.984708 0.781767 0.959913
0.105395 0.973596 0.962364
0.367376 0.971591 0.959691
0.596870 0.969834 0.957348
0.812499 0.968184 0.955147
0.979532 0.966905 0.953443
