assets/luts/primelive_tianxin.cube
TITLE "primelive_tianxin"
LUT_3D_SIZE 5
0.131781 0.112267 0.131781
0.378788 0.105382 0.123368
0.625796 0.098496 0.114956
0.872803 0.091611 0.106543
1.000000 0.084726 0.098130
0.116183 0.340731 0.116183
0.363190 0.333845 0.107770
0.610197 0.326960 0.099357
0.857204 0.320074 0.090944
1.000000 0.313189 0.082531
0.100584 0.569194 0.100584
0.347591 0.562309 0.092171
0.594598 0.555423 0.083758
0.841606 0.548538 0.075346
1.000000 0.541652 0.066933
0.084985 0.797658 0.084985
0.331993 0.790772 0.076573
0.579000 0.783887 0.068160
0.826007 0.777001 0.059747
1.000000 0.770116 0.051334
0.069387 1.000000 0.069387
0.316394 1.000000 0.060974
0.563401 1.000000 0.052561
0.810408 1.000000 0.044148
1.000000 0.998579 0.035735
0.128722 0.109764 0.372317
0.375729 0.102878 0.363904
0.622737 0.095993 0.355492
0.869744 0.089107 0.347079
1.000000 0.082222 0.338666
0.113124 0.338227 0.356719
0.360131 0.331342 0.348306
0.607138 0.324456 0.339893
0.854145 0.317571 0.331480
1.000000 0.310685 0.323067
0.097525 0.566690 0.341120
0.344532 0.559805 0.332707
0.591539 0.552920 0.324294
0.838547 0.546034 0.315881
1.000000 0.539149 0.307469
0.081926 0.795154 0.325521
0.328934 0.788269 0.317109
0.575941 0.781383 0.308696
0.822948 0.774498 0.300283
1.000000 0.767612 0.291870
0.066328 1.000000 0.309923
0.313335 1.000000 0.301510
0.560342 1.000000 0.293097
0.807349 1.000000 0.284684
1.000000 0.996076 0.276271
0.125663 0.107260 0.612853
0.372670 0.100375 0.604440
0.619678 0.093489 0.596027
0.866685 0.086604 0.587615
1.000000 0.079718 0.579202
0.110065 0.335723 0.597255
0.357072 0.328838 0.588842
0.604079 0.321953 0.580429
0.851086 0.315067 0.572016
1.000000 0.308182 0.563603
0.094466 0.564187 0.581656
0.341473 0.557301 0.573243
0.588480 0.550416 0.564830
0.835487 0.543531 0.556417
1.000000 0.536645 0.548005
0.078867 0.792650 0.566057
0.325874 0.785765 0.557644
0.572882 0.778879 0.549232
0.819889 0.771994 0.540819
1.000000 0.765109 0.532406
0.063269 1.000000 0.550459
0.310276 1.000000 0.542046
0.557283 1.000000 0.533633
0.804290 1.000000 0.525220
1.000000 0.993572 0.516807
0.122604 0.104756 0.853389
0.369611 0.097871 0.844976
0.616618 0.090985 0.836563
0.863626 0.084100 0.828151
1.000000 0.077215 0.819738
0.107006 0.333220 0.837791
0.354013 0.326334 0.829378
0.601020 0.319449 0.820965
0.848027 0.312563 0.812552
1.000000 0.305678 0.804139
0.091407 0.561683 0.822192
0.338414 0.554798 0.813779
0.585421 0.547912 0.805366
0.832428 0.541027 0.796953
1.000000 0.534141 0.788541
0.075808 0.790147 0.806593
0.322815 0.783261 0.798180
0.569823 0.776376 0.789768
0.816830 0.769490 0.781355
1.000000 0.762605 0.772942
0.060210 1.000000 0.790995
0.307217 1.000000 0.782582
0.554224 1.000000 0.774169
0.801231 0.997954 0.765756
1.000000 0.991068 0.757343
0.119545 0.102253 1.000000
0.366552 0.095367 1.000000
0.613559 0.088482 1.000000
0.860567 0.081596 1.000000
1.000000 0.074711 1.000000
0.103946 0.330716 1.000000
0.350954 0.323831 1.000000
0.597961 0.316945 1.000000
0.844968 0.310060 1.000000
1.000000 0.303174 1.000000
0.088348 0.559179 1.000000
0.335355 0.552294 1.000000
0.582362 0.545409 1.000000
0.829369 0.538523 1.000000
1.000000 0.531638 1.000000
0.072749 0.787643 1.000000
0.319756 0.780757 1.000000
0.566764 0.773872 1.000000
0.813771 0.766987 1.000000
1.000000 0.760101 1.000000
0.057151 1.000000 1.000000
0.304158 1.000000 1.000000
0.551165 1.000000 1.000000
0.798172 0.995450 1.000000
1.000000 0.988564 0.997879
