assets/luts/primelive_amb_fairytale_soft.cube
TITLE "primelive Fairytale Soft"
LUT_3D_SIZE 33
DOMAIN_MIN 0.0 0.0 0.0
DOMAIN_MAX 1.0 1.0 1.0
0.131798 0.117074 0.125691
0.168714 0.116792 0.125314
0.203644 0.116524 0.124958
0.237252 0.116267 0.124614
0.269878 0.116017 0.124282
0.301725 0.115774 0.123956
0.332930 0.115535 0.123638
0.363590 0.115300 0.123325
0.393779 0.115069 0.123017
0.423553 0.114841 0.122713
0.452956 0.114616 0.122413
0.482025 0.114394 0.122116
0.510790 0.114173 0.121823
0.539277 0.113955 0.121532
0.567508 0.113739 0.121244
0.595501 0.113525 0.120958
0.623273 0.113312 0.120675
0.650837 0.113101 0.120393
0.678207 0.112892 0.120114
0.705394 0.112684 0.119836
0.732408 0.112477 0.119561
0.759257 0.112271 0.119287
0.785952 0.112067 0.119014
0.812497 0.111864 0.118743
0.838902 0.111662 0.118474
0.865171 0.111461 0.118206
0.891311 0.111260 0.117939
0.917328 0.111061 0.117673
0.943224 0.110863 0.117409
0.969007 0.110666 0.117146
0.994679 0.110469 0.116884
1.000000 0.110383 0.116769
1.000000 0.110383 0.116769
0.130817 0.152152 0.124465
0.167733 0.151870 0.124088
0.202663 0.151602 0.123732
0.236272 0.151345 0.123389
0.268897 0.151095 0.123056
0.300744 0.150852 0.122730
0.331949 0.150613 0.122412
0.362609 0.150378 0.122099
0.392798 0.150147 0.121791
0.422572 0.149919 0.121487
0.451975 0.149694 0.121187
0.481044 0.149471 0.120890
0.509809 0.149251 0.120597
0.538297 0.149033 0.120306
0.566527 0.148817 0.120018
0.594520 0.148603 0.119732
0.622292 0.148390 0.119449
0.649856 0.148179 0.119167
0.677226 0.147970 0.118888
0.704413 0.147762 0.118610
0.731427 0.147555 0.118335
0.758277 0.147349 0.118061
0.784971 0.147145 0.117788
0.811517 0.146942 0.117517
0.837921 0.146740 0.117248
0.864191 0.146539 0.116980
0.890331 0.146338 0.116713
0.916347 0.146139 0.116447
0.942244 0.145941 0.116183
0.968026 0.145744 0.115920
0.993698 0.145547 0.115658
1.000000 0.145461 0.115543
1.000000 0.145461 0.115543
0.129888 0.185382 0.123303
0.166804 0.185100 0.122927
0.201734 0.184832 0.122570
0.235343 0.184575 0.122227
0.267968 0.184325 0.121894
0.299815 0.184082 0.121569
0.331020 0.183843 0.121251
0.361680 0.183608 0.120938
0.391869 0.183377 0.120630
0.421643 0.183149 0.120326
0.451046 0.182924 0.120026
0.480115 0.182701 0.119729
0.508880 0.182481 0.119435
0.537367 0.182263 0.119145
0.565598 0.182047 0.118856
0.593591 0.181833 0.118571
0.621363 0.181620 0.118287
0.648927 0.181409 0.118006
0.676297 0.181200 0.117727
0.703484 0.180992 0.117449
0.730498 0.180785 0.117173
0.757348 0.180579 0.116899
0.784042 0.180375 0.116627
0.810588 0.180172 0.116356
0.836992 0.179970 0.116086
0.863261 0.179768 0.115818
0.889402 0.179568 0.115552
0.915418 0.179369 0.115286
0.941315 0.179171 0.115022
0.967097 0.178974 0.114759
0.992769 0.178777 0.114496
1.000000 0.178691 0.114382
1.000000 0.178691 0.114382
0.128993 0.217373 0.122185
0.165910 0.217091 0.121809
0.200840 0.216823 0.121452
0.234448 0.216566 0.121109
0.267073 0.216316 0.120776
0.298920 0.216073 0.120451
0.330125 0.215834 0.120133
0.360786 0.215599 0.119820
0.390975 0.215368 0.119511
0.420748 0.215140 0.119208
0.450151 0.214915 0.118907
0.479220 0.214692 0.118611
0.507986 0.214472 0.118317
0.536473 0.214254 0.118026
0.564704 0.214038 0.117738
0.592697 0.213824 0.117453
0.620468 0.213611 0.117169
0.648033 0.213400 0.116888
0.675403 0.213191 0.116608
0.702590 0.212982 0.116331
0.729603 0.212776 0.116055
0.756453 0.212570 0.115781
0.783147 0.212366 0.115509
0.809693 0.212163 0.115238
0.836098 0.211960 0.114968
0.862367 0.211759 0.114700
0.888507 0.211559 0.114433
0.914523 0.211360 0.114168
0.940420 0.211162 0.113904
0.966203 0.210965 0.113640
0.991875 0.210768 0.113378
1.000000 0.210682 0.113264
1.000000 0.210682 0.113264
0.128125 0.248439 0.121100
0.165041 0.248156 0.120723
0.199971 0.247889 0.120366
0.233580 0.247632 0.120023
0.266205 0.247382 0.119690
0.298052 0.247138 0.119365
0.329257 0.246899 0.119047
0.359917 0.246665 0.118734
0.390106 0.246434 0.118426
0.419880 0.246206 0.118122
0.449283 0.245981 0.117822
0.478352 0.245758 0.117525
0.507117 0.245538 0.117231
0.535604 0.245320 0.116941
0.563835 0.245104 0.116653
0.591828 0.244889 0.116367
0.619600 0.244677 0.116083
0.647164 0.244466 0.115802
0.674534 0.244256 0.115523
0.701721 0.244048 0.115245
0.728735 0.243841 0.114970
0.755585 0.243636 0.114695
0.782279 0.243432 0.114423
0.808824 0.243228 0.114152
0.835229 0.243026 0.113883
0.861498 0.242825 0.113614
0.887639 0.242625 0.113348
0.913655 0.242426 0.113082
0.939552 0.242228 0.112818
0.965334 0.242030 0.112555
0.991006 0.241834 0.112293
1.000000 0.241748 0.112178
1.000000 0.241748 0.112178
0.127277 0.278770 0.120040
0.164193 0.278488 0.119663
0.199123 0.278220 0.119306
0.232731 0.277963 0.118963
0.265357 0.277713 0.118630
0.297204 0.277469 0.118305
0.328409 0.277231 0.117987
0.359069 0.276996 0.117674
0.389258 0.276765 0.117366
0.419032 0.276537 0.117062
0.448435 0.276312 0.116762
0.477504 0.276089 0.116465
0.506269 0.275869 0.116171
0.534756 0.275651 0.115881
0.562987 0.275435 0.115593
0.590980 0.275221 0.115307
0.618752 0.275008 0.115023
0.646316 0.274797 0.114742
0.673686 0.274588 0.114463
0.700873 0.274379 0.114185
0.727887 0.274173 0.113909
0.754736 0.273967 0.113635
0.781431 0.273763 0.113363
0.807976 0.273560 0.113092
0.834381 0.273357 0.112823
0.860650 0.273156 0.112554
0.886790 0.272956 0.112288
0.912807 0.272757 0.112022
0.938703 0.272559 0.111758
0.964486 0.272362 0.111495
0.990158 0.272165 0.111233
1.000000 0.272079 0.111118
1.000000 0.272079 0.111118
0.126446 0.308495 0.119001
0.163362 0.308212 0.118624
0.198292 0.307945 0.118267
0.231900 0.307688 0.117924
0.264526 0.307438 0.117591
0.296372 0.307194 0.117266
0.327577 0.306955 0.116948
0.358238 0.306721 0.116635
0.388427 0.306490 0.116327
0.418200 0.306262 0.116023
0.447603 0.306037 0.115723
0.476673 0.305814 0.115426
0.505438 0.305594 0.115133
0.533925 0.305376 0.114842
0.562156 0.305160 0.114554
0.590149 0.304945 0.114268
0.617921 0.304733 0.113984
0.645485 0.304522 0.113703
0.672855 0.304312 0.113424
0.700042 0.304104 0.113146
0.727056 0.303897 0.112871
0.753905 0.303692 0.112597
0.780599 0.303488 0.112324
0.807145 0.303284 0.112053
0.833550 0.303082 0.111784
0.859819 0.302881 0.111516
0.885959 0.302681 0.111249
0.911975 0.302482 0.110983
0.937872 0.302284 0.110719
0.963655 0.302086 0.110456
0.989327 0.301890 0.110194
1.000000 0.301804 0.110079
1.000000 0.301804 0.110079
0.125629 0.337705 0.117980
0.162545 0.337422 0.117603
0.197475 0.337155 0.117247
0.231084 0.336897 0.116904
0.263709 0.336648 0.116571
0.295556 0.336404 0.116245
0.326761 0.336165 0.115927
0.357421 0.335930 0.115614
0.387610 0.335699 0.115306
0.417384 0.335471 0.115002
0.446787 0.335246 0.114702
0.475856 0.335024 0.114405
0.504621 0.334803 0.114112
0.533109 0.334585 0.113821
0.561339 0.334369 0.113533
0.589332 0.334155 0.113247
0.617104 0.333942 0.112964
0.644668 0.333731 0.112682
0.672038 0.333522 0.112403
0.699225 0.333314 0.112125
0.726239 0.333107 0.111850
0.753089 0.332901 0.111576
0.779783 0.332697 0.111303
0.806329 0.332494 0.111032
0.832733 0.332292 0.110763
0.859003 0.332091 0.110495
0.885143 0.331891 0.110228
0.911159 0.331691 0.109962
0.937056 0.331493 0.109698
0.962838 0.331296 0.109435
0.988510 0.331099 0.109173
0.999766 0.331013 0.109058
0.999766 0.331013 0.109058
0.124825 0.366467 0.116975
0.161741 0.366185 0.116598
0.196671 0.365917 0.116241
0.230279 0.365660 0.115898
0.262905 0.365410 0.115565
0.294752 0.365167 0.115240
0.325957 0.364928 0.114922
0.356617 0.364693 0.114609
0.386806 0.364462 0.114301
0.416580 0.364234 0.113997
0.445983 0.364009 0.113697
0.475052 0.363786 0.113400
0.503817 0.363566 0.113106
0.532304 0.363348 0.112816
0.560535 0.363132 0.112527
0.588528 0.362918 0.112242
0.616300 0.362705 0.111958
0.643864 0.362494 0.111677
0.671234 0.362285 0.111398
0.698421 0.362077 0.111120
0.725435 0.361870 0.110844
0.752284 0.361664 0.110570
0.778979 0.361460 0.110298
0.805524 0.361257 0.110027
0.831929 0.361055 0.109758
0.858198 0.360853 0.109489
0.884338 0.360653 0.109223
0.910355 0.360454 0.108957
0.936251 0.360256 0.108693
0.962034 0.360059 0.108430
0.987706 0.359862 0.108168
0.998962 0.359776 0.108053
0.998962 0.359776 0.108053
0.124032 0.394837 0.115983
0.160948 0.394554 0.115606
0.195878 0.394287 0.115250
0.229486 0.394029 0.114907
0.262112 0.393780 0.114574
0.293958 0.393536 0.114249
0.325163 0.393297 0.113930
0.355824 0.393062 0.113617
0.386013 0.392831 0.113309
0.415786 0.392603 0.113005
0.445189 0.392378 0.112705
0.474258 0.392156 0.112408
0.503024 0.391935 0.112115
0.531511 0.391717 0.111824
0.559742 0.391501 0.111536
0.587735 0.391287 0.111250
0.615506 0.391074 0.110967
0.643071 0.390863 0.110686
0.670441 0.390654 0.110406
0.697628 0.390446 0.110129
0.724641 0.390239 0.109853
0.751491 0.390033 0.109579
0.778185 0.389829 0.109306
0.804731 0.389626 0.109036
0.831136 0.389424 0.108766
0.857405 0.389223 0.108498
0.883545 0.389023 0.108231
0.909561 0.388823 0.107966
0.935458 0.388625 0.107701
0.961241 0.388428 0.107438
0.986913 0.388231 0.107176
0.998169 0.388145 0.107061
0.998169 0.388145 0.107061
0.123248 0.422854 0.115004
0.160165 0.422572 0.114627
0.195095 0.422305 0.114271
0.228703 0.422047 0.113928
0.261328 0.421798 0.113595
0.293175 0.421554 0.113269
0.324380 0.421315 0.112951
0.355041 0.421080 0.112638
0.385229 0.420849 0.112330
0.415003 0.420621 0.112026
0.444406 0.420396 0.111726
0.473475 0.420174 0.111429
0.502241 0.419953 0.111136
0.530728 0.419735 0.110845
0.558958 0.419519 0.110557
0.586951 0.419305 0.110271
0.614723 0.419092 0.109988
0.642287 0.418881 0.109706
0.669657 0.418672 0.109427
0.696844 0.418464 0.109149
0.723858 0.418257 0.108874
0.750708 0.418051 0.108600
0.777402 0.417847 0.108327
0.803948 0.417644 0.108056
0.830352 0.417442 0.107787
0.856622 0.417241 0.107519
0.882762 0.417041 0.107252
0.908778 0.416841 0.106986
0.934675 0.416643 0.106722
0.960457 0.416446 0.106459
0.986130 0.416249 0.106197
0.997385 0.416163 0.106082
0.997385 0.416163 0.106082
0.122474 0.450556 0.114036
0.159390 0.450273 0.113659
0.194320 0.450006 0.113302
0.227928 0.449748 0.112959
0.260554 0.449499 0.112626
0.292400 0.449255 0.112301
0.323605 0.449016 0.111983
0.354266 0.448781 0.111670
0.384455 0.448550 0.111362
0.414228 0.448322 0.111058
0.443631 0.448097 0.110758
0.472701 0.447875 0.110461
0.501466 0.447654 0.110168
0.529953 0.447436 0.109877
0.558184 0.447220 0.109589
0.586177 0.447006 0.109303
0.613949 0.446793 0.109019
0.641513 0.446582 0.108738
0.668883 0.446373 0.108459
0.696070 0.446165 0.108181
0.723084 0.445958 0.107906
0.749933 0.445752 0.107632
0.776627 0.445548 0.107359
0.803173 0.445345 0.107088
0.829578 0.445143 0.106819
0.855847 0.444942 0.106551
0.881987 0.444742 0.106284
0.908003 0.444542 0.106018
0.933900 0.444344 0.105754
0.959683 0.444147 0.105491
0.985355 0.443950 0.105229
0.996611 0.443864 0.105114
0.996611 0.443864 0.105114
0.121707 0.477968 0.113078
0.158624 0.477686 0.112701
0.193554 0.477418 0.112344
0.227162 0.477161 0.112001
0.259787 0.476911 0.111668
0.291634 0.476668 0.111343
0.322839 0.476429 0.111025
0.353500 0.476194 0.110712
0.383688 0.475963 0.110404
0.413462 0.475735 0.110100
0.442865 0.475510 0.109800
0.471934 0.475287 0.109503
0.500700 0.475067 0.109209
0.529187 0.474849 0.108919
0.557418 0.474633 0.108631
0.585411 0.474419 0.108345
0.613182 0.474206 0.108061
0.640747 0.473995 0.107780
0.668116 0.473786 0.107501
0.695303 0.473578 0.107223
0.722317 0.473371 0.106948
0.749167 0.473165 0.106673
0.775861 0.472961 0.106401
0.802407 0.472758 0.106130
0.828811 0.472556 0.105861
0.855081 0.472355 0.105592
0.881221 0.472154 0.105326
0.907237 0.471955 0.105060
0.933134 0.471757 0.104796
0.958916 0.471560 0.104533
0.984589 0.471363 0.104271
0.995844 0.471277 0.104156
0.995844 0.471277 0.104156
0.120948 0.505117 0.112129
0.157865 0.504835 0.111752
0.192795 0.504567 0.111395
0.226403 0.504310 0.111052
0.259028 0.504060 0.110719
0.290875 0.503816 0.110394
0.322080 0.503577 0.110076
0.352740 0.503343 0.109763
0.382929 0.503112 0.109455
0.412703 0.502884 0.109151
0.442106 0.502659 0.108851
0.471175 0.502436 0.108554
0.499940 0.502216 0.108261
0.528428 0.501998 0.107970
0.556658 0.501782 0.107682
0.584651 0.501568 0.107396
0.612423 0.501355 0.107113
0.639987 0.501144 0.106831
0.667357 0.500934 0.106552
0.694544 0.500726 0.106274
0.721558 0.500520 0.105999
0.748408 0.500314 0.105725
0.775102 0.500110 0.105452
0.801648 0.499906 0.105181
0.828052 0.499704 0.104912
0.854322 0.499503 0.104644
0.880462 0.499303 0.104377
0.906478 0.499104 0.104111
0.932375 0.498906 0.103847
0.958157 0.498708 0.103584
0.983829 0.498512 0.103322
0.995085 0.498426 0.103207
0.995085 0.498426 0.103207
0.120196 0.532022 0.111188
0.157112 0.531740 0.110812
0.192042 0.531472 0.110455
0.225651 0.531215 0.110112
0.258276 0.530965 0.109779
0.290123 0.530721 0.109454
0.321328 0.530483 0.109136
0.351988 0.530248 0.108823
0.382177 0.530017 0.108515
0.411951 0.529789 0.108211
0.441354 0.529564 0.107911
0.470423 0.529341 0.107614
0.499188 0.529121 0.107320
0.527675 0.528903 0.107030
0.555906 0.528687 0.106741
0.583899 0.528473 0.106456
0.611671 0.528260 0.106172
0.639235 0.528049 0.105891
0.666605 0.527840 0.105612
0.693792 0.527631 0.105334
0.720806 0.527425 0.105058
0.747656 0.527219 0.104784
0.774350 0.527015 0.104512
0.800896 0.526812 0.104241
0.827300 0.526609 0.103971
0.853569 0.526408 0.103703
0.879710 0.526208 0.103436
0.905726 0.526009 0.103171
0.931623 0.525811 0.102907
0.957405 0.525614 0.102643
0.983077 0.525417 0.102381
0.994333 0.525331 0.102267
0.994333 0.525331 0.102267
0.119450 0.558702 0.110256
0.156366 0.558419 0.109879
0.191296 0.558152 0.109523
0.224905 0.557894 0.109180
0.257530 0.557645 0.108847
0.289377 0.557401 0.108522
0.320582 0.557162 0.108203
0.351242 0.556927 0.107890
0.381431 0.556696 0.107582
0.411205 0.556468 0.107278
0.440608 0.556243 0.106978
0.469677 0.556021 0.106681
0.498442 0.555800 0.106388
0.526929 0.555582 0.106097
0.555160 0.555366 0.105809
0.583153 0.555152 0.105523
0.610925 0.554939 0.105240
0.638489 0.554728 0.104958
0.665859 0.554519 0.104679
0.693046 0.554311 0.104402
0.720060 0.554104 0.104126
0.746910 0.553898 0.103852
0.773604 0.553694 0.103579
0.800150 0.553491 0.103308
0.826554 0.553289 0.103039
0.852824 0.553088 0.102771
0.878964 0.552888 0.102504
0.904980 0.552688 0.102239
0.930877 0.552490 0.101974
0.956659 0.552293 0.101711
0.982331 0.552096 0.101449
0.993587 0.552010 0.101334
0.993587 0.552010 0.101334
0.118710 0.585170 0.109331
0.155626 0.584888 0.108954
0.190556 0.584620 0.108598
0.224165 0.584363 0.108255
0.256790 0.584113 0.107922
0.288637 0.583870 0.107597
0.319842 0.583631 0.107278
0.350502 0.583396 0.106965
0.380691 0.583165 0.106657
0.410465 0.582937 0.106353
0.439868 0.582712 0.106053
0.468937 0.582489 0.105756
0.497702 0.582269 0.105463
0.526189 0.582051 0.105172
0.554420 0.581835 0.104884
0.582413 0.581621 0.104598
0.610185 0.581408 0.104315
0.637749 0.581197 0.104033
0.665119 0.580988 0.103754
0.692306 0.580780 0.103477
0.719320 0.580573 0.103201
0.746170 0.580367 0.102927
0.772864 0.580163 0.102654
0.799410 0.579960 0.102383
0.825814 0.579758 0.102114
0.852083 0.579557 0.101846
0.878224 0.579356 0.101579
0.904240 0.579157 0.101313
0.930137 0.578959 0.101049
0.955919 0.578762 0.100786
0.981591 0.578565 0.100524
0.992847 0.578479 0.100409
0.992847 0.578479 0.100409
0.117975 0.611442 0.108413
0.154892 0.611160 0.108036
0.189822 0.610892 0.107679
0.223430 0.610635 0.107336
0.256055 0.610385 0.107003
0.287902 0.610142 0.106678
0.319107 0.609903 0.106360
0.349768 0.609668 0.106047
0.379956 0.609437 0.105739
0.409730 0.609209 0.105435
0.439133 0.608984 0.105135
0.468202 0.608761 0.104838
0.496968 0.608541 0.104545
0.525455 0.608323 0.104254
0.553686 0.608107 0.103966
0.581679 0.607893 0.103680
0.609450 0.607680 0.103396
0.637015 0.607469 0.103115
0.664385 0.607260 0.102836
0.691571 0.607052 0.102558
0.718585 0.606845 0.102283
0.745435 0.606639 0.102009
0.772129 0.606435 0.101736
0.798675 0.606232 0.101465
0.825079 0.606030 0.101196
0.851349 0.605829 0.100928
0.877489 0.605628 0.100661
0.903505 0.605429 0.100395
0.929402 0.605231 0.100131
0.955184 0.605034 0.099868
0.980857 0.604837 0.099606
0.992112 0.604751 0.099491
0.992112 0.604751 0.099491
0.117246 0.637530 0.107501
0.154162 0.637247 0.107124
0.189092 0.636980 0.106768
0.222701 0.636722 0.106425
0.255326 0.636473 0.106092
0.287173 0.636229 0.105767
0.318378 0.635990 0.105448
0.349038 0.635755 0.105135
0.379227 0.635524 0.104827
0.409001 0.635296 0.104523
0.438404 0.635071 0.104223
0.467473 0.634849 0.103926
0.496238 0.634628 0.103633
0.524725 0.634410 0.103342
0.552956 0.634194 0.103054
0.580949 0.633980 0.102768
0.608721 0.633767 0.102485
0.636285 0.633556 0.102203
0.663655 0.633347 0.101924
0.690842 0.633139 0.101647
0.717856 0.632932 0.101371
0.744706 0.632726 0.101097
0.771400 0.632522 0.100824
0.797946 0.632319 0.100553
0.824350 0.632117 0.100284
0.850620 0.631916 0.100016
0.876760 0.631716 0.099749
0.902776 0.631516 0.099483
0.928673 0.631318 0.099219
0.954455 0.631121 0.098956
0.980127 0.630924 0.098694
0.991383 0.630838 0.098579
0.991383 0.630838 0.098579
0.116521 0.663443 0.106595
0.153438 0.663160 0.106219
0.188368 0.662893 0.105862
0.221976 0.662635 0.105519
0.254601 0.662386 0.105186
0.286448 0.662142 0.104861
0.317653 0.661903 0.104542
0.348314 0.661668 0.104230
0.378503 0.661437 0.103921
0.408276 0.661209 0.103618
0.437679 0.660984 0.103317
0.466748 0.660762 0.103021
0.495514 0.660542 0.102727
0.524001 0.660323 0.102436
0.552232 0.660107 0.102148
0.580225 0.659893 0.101863
0.607996 0.659680 0.101579
0.635561 0.659469 0.101298
0.662931 0.659260 0.101018
0.690117 0.659052 0.100741
0.717131 0.658845 0.100465
0.743981 0.658640 0.100191
0.770675 0.658435 0.099919
0.797221 0.658232 0.099648
0.823626 0.658030 0.099378
0.849895 0.657829 0.099110
0.876035 0.657629 0.098843
0.902051 0.657430 0.098578
0.927948 0.657231 0.098314
0.953731 0.657034 0.098050
0.979403 0.656837 0.097788
0.990658 0.656751 0.097673
0.990658 0.656751 0.097673
0.115801 0.689191 0.105695
0.152718 0.688909 0.105319
0.187648 0.688641 0.104962
0.221256 0.688384 0.104619
0.253881 0.688134 0.104286
0.285728 0.687890 0.103961
0.316933 0.687652 0.103643
0.347594 0.687417 0.103330
0.377783 0.687186 0.103022
0.407556 0.686958 0.102718
0.436959 0.686733 0.102418
0.466028 0.686510 0.102121
0.494794 0.686290 0.101827
0.523281 0.686072 0.101536
0.551512 0.685856 0.101248
0.579505 0.685642 0.100963
0.607276 0.685429 0.100679
0.634841 0.685218 0.100398
0.662211 0.685008 0.100119
0.689398 0.684800 0.099841
0.716411 0.684594 0.099565
0.743261 0.684388 0.099291
0.769955 0.684184 0.099019
0.796501 0.683981 0.098748
0.822906 0.683778 0.098478
0.849175 0.683577 0.098210
0.875315 0.683377 0.097943
0.901331 0.683178 0.097678
0.927228 0.682980 0.097414
0.953011 0.682782 0.097150
0.978683 0.682586 0.096888
0.989939 0.682500 0.096774
0.989939 0.682500 0.096774
0.115086 0.714784 0.104801
0.152002 0.714501 0.104424
0.186932 0.714234 0.104068
0.220541 0.713977 0.103725
0.253166 0.713727 0.103392
0.285013 0.713483 0.103067
0.316218 0.713244 0.102748
0.346878 0.713009 0.102435
0.377067 0.712778 0.102127
0.406841 0.712550 0.101823
0.436244 0.712325 0.101523
0.465313 0.712103 0.101226
0.494078 0.711883 0.100933
0.522565 0.711665 0.100642
0.550796 0.711448 0.100354
0.578789 0.711234 0.100068
0.606561 0.711022 0.099785
0.634125 0.710811 0.099503
0.661495 0.710601 0.099224
0.688682 0.710393 0.098947
0.715696 0.710186 0.098671
0.742546 0.709981 0.098397
0.769240 0.709776 0.098124
0.795786 0.709573 0.097853
0.822190 0.709371 0.097584
0.848459 0.709170 0.097316
0.874600 0.708970 0.097049
0.900616 0.708771 0.096783
0.926513 0.708572 0.096519
0.952295 0.708375 0.096256
0.977967 0.708179 0.095994
0.989223 0.708092 0.095879
0.989223 0.708092 0.095879
0.114374 0.740228 0.103912
0.151291 0.739946 0.103535
0.186221 0.739678 0.103178
0.219829 0.739421 0.102835
0.252454 0.739171 0.102502
0.284301 0.738928 0.102177
0.315506 0.738689 0.101859
0.346167 0.738454 0.101546
0.376356 0.738223 0.101238
0.406129 0.737995 0.100934
0.435532 0.737770 0.100634
0.464601 0.737547 0.100337
0.493367 0.737327 0.100043
0.521854 0.737109 0.099753
0.550085 0.736893 0.099465
0.578078 0.736679 0.099179
0.605849 0.736466 0.098895
0.633414 0.736255 0.098614
0.660784 0.736046 0.098335
0.687971 0.735838 0.098057
0.714984 0.735631 0.097782
0.741834 0.735425 0.097508
0.768528 0.735221 0.097235
0.795074 0.735018 0.096964
0.821479 0.734816 0.096695
0.847748 0.734614 0.096427
0.873888 0.734414 0.096160
0.899904 0.734215 0.095894
0.925801 0.734017 0.095630
0.951584 0.733820 0.095367
0.977256 0.733623 0.095105
0.988512 0.733537 0.094990
0.988512 0.733537 0.094990
0.113667 0.765532 0.103027
0.150583 0.765249 0.102651
0.185513 0.764982 0.102294
0.219122 0.764725 0.101951
0.251747 0.764475 0.101618
0.283594 0.764231 0.101293
0.314799 0.763992 0.100974
0.345459 0.763758 0.100662
0.375648 0.763526 0.100353
0.405422 0.763299 0.100050
0.434825 0.763073 0.099749
0.463894 0.762851 0.099453
0.492659 0.762631 0.099159
0.521147 0.762413 0.098868
0.549377 0.762197 0.098580
0.577370 0.761982 0.098295
0.605142 0.761770 0.098011
0.632706 0.761559 0.097730
0.660076 0.761349 0.097450
0.687263 0.761141 0.097173
0.714277 0.760934 0.096897
0.741127 0.760729 0.096623
0.767821 0.760524 0.096351
0.794367 0.760321 0.096080
0.820771 0.760119 0.095810
0.847041 0.759918 0.095542
0.873181 0.759718 0.095275
0.899197 0.759519 0.095010
0.925094 0.759320 0.094746
0.950876 0.759123 0.094482
0.976548 0.758927 0.094220
0.987804 0.758840 0.094105
0.987804 0.758840 0.094105
0.112963 0.790701 0.102148
0.149880 0.790418 0.101771
0.184810 0.790151 0.101414
0.218418 0.789894 0.101071
0.251043 0.789644 0.100738
0.282890 0.789400 0.100413
0.314095 0.789161 0.100095
0.344756 0.788927 0.099782
0.374944 0.788695 0.099474
0.404718 0.788468 0.099170
0.434121 0.788242 0.098870
0.463190 0.788020 0.098573
0.491956 0.787800 0.098279
0.520443 0.787582 0.097989
0.548674 0.787366 0.097701
0.576667 0.787151 0.097415
0.604438 0.786939 0.097131
0.632003 0.786728 0.096850
0.659373 0.786518 0.096571
0.686559 0.786310 0.096293
0.713573 0.786103 0.096018
0.740423 0.785898 0.095744
0.767117 0.785693 0.095471
0.793663 0.785490 0.095200
0.820067 0.785288 0.094931
0.846337 0.785087 0.094663
0.872477 0.784887 0.094396
0.898493 0.784688 0.094130
0.924390 0.784490 0.093866
0.950172 0.784292 0.093603
0.975845 0.784096 0.093341
0.987100 0.784010 0.093226
0.987100 0.784010 0.093226
0.112263 0.815741 0.101272
0.149180 0.815459 0.100896
0.184110 0.815191 0.100539
0.217718 0.814934 0.100196
0.250343 0.814684 0.099863
0.282190 0.814441 0.099538
0.313395 0.814202 0.099220
0.344055 0.813967 0.098907
0.374244 0.813736 0.098599
0.404018 0.813508 0.098295
0.433421 0.813283 0.097995
0.462490 0.813061 0.097698
0.491255 0.812840 0.097404
0.519743 0.812622 0.097114
0.547973 0.812406 0.096825
0.575966 0.812192 0.096540
0.603738 0.811979 0.096256
0.631302 0.811768 0.095975
0.658672 0.811559 0.095696
0.685859 0.811351 0.095418
0.712873 0.811144 0.095142
0.739723 0.810938 0.094868
0.766417 0.810734 0.094596
0.792963 0.810531 0.094325
0.819367 0.810329 0.094055
0.845637 0.810128 0.093787
0.871777 0.809927 0.093521
0.897793 0.809728 0.093255
0.923690 0.809530 0.092991
0.949472 0.809333 0.092728
0.975144 0.809136 0.092466
0.986400 0.809050 0.092351
0.986400 0.809050 0.092351
0.111566 0.840659 0.100402
0.148483 0.840376 0.100025
0.183413 0.840109 0.099668
0.217021 0.839852 0.099325
0.249646 0.839602 0.098992
0.281493 0.839358 0.098667
0.312698 0.839119 0.098349
0.343359 0.838885 0.098036
0.373548 0.838654 0.097728
0.403321 0.838426 0.097424
0.432724 0.838201 0.097124
0.461793 0.837978 0.096827
0.490559 0.837758 0.096533
0.519046 0.837540 0.096243
0.547277 0.837324 0.095955
0.575270 0.837109 0.095669
0.603041 0.836897 0.095385
0.630606 0.836686 0.095104
0.657976 0.836476 0.094825
0.685163 0.836268 0.094547
0.712176 0.836061 0.094272
0.739026 0.835856 0.093997
0.765720 0.835651 0.093725
0.792266 0.835448 0.093454
0.818671 0.835246 0.093185
0.844940 0.835045 0.092916
0.871080 0.834845 0.092650
