assets/luts/primelive_jiepai.cube
TITLE "primelive_jiepai"
LUT_3D_SIZE 9
0.000000 0.000000 0.000000
0.094694 0.000000 0.000000
0.287388 0.000000 0.000000
0.480081 0.000000 0.000000
0.672775 0.000000 0.000000
0.865469 0.000000 0.000000
1.000000 0.000000 0.000000
1.000000 0.000000 0.000000
1.000000 0.000000 0.000000
0.000000 0.081441 0.000000
0.075235 0.071335 0.000000
0.267929 0.061229 0.000000
0.460622 0.051122 0.000000
0.653316 0.041016 0.000000
0.846010 0.030910 0.000000
1.000000 0.020804 0.000000
1.000000 0.010698 0.000000
1.000000 0.000591 0.000000
0.000000 0.260882 0.000000
0.055776 0.250776 0.000000
0.248469 0.240670 0.000000
0.441163 0.230563 0.000000
0.633857 0.220457 0.000000
0.826551 0.210351 0.000000
1.000000 0.200245 0.000000
1.000000 0.190139 0.000000
1.000000 0.180032 0.000000
0.000000 0.440323 0.000000
0.036317 0.430217 0.000000
0.229010 0.420110 0.000000
0.421704 0.410004 0.000000
0.614398 0.399898 0.000000
0.807092 0.389792 0.000000
0.999786 0.379686 0.000000
1.000000 0.369579 0.000000
1.000000 0.359473 0.000000
0.000000 0.619764 0.000000
0.016858 0.609658 0.000000
0.209551 0.599551 0.000000
0.402245 0.589445 0.000000
0.594939 0.579339 0.000000
0.787633 0.569233 0.000000
0.980327 0.559127 0.000000
1.000000 0.549020 0.000000
1.000000 0.538914 0.000000
0.000000 0.799205 0.000000
0.000000 0.789099 0.000000
0.190092 0.778992 0.000000
0.382786 0.768886 0.000000
0.575480 0.758780 0.000000
0.768174 0.748674 0.000000
0.960868 0.738568 0.000000
1.000000 0.728461 0.000000
1.000000 0.718355 0.000000
0.000000 0.978646 0.000000
0.000000 0.968539 0.000000
0.170633 0.958433 0.000000
0.363327 0.948327 0.000000
0.556021 0.938221 0.000000
0.748715 0.928115 0.000000
0.941409 0.918008 0.000000
1.000000 0.907902 0.000000
1.000000 0.897796 0.000000
0.000000 1.000000 0.000000
0.000000 1.000000 0.000000
0.151174 1.000000 0.000000
0.343868 1.000000 0.000000
0.536562 1.000000 0.000000
0.729256 1.000000 0.000000
0.921949 1.000000 0.000000
1.000000 1.000000 0.000000
1.000000 1.000000 0.000000
0.000000 1.000000 0.000000
0.000000 1.000000 0.000000
0.131715 1.000000 0.000000
0.324409 1.000000 0.000000
0.517103 1.000000 0.000000
0.709797 1.000000 0.000000
0.902490 1.000000 0.000000
1.000000 1.000000 0.000000
1.000000 1.000000 0.000000
0.000000 0.000000 0.097121
0.090915 0.000000 0.087015
0.283608 0.000000 0.076909
0.476302 0.000000 0.066802
0.668996 0.000000 0.056696
0.861690 0.000000 0.046590
1.000000 0.000000 0.036484
1.000000 0.000000 0.026378
1.000000 0.000000 0.016271
0.000000 0.077662 0.077662
0.071456 0.067556 0.067556
0.264149 0.057449 0.057449
0.456843 0.047343 0.047343
0.649537 0.037237 0.037237
0.842231 0.027131 0.027131
1.000000 0.017025 0.017025
1.000000 0.006918 0.006918
1.000000 0.000000 0.000000
0.000000 0.257103 0.058203
0.051997 0.246997 0.048097
0.244690 0.236890 0.037990
0.437384 0.226784 0.027884
0.630078 0.216678 0.017778
0.822772 0.206572 0.007672
1.000000 0.196466 0.000000
1.000000 0.186359 0.000000
1.000000 0.176253 0.000000
0.000000 0.436544 0.038744
0.032538 0.426438 0.028638
0.225231 0.416331 0.018531
0.417925 0.406225 0.008425
0.610619 0.396119 0.000000
0.803313 0.386013 0.000000
0.996007 0.375907 0.000000
1.000000 0.365800 0.000000
1.000000 0.355694 0.000000
0.000000 0.615985 0.019285
0.013079 0.605878 0.009179
0.205772 0.595772 0.000000
0.398466 0.585666 0.000000
0.591160 0.575560 0.000000
0.783854 0.565454 0.000000
0.976548 0.555347 0.000000
1.000000 0.545241 0.000000
1.000000 0.535135 0.000000
0.000000 0.795426 0.000000
0.000000 0.785319 0.000000
0.186313 0.775213 0.000000
0.379007 0.765107 0.000000
0.571701 0.755001 0.000000
0.764395 0.744895 0.000000
0.957088 0.734788 0.000000
1.000000 0.724682 0.000000
1.000000 0.714576 0.000000
0.000000 0.974867 0.000000
0.000000 0.964760 0.000000
0.166854 0.954654 0.000000
0.359548 0.944548 0.000000
0.552242 0.934442 0.000000
0.744936 0.924336 0.000000
0.937629 0.914229 0.000000
1.000000 0.904123 0.000000
1.000000 0.894017 0.000000
0.000000 1.000000 0.000000
0.000000 1.000000 0.000000
0.147395 1.000000 0.000000
0.340089 1.000000 0.000000
0.532783 1.000000 0.000000
0.725477 1.000000 0.000000
0.918170 1.000000 0.000000
1.000000 1.000000 0.000000
1.000000 1.000000 0.000000
0.000000 1.000000 0.000000
0.000000 1.000000 0.000000
0.127936 1.000000 0.000000
0.320630 1.000000 0.000000
0.513324 1.000000 0.000000
0.706017 1.000000 0.000000
0.898711 1.000000 0.000000
1.000000 1.000000 0.000000
1.000000 1.000000 0.000000
0.000000 0.000000 0.292242
0.087136 0.000000 0.282136
0.279829 0.000000 0.272029
0.472523 0.000000 0.261923
0.665217 0.000000 0.251817
0.857911 0.000000 0.241711
1.000000 0.000000 0.231605
1.000000 0.000000 0.221498
1.000000 0.000000 0.211392
0.000000 0.073883 0.272783
0.067677 0.063777 0.262677
0.260370 0.053670 0.252570
0.453064 0.043564 0.242464
0.645758 0.033458 0.232358
0.838452 0.023352 0.222252
1.000000 0.013246 0.212146
1.000000 0.003139 0.202039
1.000000 0.000000 0.191933
0.000000 0.253324 0.253324
0.048218 0.243218 0.243218
0.240911 0.233111 0.233111
0.433605 0.223005 0.223005
0.626299 0.212899 0.212899
0.818993 0.202793 0.202793
1.000000 0.192687 0.192687
1.000000 0.182580 0.182580
1.000000 0.172474 0.172474
0.000000 0.432765 0.233865
0.028758 0.422658 0.223758
0.221452 0.412552 0.213652
0.414146 0.402446 0.203546
0.606840 0.392340 0.193440
0.799534 0.382234 0.183334
0.992227 0.372127 0.173227
1.000000 0.362021 0.163121
1.000000 0.351915 0.153015
0.000000 0.612206 0.214406
0.009299 0.602099 0.204299
0.201993 0.591993 0.194193
0.394687 0.581887 0.184087
0.587381 0.571781 0.173981
0.780075 0.561675 0.163875
0.972768 0.551568 0.153768
1.000000 0.541462 0.143662
1.000000 0.531356 0.133556
0.000000 0.791647 0.194947
0.000000 0.781540 0.184840
0.182534 0.771434 0.174734
0.375228 0.761328 0.164628
0.567922 0.751222 0.154522
0.760616 0.741116 0.144416
0.953309 0.731009 0.134309
1.000000 0.720903 0.124203
1.000000 0.710797 0.114097
0.000000 0.971087 0.175488
0.000000 0.960981 0.165381
0.163075 0.950875 0.155275
0.355769 0.940769 0.145169
0.548463 0.930663 0.135063
0.741156 0.920556 0.124957
0.933850 0.910450 0.114850
1.000000 0.900344 0.104744
1.000000 0.890238 0.094638
0.000000 1.000000 0.156028
0.000000 1.000000 0.145922
0.143616 1.000000 0.135816
0.336310 1.000000 0.125710
0.529004 1.000000 0.115604
0.721697 1.000000 0.105497
0.914391 1.000000 0.095391
1.000000 1.000000 0.085285
1.000000 1.000000 0.075179
0.000000 1.000000 0.136569
0.000000 1.000000 0.126463
0.124157 1.000000 0.116357
0.316851 1.000000 0.106251
0.509545 1.000000 0.096145
0.702238 1.000000 0.086038
0.894932 1.000000 0.075932
1.000000 1.000000 0.065826
1.000000 1.000000 0.055720
0.000000 0.000000 0.487363
0.083357 0.000000 0.477256
0.276050 0.000000 0.467150
0.468744 0.000000 0.457044
0.661438 0.000000 0.446938
0.854132 0.000000 0.436832
1.000000 0.000000 0.426725
1.000000 0.000000 0.416619
1.000000 0.000000 0.406513
0.000000 0.070104 0.467904
0.063897 0.059997 0.457797
0.256591 0.049891 0.447691
0.449285 0.039785 0.437585
0.641979 0.029679 0.427479
0.834673 0.019573 0.417373
1.000000 0.009466 0.407266
1.000000 0.000000 0.397160
1.000000 0.000000 0.387054
0.000000 0.249545 0.448445
0.044438 0.239438 0.438338
0.237132 0.229332 0.428232
0.429826 0.219226 0.418126
0.622520 0.209120 0.408020
0.815214 0.199014 0.397914
1.000000 0.188907 0.387807
1.000000 0.178801 0.377701
1.000000 0.168695 0.367595
0.000000 0.428986 0.428986
0.024979 0.418879 0.418879
0.217673 0.408773 0.408773
0.410367 0.398667 0.398667
0.603061 0.388561 0.388561
0.795755 0.378455 0.378455
0.988448 0.368348 0.368348
1.000000 0.358242 0.358242
1.000000 0.348136 0.348136
0.000000 0.608426 0.409526
0.005520 0.598320 0.399420
0.198214 0.588214 0.389314
0.390908 0.578108 0.379208
0.583602 0.568002 0.369102
0.776295 0.557895 0.358995
0.968989 0.547789 0.348889
1.000000 0.537683 0.338783
1.000000 0.527577 0.328677
0.000000 0.787867 0.390067
0.000000 0.777761 0.379961
0.178755 0.767655 0.369855
0.371449 0.757549 0.359749
0.564143 0.747443 0.349643
0.756836 0.737336 0.339536
0.949530 0.727230 0.329430
1.000000 0.717124 0.319324
1.000000 0.707018 0.309218
0.000000 0.967308 0.370608
0.000000 0.957202 0.360502
0.159296 0.947096 0.350396
0.351990 0.936990 0.340290
0.544684 0.926884 0.330184
0.737377 0.916777 0.320077
0.930071 0.906671 0.309971
1.000000 0.896565 0.299865
1.000000 0.886459 0.289759
0.000000 1.000000 0.351149
0.000000 1.000000 0.341043
0.139837 1.000000 0.330937
0.332531 1.000000 0.320831
0.525225 1.000000 0.310725
0.717918 1.000000 0.300618
0.910612 1.000000 0.290512
1.000000 1.000000 0.280406
1.000000 1.000000 0.270300
0.000000 1.000000 0.331690
0.000000 1.000000 0.321584
0.120378 1.000000 0.311478
0.313072 1.000000 0.301372
0.505766 1.000000 0.291265
0.698459 1.000000 0.281159
0.891153 1.000000 0.271053
1.000000 1.000000 0.260947
1.000000 1.000000 0.250841
0.000000 0.000000 0.682484
0.079577 0.000000 0.672377
0.272271 0.000000 0.662271
0.464965 0.000000 0.652165
0.657659 0.000000 0.642059
0.850353 0.000000 0.631953
1.000000 0.000000 0.621846
1.000000 0.000000 0.611740
1.000000 0.000000 0.601634
0.000000 0.066325 0.663025
0.060118 0.056218 0.652918
0.252812 0.046112 0.642812
0.445506 0.036006 0.632706
0.638200 0.025900 0.622600
0.830894 0.015794 0.612494
1.000000 0.005687 0.602387
1.000000 0.000000 0.592281
1.000000 0.000000 0.582175
0.000000 0.245766 0.643565
0.040659 0.235659 0.633459
0.233353 0.225553 0.623353
0.426047 0.215447 0.613247
0.618741 0.205341 0.603141
0.811434 0.195235 0.593034
1.000000 0.185128 0.582928
1.000000 0.175022 0.572822
1.000000 0.164916 0.562716
0.000000 0.425206 0.624106
0.021200 0.415100 0.614000
0.213894 0.404994 0.603894
0.406588 0.394888 0.593788
0.599282 0.384782 0.583682
0.791975 0.374675 0.573575
0.984669 0.364569 0.563469
1.000000 0.354463 0.553363
1.000000 0.344357 0.543257
0.000000 0.604647 0.604647
0.001741 0.594541 0.594541
0.194435 0.584435 0.584435
0.387129 0.574329 0.574329
0.579823 0.564223 0.564223
0.772516 0.554116 0.554116
0.965210 0.544010 0.544010
1.000000 0.533904 0.533904
1.000000 0.523798 0.523798
0.000000 0.784088 0.585188
0.000000 0.773982 0.575082
0.174976 0.763876 0.564976
0.367670 0.753770 0.554870
0.560364 0.743664 0.544764
0.753057 0.733557 0.534657
0.945751 0.723451 0.524551
1.000000 0.713345 0.514445
1.000000 0.703239 0.504339
0.000000 0.963529 0.565729
0.000000 0.953423 0.555623
0.155517 0.943317 0.545517
0.348211 0.933211 0.535411
0.540905 0.923104 0.525304
0.733598 0.912998 0.515198
0.926292 0.902892 0.505092
1.000000 0.892786 0.494986
1.000000 0.882680 0.484880
0.000000 1.000000 0.546270
0.000000 1.000000 0.536164
0.136058 1.000000 0.526058
0.328752 1.000000 0.515952
0.521445 1.000000 0.505845
0.714139 1.000000 0.495739
0.906833 1.000000 0.485633
1.000000 1.000000 0.475527
1.000000 1.000000 0.465421
0.000000 1.000000 0.526811
0.000000 1.000000 0.516705
0.116599 1.000000 0.506599
0.309293 1.000000 0.496493
0.501986 1.000000 0.486386
0.694680 1.000000 0.476280
0.887374 1.000000 0.466174
1.000000 1.000000 0.456068
1.000000 1.000000 0.445962
0.000000 0.000000 0.877605
0.075798 0.000000 0.867498
0.268492 0.000000 0.857392
0.461186 0.000000 0.847286
0.653880 0.000000 0.837180
0.846573 0.000000 0.827074
1.000000 0.000000 0.816967
1.000000 0.000000 0.806861
1.000000 0.000000 0.796755
0.000000 0.062545 0.858145
0.056339 0.052439 0.848039
0.249033 0.042333 0.837933
0.441727 0.032227 0.827827
0.634421 0.022121 0.817721
0.827114 0.012014 0.807614
1.000000 0.001908 0.797508
1.000000 0.000000 0.787402
1.000000 0.000000 0.777296
0.000000 0.241986 0.838686
0.036880 0.231880 0.828580
0.229574 0.221774 0.818474
0.422268 0.211668 0.808368
0.614962 0.201562 0.798262
0.807655 0.191455 0.788155
1.000000 0.181349 0.778049
1.000000 0.171243 0.767943
1.000000 0.161137 0.757837
0.000000 0.421427 0.819227
0.017421 0.411321 0.809121
0.210115 0.401215 0.799015
0.402809 0.391109 0.788909
0.595503 0.381003 0.778803
0.788196 0.370896 0.768696
0.980890 0.360790 0.758590
1.000000 0.350684 0.748484
1.000000 0.340578 0.738378
0.000000 0.600868 0.799768
0.000000 0.590762 0.789662
0.190656 0.580656 0.779556
0.383350 0.570550 0.769450
0.576044 0.560443 0.759344
0.768737 0.550337 0.749237
0.961431 0.540231 0.739131
1.000000 0.530125 0.729025
1.000000 0.520019 0.718919
0.000000 0.780309 0.780309
0.000000 0.770203 0.770203
0.171197 0.760097 0.760097
0.363891 0.749991 0.749991
0.556584 0.739884 0.739884
0.749278 0.729778 0.729778
0.941972 0.719672 0.719672
1.000000 0.709566 0.709566
1.000000 0.699460 0.699460
0.000000 0.959750 0.760850
0.000000 0.949644 0.750744
0.151738 0.939538 0.740638
0.344432 0.929432 0.730532
0.537125 0.919325 0.720425
0.729819 0.909219 0.710319
0.922513 0.899113 0.700213
1.000000 0.889007 0.690107
1.000000 0.878901 0.680001
0.000000 1.000000 0.741391
0.000000 1.000000 0.731285
0.132279 1.000000 0.721179
0.324973 1.000000 0.711073
0.517666 1.000000 0.700966
0.710360 1.000000 0.690860
0.903054 1.000000 0.680754
1.000000 1.000000 0.670648
1.000000 1.000000 0.660542
0.000000 1.000000 0.721932
0.000000 1.000000 0.711826
0.112820 1.000000 0.701720
0.305513 1.000000 0.691614
0.498207 1.000000 0.681507
0.690901 1.000000 0.671401
0.883595 1.000000 0.661295
1.000000 1.000000 0.651189
1.000000 1.000000 0.641083
0.000000 0.000000 1.000000
0.072019 0.000000 1.000000
0.264713 0.000000 1.000000
0.457407 0.000000 1.000000
0.650101 0.000000 1.000000
0.842794 0.000000 1.000000
1.000000 0.000000 1.000000
1.000000 0.000000 1.000000
1.000000 0.000000 0.991876
0.000000 0.058766 1.000000
0.052560 0.048660 1.000000
0.245254 0.038554 1.000000
0.437948 0.028448 1.000000
0.630642 0.018342 1.000000
0.823335 0.008235 1.000000
1.000000 0.000000 0.992629
1.000000 0.000000 0.982523
1.000000 0.000000 0.972417
0.000000 0.238207 1.000000
0.033101 0.228101 1.000000
0.225795 0.217995 1.000000
0.418489 0.207889 1.000000
0.611183 0.197783 0.993382
0.803876 0.187676 0.983276
0.996570 0.177570 0.973170
1.000000 0.167464 0.963064
1.000000 0.157358 0.952958
0.000000 0.417648 1.000000
0.013642 0.407542 1.000000
0.206336 0.397436 0.994136
0.399030 0.387330 0.984030
0.591723 0.377223 0.973923
0.784417 0.367117 0.963817
0.977111 0.357011 0.953711
1.000000 0.346905 0.943605
1.000000 0.336799 0.933499
0.000000 0.597089 0.994889
0.000000 0.586983 0.984783
0.186877 0.576877 0.974677
0.379571 0.566771 0.964571
0.572264 0.556664 0.954464
0.764958 0.546558 0.944358
0.957652 0.536452 0.934252
1.000000 0.526346 0.924146
1.000000 0.516240 0.914040
0.000000 0.776530 0.975430
0.000000 0.766424 0.965324
0.167418 0.756318 0.955218
0.360112 0.746212 0.945112
0.552805 0.736105 0.935005
0.745499 0.725999 0.924899
0.938193 0.715893 0.914793
1.000000 0.705787 0.904687
1.000000 0.695681 0.894581
0.000000 0.955971 0.955971
0.000000 0.945865 0.945865
0.147959 0.935759 0.935759
0.340652 0.925652 0.925652
0.533346 0.915546 0.915546
0.726040 0.905440 0.905440
0.918734 0.895334 0.895334
1.000000 0.885228 0.885228
1.000000 0.875121 0.875121
0.000000 1.000000 0.936512
0.000000 1.000000 0.926406
0.128500 1.000000 0.916300
0.321193 1.000000 0.906193
0.513887 1.000000 0.896087
0.706581 1.000000 0.885981
0.899275 1.000000 0.875875
1.000000 1.000000 0.865769
1.000000 1.000000 0.855662
0.000000 1.000000 0.917053
0.000000 1.000000 0.906947
0.109041 1.000000 0.896841
0.301734 1.000000 0.886734
0.494428 1.000000 0.876628
0.687122 1.000000 0.866522
0.879816 1.000000 0.856416
1.000000 1.000000 0.846310
1.000000 1.000000 0.836203
0.000000 0.000000 1.000000
0.068240 0.000000 1.000000
0.260934 0.000000 1.000000
0.453628 0.000000 1.000000
0.646322 0.000000 1.000000
0.839015 0.000000 1.000000
1.000000 0.000000 1.000000
1.000000 0.000000 1.000000
1.000000 0.000000 1.000000
0.000000 0.054987 1.000000
0.048781 0.044881 1.000000
0.241475 0.034775 1.000000
0.434169 0.024669 1.000000
0.626862 0.014562 1.000000
0.819556 0.004456 1.000000
1.000000 0.000000 1.000000
1.000000 0.000000 1.000000
1.000000 0.000000 1.000000
0.000000 0.234428 1.000000
0.029322 0.224322 1.000000
0.222016 0.214216 1.000000
0.414710 0.204110 1.000000
0.607403 0.194003 1.000000
0.800097 0.183897 1.000000
0.992791 0.173791 1.000000
1.000000 0.163685 1.000000
1.000000 0.153579 1.000000
0.000000 0.413869 1.000000
0.009863 0.403763 1.000000
0.202557 0.393657 1.000000
0.395251 0.383551 1.000000
0.587944 0.373444 1.000000
0.780638 0.363338 1.000000
0.973332 0.353232 1.000000
1.000000 0.343126 1.000000
1.000000 0.333020 1.000000
0.000000 0.593310 1.000000
0.000000 0.583204 1.000000
0.183098 0.573098 1.000000
0.375791 0.562992 1.000000
0.568485 0.552885 1.000000
0.761179 0.542779 1.000000
0.953873 0.532673 1.000000
1.000000 0.522567 1.000000
1.000000 0.512461 1.000000
0.000000 0.772751 1.000000
0.000000 0.762645 1.000000
0.163639 0.752539 1.000000
0.356332 0.742432 1.000000
0.549026 0.732326 1.000000
0.741720 0.722220 1.000000
0.934414 0.712114 1.000000
1.000000 0.702008 1.000000
1.000000 0.691901 1.000000
0.000000 0.952192 1.000000
0.000000 0.942086 1.000000
0.144180 0.931980 1.000000
0.336873 0.921873 1.000000
0.529567 0.911767 1.000000
0.722261 0.901661 1.000000
0.914955 0.891555 1.000000
1.000000 0.881449 1.000000
1.000000 0.871342 1.000000
0.000000 1.000000 1.000000
0.000000 1.000000 1.000000
0.124721 1.000000 1.000000
0.317414 1.000000 1.000000
0.510108 1.000000 1.000000
0.702802 1.000000 1.000000
0.895496 1.000000 1.000000
1.000000 1.000000 1.000000
1.000000 1.000000 1.000000
0.000000 1.000000 1.000000
0.000000 1.000000 1.000000
0.105261 1.000000 1.000000
0.297955 1.000000 1.000000
0.490649 1.000000 1.000000
0.683343 1.000000 1.000000
0.876037 1.000000 1.000000
1.000000 1.000000 1.000000
1.000000 1.000000 1.000000
0.000000 0.000000 1.000000
0.064461 0.000000 1.000000
0.257155 0.000000 1.000000
0.449849 0.000000 1.000000
0.642542 0.000000 1.000000
0.835236 0.000000 1.000000
1.000000 0.000000 1.000000
1.000000 0.000000 1.000000
1.000000 0.000000 1.000000
0.000000 0.051208 1.000000
0.045002 0.041102 1.000000
0.237696 0.030996 1.000000
0.430390 0.020890 1.000000
0.623083 0.010783 1.000000
0.815777 0.000677 1.000000
1.000000 0.000000 1.000000
1.000000 0.000000 1.000000
1.000000 0.000000 1.000000
0.000000 0.230649 1.000000
0.025543 0.220543 1.000000
0.218237 0.210437 1.000000
0.410930 0.200331 1.000000
0.603624 0.190224 1.000000
0.796318 0.180118 1.000000
0.989012 0.170012 1.000000
1.000000 0.159906 1.000000
1.000000 0.149800 1.000000
0.000000 0.410090 1.000000
0.006084 0.399984 1.000000
0.198778 0.389878 1.000000
0.391471 0.379771 1.000000
0.584165 0.369665 1.000000
0.776859 0.359559 1.000000
0.969553 0.349453 1.000000
1.000000 0.339347 1.000000
1.000000 0.329240 1.000000
0.000000 0.589531 1.000000
0.000000 0.579425 1.000000
0.179319 0.569319 1.000000
0.372012 0.559212 1.000000
0.564706 0.549106 1.000000
0.757400 0.539000 1.000000
0.950094 0.528894 1.000000
1.000000 0.518788 1.000000
1.000000 0.508681 1.000000
0.000000 0.768972 1.000000
0.000000 0.758866 1.000000
0.159860 0.748760 1.000000
0.352553 0.738653 1.000000
0.545247 0.728547 1.000000
0.737941 0.718441 1.000000
0.930635 0.708335 1.000000
1.000000 0.698229 1.000000
1.000000 0.688122 1.000000
0.000000 0.948413 1.000000
0.000000 0.938307 1.000000
0.140400 0.928200 1.000000
0.333094 0.918094 1.000000
0.525788 0.907988 1.000000
0.718482 0.897882 1.000000
0.911176 0.887776 1.000000
1.000000 0.877669 1.000000
1.000000 0.867563 1.000000
0.000000 1.000000 1.000000
0.000000 1.000000 1.000000
0.120941 1.000000 1.000000
0.313635 1.000000 1.000000
0.506329 1.000000 1.000000
0.699023 1.000000 1.000000
0.891717 1.000000 1.000000
1.000000 1.000000 1.000000
1.000000 1.000000 1.000000
0.000000 1.000000 1.000000
0.000000 1.000000 1.000000
0.101482 1.000000 1.000000
0.294176 1.000000 1.000000
0.486870 1.000000 1.000000
0.679564 1.000000 1.000000
0.872258 1.000000 1.000000
1.000000 1.000000 1.000000
1.000000 1.000000 1.000000
