assets/luts/primelive_ziran_liang.cube
TITLE "primelive_ziran_liang"
LUT_3D_SIZE 5
0.088400 0.088400 0.088400
0.356470 0.083785 0.083785
0.624540 0.079170 0.079170
0.892610 0.074555 0.074555
1.000000 0.069940 0.069940
0.079426 0.349514 0.079426
0.347496 0.344899 0.074811
0.615566 0.340284 0.070196
0.883636 0.335669 0.065581
1.000000 0.331054 0.060966
0.070452 0.610628 0.070452
0.338522 0.606013 0.065837
0.606592 0.601398 0.061222
0.874662 0.596783 0.056607
1.000000 0.592168 0.051992
0.061478 0.871742 0.061478
0.329548 0.867127 0.056863
0.597618 0.862512 0.052248
0.865688 0.857897 0.047633
1.000000 0.853282 0.043018
0.052504 1.000000 0.052504
0.320574 1.000000 0.047889
0.588644 1.000000 0.043274
0.856714 1.000000 0.038659
1.000000 1.000000 0.034043
0.086640 0.086640 0.359325
0.354710 0.082025 0.354710
0.622780 0.077410 0.350095
0.890850 0.072795 0.345480
1.000000 0.068180 0.340865
0.077666 0.347754 0.350351
0.345736 0.343139 0.345736
0.613806 0.338524 0.341121
0.881876 0.333909 0.336506
1.000000 0.329294 0.331891
0.068692 0.608868 0.341377
0.336762 0.604253 0.336762
0.604832 0.599638 0.332147
0.872902 0.595023 0.327532
1.000000 0.590408 0.322917
0.059718 0.869982 0.332403
0.327788 0.865367 0.327788
0.595858 0.860752 0.323173
0.863928 0.856137 0.318558
1.000000 0.851522 0.313943
0.050744 1.000000 0.323429
0.318814 1.000000 0.318814
0.586884 1.000000 0.314199
0.854954 1.000000 0.309584
1.000000 1.000000 0.304969
0.084881 0.084881 0.630251
0.352951 0.080266 0.625636
0.621021 0.075651 0.621021
0.889091 0.071036 0.616406
1.000000 0.066421 0.611791
0.075907 0.345995 0.621277
0.343977 0.341380 0.616662
0.612047 0.336765 0.612047
0.880117 0.332150 0.607432
1.000000 0.327534 0.602816
0.066933 0.607109 0.612303
0.335003 0.602494 0.607688
0.603073 0.597879 0.603073
0.871142 0.593264 0.598457
1.000000 0.588648 0.593842
0.057959 0.868223 0.603329
0.326029 0.863608 0.598714
0.594098 0.858992 0.594098
0.862168 0.854377 0.589483
1.000000 0.849762 0.584868
0.048985 1.000000 0.594355
0.317054 1.000000 0.589739
0.585124 1.000000 0.585124
0.853194 1.000000 0.580509
1.000000 1.000000 0.575894
0.083121 0.083121 0.901176
0.351191 0.078506 0.896561
0.619261 0.073891 0.891946
0.887331 0.069276 0.887331
1.000000 0.064661 0.882716
0.074147 0.344235 0.892202
0.342217 0.339620 0.887587
0.610287 0.335005 0.882972
0.878357 0.330390 0.878357
1.000000 0.325775 0.873742
0.065173 0.605349 0.883228
0.333243 0.600734 0.878613
0.601313 0.596119 0.873998
0.869383 0.591504 0.869383
1.000000 0.586889 0.864768
0.056199 0.866463 0.874254
0.324269 0.861848 0.869639
0.592339 0.857233 0.865024
0.860409 0.852618 0.860409
1.000000 0.848003 0.855794
0.047225 1.000000 0.865280
0.315295 1.000000 0.860665
0.583365 1.000000 0.856050
0.851435 1.000000 0.851435
1.000000 1.000000 0.846820
0.081362 0.081362 1.000000
0.349432 0.076747 1.000000
0.617501 0.072131 1.000000
0.885571 0.067516 1.000000
1.000000 0.062901 1.000000
0.072388 0.342476 1.000000
0.340457 0.337860 1.000000
0.608527 0.333245 1.000000
0.876597 0.328630 1.000000
1.000000 0.324015 1.000000
0.063414 0.603590 1.000000
0.331483 0.598974 1.000000
0.599553 0.594359 1.000000
0.867623 0.589744 1.000000
1.000000 0.585129 1.000000
0.054439 0.864703 1.000000
0.322509 0.860088 1.000000
0.590579 0.855473 1.000000
0.858649 0.850858 1.000000
1.000000 0.846243 1.000000
0.045465 1.000000 1.000000
0.313535 1.000000 1.000000
0.581605 1.000000 1.000000
0.849675 1.000000 1.000000
1.000000 1.000000 1.000000
