assets/luts/primelive_shuiguang.cube
TITLE "primelive_shuiguang"
LUT_3D_SIZE 5
0.006629 0.006629 0.006701
0.294741 0.000216 0.001168
0.582852 0.000000 0.000000
0.870963 0.000000 0.000000
1.000000 0.000000 0.000000
0.000000 0.291327 0.000000
0.282026 0.284913 0.000000
0.570137 0.278499 0.000000
0.858248 0.272086 0.000000
1.000000 0.265672 0.000000
0.000000 0.576024 0.000000
0.269311 0.569611 0.000000
0.557422 0.563197 0.000000
0.845533 0.556783 0.000000
1.000000 0.550370 0.000000
0.000000 0.860722 0.000000
0.256596 0.854308 0.000000
0.544707 0.847895 0.000000
0.832818 0.841481 0.000000
1.000000 0.835067 0.000000
0.000000 1.000000 0.000000
0.243881 1.000000 0.000000
0.531992 1.000000 0.000000
0.820103 1.000000 0.000000
1.000000 1.000000 0.000000
0.004136 0.004136 0.304850
0.292247 0.000000 0.299317
0.580358 0.000000 0.293784
0.868470 0.000000 0.288251
1.000000 0.000000 0.282717
0.000000 0.288834 0.293881
0.279532 0.282420 0.288348
0.567644 0.276006 0.282815
0.855755 0.269592 0.277281
1.000000 0.263179 0.271748
0.000000 0.573531 0.282912
0.266817 0.567117 0.277379
0.554929 0.560704 0.271845
0.843040 0.554290 0.266312
1.000000 0.547876 0.260779
0.000000 0.858229 0.271943
0.254103 0.851815 0.266409
0.542214 0.845401 0.260876
0.830325 0.838988 0.255343
1.000000 0.832574 0.249810
0.000000 1.000000 0.260973
0.241388 1.000000 0.255440
0.529499 1.000000 0.249907
0.817610 1.000000 0.244374
1.000000 1.000000 0.238841
0.001643 0.001643 0.602999
0.289754 0.000000 0.597466
0.577865 0.000000 0.591933
0.865976 0.000000 0.586400
1.000000 0.000000 0.580866
0.000000 0.286340 0.592030
0.277039 0.279927 0.586497
0.565150 0.273513 0.580964
0.853262 0.267099 0.575430
1.000000 0.260685 0.569897
0.000000 0.571038 0.581061
0.264324 0.564624 0.575528
0.552435 0.558210 0.569994
0.840547 0.551797 0.564461
1.000000 0.545383 0.558928
0.000000 0.855735 0.570091
0.251609 0.849322 0.564558
0.539720 0.842908 0.559025
0.827832 0.836494 0.553492
1.000000 0.830081 0.547959
0.000000 1.000000 0.559122
0.238894 1.000000 0.553589
0.527006 1.000000 0.548056
0.815117 1.000000 0.542523
1.000000 1.000000 0.536990
0.000000 0.000000 0.901148
0.287261 0.000000 0.895615
0.575372 0.000000 0.890082
0.863483 0.000000 0.884549
1.000000 0.000000 0.879015
0.000000 0.283847 0.890179
0.274546 0.277433 0.884646
0.562657 0.271020 0.879112
0.850768 0.264606 0.873579
1.000000 0.258192 0.868046
0.000000 0.568545 0.879210
0.261831 0.562131 0.873676
0.549942 0.555717 0.868143
0.838053 0.549303 0.862610
1.000000 0.542890 0.857077
0.000000 0.853242 0.868240
0.249116 0.846828 0.862707
0.537227 0.840415 0.857174
0.825338 0.834001 0.851641
1.000000 0.827587 0.846108
0.000000 1.000000 0.857271
0.236401 1.000000 0.851738
0.524512 1.000000 0.846205
0.812624 1.000000 0.840672
1.000000 1.000000 0.835139
0.000000 0.000000 1.000000
0.284767 0.000000 1.000000
0.572879 0.000000 1.000000
0.860990 0.000000 1.000000
1.000000 0.000000 1.000000
0.000000 0.281354 1.000000
0.272052 0.274940 1.000000
0.560164 0.268526 1.000000
0.848275 0.262113 1.000000
1.000000 0.255699 1.000000
0.000000 0.566051 1.000000
0.259338 0.559637 1.000000
0.547449 0.553224 1.000000
0.835560 0.546810 1.000000
1.000000 0.540396 1.000000
0.000000 0.850749 1.000000
0.246623 0.844335 1.000000
0.534734 0.837921 1.000000
0.822845 0.831508 1.000000
1.000000 0.825094 1.000000
0.000000 1.000000 1.000000
0.233908 1.000000 1.000000
0.522019 1.000000 1.000000
0.810130 1.000000 1.000000
1.000000 1.000000 1.000000
