assets/luts/primelive_shuiguang.cube
TITLE "primelive_shuiguang"
LUT_3D_SIZE 33
0.006629 0.006629 0.006701
0.042643 0.005828 0.006009
0.078657 0.005026 0.005318
0.114671 0.004224 0.004626
0.150685 0.003422 0.003934
0.186699 0.002621 0.003243
0.222713 0.001819 0.002551
0.258727 0.001017 0.001859
0.294741 0.000216 0.001168
0.330754 0.000000 0.000476
0.366768 0.000000 0.000000
0.402782 0.000000 0.000000
0.438796 0.000000 0.000000
0.474810 0.000000 0.000000
0.510824 0.000000 0.000000
0.546838 0.000000 0.000000
0.582852 0.000000 0.000000
0.618866 0.000000 0.000000
0.654880 0.000000 0.000000
0.690893 0.000000 0.000000
0.726907 0.000000 0.000000
0.762921 0.000000 0.000000
0.798935 0.000000 0.000000
0.834949 0.000000 0.000000
0.870963 0.000000 0.000000
0.906977 0.000000 0.000000
0.942991 0.000000 0.000000
0.979005 0.000000 0.000000
1.000000 0.000000 0.000000
1.000000 0.000000 0.000000
1.000000 0.000000 0.000000
1.000000 0.000000 0.000000
1.000000 0.000000 0.000000
0.005040 0.042216 0.005330
0.041054 0.041415 0.004638
0.077068 0.040613 0.003946
0.113082 0.039811 0.003255
0.149096 0.039010 0.002563
0.185109 0.038208 0.001871
0.221123 0.037406 0.001180
0.257137 0.036604 0.000488
0.293151 0.035803 0.000000
0.329165 0.035001 0.000000
0.365179 0.034199 0.000000
0.401193 0.033398 0.000000
0.437207 0.032596 0.000000
0.473221 0.031794 0.000000
0.509235 0.030992 0.000000
0.545249 0.030191 0.000000
0.581262 0.029389 0.000000
0.617276 0.028587 0.000000
0.653290 0.027786 0.000000
0.689304 0.026984 0.000000
0.725318 0.026182 0.000000
0.761332 0.025380 0.000000
0.797346 0.024579 0.000000
0.833360 0.023777 0.000000
0.869374 0.022975 0.000000
0.905388 0.022174 0.000000
0.941402 0.021372 0.000000
0.977415 0.020570 0.000000
1.000000 0.019768 0.000000
1.000000 0.018967 0.000000
1.000000 0.018165 0.000000
1.000000 0.017363 0.000000
1.000000 0.016562 0.000000
0.003451 0.077804 0.003959
0.039464 0.077002 0.003267
0.075478 0.076200 0.002575
0.111492 0.075399 0.001884
0.147506 0.074597 0.001192
0.183520 0.073795 0.000500
0.219534 0.072993 0.000000
0.255548 0.072192 0.000000
0.291562 0.071390 0.000000
0.327576 0.070588 0.000000
0.363590 0.069787 0.000000
0.399604 0.068985 0.000000
0.435617 0.068183 0.000000
0.471631 0.067381 0.000000
0.507645 0.066580 0.000000
0.543659 0.065778 0.000000
0.579673 0.064976 0.000000
0.615687 0.064175 0.000000
0.651701 0.063373 0.000000
0.687715 0.062571 0.000000
0.723729 0.061769 0.000000
0.759743 0.060968 0.000000
0.795756 0.060166 0.000000
0.831770 0.059364 0.000000
0.867784 0.058563 0.000000
0.903798 0.057761 0.000000
0.939812 0.056959 0.000000
0.975826 0.056157 0.000000
1.000000 0.055356 0.000000
1.000000 0.054554 0.000000
1.000000 0.053752 0.000000
1.000000 0.052951 0.000000
1.000000 0.052149 0.000000
0.001861 0.113391 0.002587
0.037875 0.112589 0.001896
0.073889 0.111787 0.001204
0.109903 0.110986 0.000512
0.145917 0.110184 0.000000
0.181931 0.109382 0.000000
0.217945 0.108581 0.000000
0.253959 0.107779 0.000000
0.289972 0.106977 0.000000
0.325986 0.106175 0.000000
0.362000 0.105374 0.000000
0.398014 0.104572 0.000000
0.434028 0.103770 0.000000
0.470042 0.102969 0.000000
0.506056 0.102167 0.000000
0.542070 0.101365 0.000000
0.578084 0.100563 0.000000
0.614098 0.099762 0.000000
0.650112 0.098960 0.000000
0.686125 0.098158 0.000000
0.722139 0.097357 0.000000
0.758153 0.096555 0.000000
0.794167 0.095753 0.000000
0.830181 0.094951 0.000000
0.866195 0.094150 0.000000
0.902209 0.093348 0.000000
0.938223 0.092546 0.000000
0.974237 0.091745 0.000000
1.000000 0.090943 0.000000
1.000000 0.090141 0.000000
1.000000 0.089339 0.000000
1.000000 0.088538 0.000000
1.000000 0.087736 0.000000
0.000272 0.148978 0.001216
0.036286 0.148176 0.000525
0.072300 0.147375 0.000000
0.108314 0.146573 0.000000
0.144327 0.145771 0.000000
0.180341 0.144970 0.000000
0.216355 0.144168 0.000000
0.252369 0.143366 0.000000
0.288383 0.142564 0.000000
0.324397 0.141763 0.000000
0.360411 0.140961 0.000000
0.396425 0.140159 0.000000
0.432439 0.139358 0.000000
0.468453 0.138556 0.000000
0.504467 0.137754 0.000000
0.540480 0.136952 0.000000
0.576494 0.136151 0.000000
0.612508 0.135349 0.000000
0.648522 0.134547 0.000000
0.684536 0.133746 0.000000
0.720550 0.132944 0.000000
0.756564 0.132142 0.000000
0.792578 0.131340 0.000000
0.828592 0.130539 0.000000
0.864606 0.129737 0.000000
0.900620 0.128935 0.000000
0.936633 0.128134 0.000000
0.972647 0.127332 0.000000
1.000000 0.126530 0.000000
1.000000 0.125728 0.000000
1.000000 0.124927 0.000000
1.000000 0.124125 0.000000
1.000000 0.123323 0.000000
0.000000 0.184565 0.000000
0.034696 0.183764 0.000000
0.070710 0.182962 0.000000
0.106724 0.182160 0.000000
0.142738 0.181358 0.000000
0.178752 0.180557 0.000000
0.214766 0.179755 0.000000
0.250780 0.178953 0.000000
0.286794 0.178152 0.000000
0.322808 0.177350 0.000000
0.358822 0.176548 0.000000
0.394835 0.175746 0.000000
0.430849 0.174945 0.000000
0.466863 0.174143 0.000000
0.502877 0.173341 0.000000
0.538891 0.172540 0.000000
0.574905 0.171738 0.000000
0.610919 0.170936 0.000000
0.646933 0.170134 0.000000
0.682947 0.169333 0.000000
0.718961 0.168531 0.000000
0.754975 0.167729 0.000000
0.790988 0.166928 0.000000
0.827002 0.166126 0.000000
0.863016 0.165324 0.000000
0.899030 0.164522 0.000000
0.935044 0.163721 0.000000
0.971058 0.162919 0.000000
1.000000 0.162117 0.000000
1.000000 0.161316 0.000000
1.000000 0.160514 0.000000
1.000000 0.159712 0.000000
1.000000 0.158910 0.000000
0.000000 0.220152 0.000000
0.033107 0.219351 0.000000
0.069121 0.218549 0.000000
0.105135 0.217747 0.000000
0.141149 0.216946 0.000000
0.177163 0.216144 0.000000
0.213177 0.215342 0.000000
0.249190 0.214540 0.000000
0.285204 0.213739 0.000000
0.321218 0.212937 0.000000
0.357232 0.212135 0.000000
0.393246 0.211334 0.000000
0.429260 0.210532 0.000000
0.465274 0.209730 0.000000
0.501288 0.208928 0.000000
0.537302 0.208127 0.000000
0.573316 0.207325 0.000000
0.609330 0.206523 0.000000
0.645343 0.205722 0.000000
0.681357 0.204920 0.000000
0.717371 0.204118 0.000000
0.753385 0.203316 0.000000
0.789399 0.202515 0.000000
0.825413 0.201713 0.000000
0.861427 0.200911 0.000000
0.897441 0.200110 0.000000
0.933455 0.199308 0.000000
0.969469 0.198506 0.000000
1.000000 0.197704 0.000000
1.000000 0.196903 0.000000
1.000000 0.196101 0.000000
1.000000 0.195299 0.000000
1.000000 0.194498 0.000000
0.000000 0.255740 0.000000
0.031518 0.254938 0.000000
0.067532 0.254136 0.000000
0.103546 0.253335 0.000000
0.139559 0.252533 0.000000
0.175573 0.251731 0.000000
0.211587 0.250929 0.000000
0.247601 0.250128 0.000000
0.283615 0.249326 0.000000
0.319629 0.248524 0.000000
0.355643 0.247723 0.000000
0.391657 0.246921 0.000000
0.427671 0.246119 0.000000
0.463685 0.245317 0.000000
0.499698 0.244516 0.000000
0.535712 0.243714 0.000000
0.571726 0.242912 0.000000
0.607740 0.242111 0.000000
0.643754 0.241309 0.000000
0.679768 0.240507 0.000000
0.715782 0.239705 0.000000
0.751796 0.238904 0.000000
0.787810 0.238102 0.000000
0.823824 0.237300 0.000000
0.859838 0.236499 0.000000
0.895851 0.235697 0.000000
0.931865 0.234895 0.000000
0.967879 0.234093 0.000000
1.000000 0.233292 0.000000
1.000000 0.232490 0.000000
1.000000 0.231688 0.000000
1.000000 0.230887 0.000000
1.000000 0.230085 0.000000
0.000000 0.291327 0.000000
0.029928 0.290525 0.000000
0.065942 0.289723 0.000000
0.101956 0.288922 0.000000
0.137970 0.288120 0.000000
0.173984 0.287318 0.000000
0.209998 0.286517 0.000000
0.246012 0.285715 0.000000
0.282026 0.284913 0.000000
0.318040 0.284111 0.000000
0.354053 0.283310 0.000000
0.390067 0.282508 0.000000
0.426081 0.281706 0.000000
0.462095 0.280905 0.000000
0.498109 0.280103 0.000000
0.534123 0.279301 0.000000
0.570137 0.278499 0.000000
0.606151 0.277698 0.000000
0.642165 0.276896 0.000000
0.678179 0.276094 0.000000
0.714193 0.275293 0.000000
0.750206 0.274491 0.000000
0.786220 0.273689 0.000000
0.822234 0.272887 0.000000
0.858248 0.272086 0.000000
0.894262 0.271284 0.000000
0.930276 0.270482 0.000000
0.966290 0.269681 0.000000
1.000000 0.268879 0.000000
1.000000 0.268077 0.000000
1.000000 0.267275 0.000000
1.000000 0.266474 0.000000
1.000000 0.265672 0.000000
0.000000 0.326914 0.000000
0.028339 0.326112 0.000000
0.064353 0.325311 0.000000
0.100367 0.324509 0.000000
0.136381 0.323707 0.000000
0.172395 0.322905 0.000000
0.208408 0.322104 0.000000
0.244422 0.321302 0.000000
0.280436 0.320500 0.000000
0.316450 0.319699 0.000000
0.352464 0.318897 0.000000
0.388478 0.318095 0.000000
0.424492 0.317293 0.000000
0.460506 0.316492 0.000000
0.496520 0.315690 0.000000
0.532534 0.314888 0.000000
0.568548 0.314087 0.000000
0.604561 0.313285 0.000000
0.640575 0.312483 0.000000
0.676589 0.311681 0.000000
0.712603 0.310880 0.000000
0.748617 0.310078 0.000000
0.784631 0.309276 0.000000
0.820645 0.308475 0.000000
0.856659 0.307673 0.000000
0.892673 0.306871 0.000000
0.928687 0.306070 0.000000
0.964700 0.305268 0.000000
1.000000 0.304466 0.000000
1.000000 0.303664 0.000000
1.000000 0.302863 0.000000
1.000000 0.302061 0.000000
1.000000 0.301259 0.000000
0.000000 0.362501 0.000000
0.026750 0.361700 0.000000
0.062763 0.360898 0.000000
0.098777 0.360096 0.000000
0.134791 0.359294 0.000000
0.170805 0.358493 0.000000
0.206819 0.357691 0.000000
0.242833 0.356889 0.000000
0.278847 0.356088 0.000000
0.314861 0.355286 0.000000
0.350875 0.354484 0.000000
0.386889 0.353682 0.000000
0.422903 0.352881 0.000000
0.458917 0.352079 0.000000
0.494930 0.351277 0.000000
0.530944 0.350476 0.000000
0.566958 0.349674 0.000000
0.602972 0.348872 0.000000
0.638986 0.348070 0.000000
0.675000 0.347269 0.000000
0.711014 0.346467 0.000000
0.747028 0.345665 0.000000
0.783042 0.344864 0.000000
0.819056 0.344062 0.000000
0.855069 0.343260 0.000000
0.891083 0.342458 0.000000
0.927097 0.341657 0.000000
0.963111 0.340855 0.000000
0.999125 0.340053 0.000000
1.000000 0.339252 0.000000
1.000000 0.338450 0.000000
1.000000 0.337648 0.000000
1.000000 0.336846 0.000000
0.000000 0.398088 0.000000
0.025160 0.397287 0.000000
0.061174 0.396485 0.000000
0.097188 0.395683 0.000000
0.133202 0.394882 0.000000
0.169216 0.394080 0.000000
0.205230 0.393278 0.000000
0.241244 0.392476 0.000000
0.277258 0.391675 0.000000
0.313271 0.390873 0.000000
0.349285 0.390071 0.000000
0.385299 0.389270 0.000000
0.421313 0.388468 0.000000
0.457327 0.387666 0.000000
0.493341 0.386864 0.000000
0.529355 0.386063 0.000000
0.565369 0.385261 0.000000
0.601383 0.384459 0.000000
0.637397 0.383658 0.000000
0.673410 0.382856 0.000000
0.709424 0.382054 0.000000
0.745438 0.381252 0.000000
0.781452 0.380451 0.000000
0.817466 0.379649 0.000000
0.853480 0.378847 0.000000
0.889494 0.378046 0.000000
0.925508 0.377244 0.000000
0.961522 0.376442 0.000000
0.997536 0.375640 0.000000
1.000000 0.374839 0.000000
1.000000 0.374037 0.000000
1.000000 0.373235 0.000000
1.000000 0.372434 0.000000
0.000000 0.433676 0.000000
0.023571 0.432874 0.000000
0.059585 0.432072 0.000000
0.095599 0.431271 0.000000
0.131613 0.430469 0.000000
0.167626 0.429667 0.000000
0.203640 0.428865 0.000000
0.239654 0.428064 0.000000
0.275668 0.427262 0.000000
0.311682 0.426460 0.000000
0.347696 0.425659 0.000000
0.383710 0.424857 0.000000
0.419724 0.424055 0.000000
0.455738 0.423253 0.000000
0.491752 0.422452 0.000000
0.527766 0.421650 0.000000
0.563779 0.420848 0.000000
0.599793 0.420047 0.000000
0.635807 0.419245 0.000000
0.671821 0.418443 0.000000
0.707835 0.417641 0.000000
0.743849 0.416840 0.000000
0.779863 0.416038 0.000000
0.815877 0.415236 0.000000
0.851891 0.414435 0.000000
0.887905 0.413633 0.000000
0.923919 0.412831 0.000000
0.959932 0.412029 0.000000
0.995946 0.411228 0.000000
1.000000 0.410426 0.000000
1.000000 0.409624 0.000000
1.000000 0.408823 0.000000
1.000000 0.408021 0.000000
0.000000 0.469263 0.000000
0.021981 0.468461 0.000000
0.057995 0.467659 0.000000
0.094009 0.466858 0.000000
0.130023 0.466056 0.000000
0.166037 0.465254 0.000000
0.202051 0.464453 0.000000
0.238065 0.463651 0.000000
0.274079 0.462849 0.000000
0.310093 0.462047 0.000000
0.346107 0.461246 0.000000
0.382121 0.460444 0.000000
0.418134 0.459642 0.000000
0.454148 0.458841 0.000000
0.490162 0.458039 0.000000
0.526176 0.457237 0.000000
0.562190 0.456435 0.000000
0.598204 0.455634 0.000000
0.634218 0.454832 0.000000
0.670232 0.454030 0.000000
0.706246 0.453229 0.000000
0.742260 0.452427 0.000000
0.778273 0.451625 0.000000
0.814287 0.450823 0.000000
0.850301 0.450022 0.000000
0.886315 0.449220 0.000000
0.922329 0.448418 0.000000
0.958343 0.447617 0.000000
0.994357 0.446815 0.000000
1.000000 0.446013 0.000000
1.000000 0.445211 0.000000
1.000000 0.444410 0.000000
1.000000 0.443608 0.000000
0.000000 0.504850 0.000000
0.020392 0.504048 0.000000
0.056406 0.503247 0.000000
0.092420 0.502445 0.000000
0.128434 0.501643 0.000000
0.164448 0.500841 0.000000
0.200462 0.500040 0.000000
0.236476 0.499238 0.000000
0.272489 0.498436 0.000000
0.308503 0.497635 0.000000
0.344517 0.496833 0.000000
0.380531 0.496031 0.000000
0.416545 0.495229 0.000000
0.452559 0.494428 0.000000
0.488573 0.493626 0.000000
0.524587 0.492824 0.000000
0.560601 0.492023 0.000000
0.596615 0.491221 0.000000
0.632629 0.490419 0.000000
0.668642 0.489618 0.000000
0.704656 0.488816 0.000000
0.740670 0.488014 0.000000
0.776684 0.487212 0.000000
0.812698 0.486411 0.000000
0.848712 0.485609 0.000000
0.884726 0.484807 0.000000
0.920740 0.484006 0.000000
0.956754 0.483204 0.000000
0.992768 0.482402 0.000000
1.000000 0.481600 0.000000
1.000000 0.480799 0.000000
1.000000 0.479997 0.000000
1.000000 0.479195 0.000000
0.000000 0.540437 0.000000
0.018803 0.539636 0.000000
0.054817 0.538834 0.000000
0.090831 0.538032 0.000000
0.126844 0.537230 0.000000
0.162858 0.536429 0.000000
0.198872 0.535627 0.000000
0.234886 0.534825 0.000000
0.270900 0.534024 0.000000
0.306914 0.533222 0.000000
0.342928 0.532420 0.000000
0.378942 0.531618 0.000000
0.414956 0.530817 0.000000
0.450970 0.530015 0.000000
0.486984 0.529213 0.000000
0.522997 0.528412 0.000000
0.559011 0.527610 0.000000
0.595025 0.526808 0.000000
0.631039 0.526006 0.000000
0.667053 0.525205 0.000000
0.703067 0.524403 0.000000
0.739081 0.523601 0.000000
0.775095 0.522800 0.000000
0.811109 0.521998 0.000000
0.847123 0.521196 0.000000
0.883137 0.520394 0.000000
0.919150 0.519593 0.000000
0.955164 0.518791 0.000000
0.991178 0.517989 0.000000
1.000000 0.517188 0.000000
1.000000 0.516386 0.000000
1.000000 0.515584 0.000000
1.000000 0.514782 0.000000
0.000000 0.576024 0.000000
0.017213 0.575223 0.000000
0.053227 0.574421 0.000000
0.089241 0.573619 0.000000
0.125255 0.572818 0.000000
0.161269 0.572016 0.000000
0.197283 0.571214 0.000000
0.233297 0.570412 0.000000
0.269311 0.569611 0.000000
0.305325 0.568809 0.000000
0.341339 0.568007 0.000000
0.377352 0.567206 0.000000
0.413366 0.566404 0.000000
0.449380 0.565602 0.000000
0.485394 0.564800 0.000000
0.521408 0.563999 0.000000
0.557422 0.563197 0.000000
0.593436 0.562395 0.000000
0.629450 0.561594 0.000000
0.665464 0.560792 0.000000
0.701478 0.559990 0.000000
0.737492 0.559188 0.000000
0.773505 0.558387 0.000000
0.809519 0.557585 0.000000
0.845533 0.556783 0.000000
0.881547 0.555982 0.000000
0.917561 0.555180 0.000000
0.953575 0.554378 0.000000
0.989589 0.553576 0.000000
1.000000 0.552775 0.000000
1.000000 0.551973 0.000000
1.000000 0.551171 0.000000
1.000000 0.550370 0.000000
0.000000 0.611612 0.000000
0.015624 0.610810 0.000000
0.051638 0.610008 0.000000
0.087652 0.609206 0.000000
0.123666 0.608405 0.000000
0.159680 0.607603 0.000000
0.195694 0.606801 0.000000
0.231707 0.606000 0.000000
0.267721 0.605198 0.000000
0.303735 0.604396 0.000000
0.339749 0.603594 0.000000
0.375763 0.602793 0.000000
0.411777 0.601991 0.000000
0.447791 0.601189 0.000000
0.483805 0.600388 0.000000
0.519819 0.599586 0.000000
0.555833 0.598784 0.000000
0.591847 0.597982 0.000000
0.627861 0.597181 0.000000
0.663874 0.596379 0.000000
0.699888 0.595577 0.000000
0.735902 0.594776 0.000000
0.771916 0.593974 0.000000
0.807930 0.593172 0.000000
0.843944 0.592370 0.000000
0.879958 0.591569 0.000000
0.915972 0.590767 0.000000
0.951986 0.589965 0.000000
0.988000 0.589164 0.000000
1.000000 0.588362 0.000000
1.000000 0.587560 0.000000
1.000000 0.586758 0.000000
1.000000 0.585957 0.000000
0.000000 0.647199 0.000000
0.014035 0.646397 0.000000
0.050049 0.645595 0.000000
0.086063 0.644794 0.000000
0.122076 0.643992 0.000000
0.158090 0.643190 0.000000
0.194104 0.642388 0.000000
0.230118 0.641587 0.000000
0.266132 0.640785 0.000000
0.302146 0.639983 0.000000
0.338160 0.639182 0.000000
0.374174 0.638380 0.000000
0.410188 0.637578 0.000000
0.446202 0.636776 0.000000
0.482215 0.635975 0.000000
0.518229 0.635173 0.000000
0.554243 0.634371 0.000000
0.590257 0.633570 0.000000
0.626271 0.632768 0.000000
0.662285 0.631966 0.000000
0.698299 0.631164 0.000000
0.734313 0.630363 0.000000
0.770327 0.629561 0.000000
0.806341 0.628759 0.000000
0.842355 0.627958 0.000000
0.878368 0.627156 0.000000
0.914382 0.626354 0.000000
0.950396 0.625553 0.000000
0.986410 0.624751 0.000000
1.000000 0.623949 0.000000
1.000000 0.623147 0.000000
1.000000 0.622346 0.000000
1.000000 0.621544 0.000000
0.000000 0.682786 0.000000
0.012445 0.681984 0.000000
0.048459 0.681183 0.000000
0.084473 0.680381 0.000000
0.120487 0.679579 0.000000
0.156501 0.678777 0.000000
0.192515 0.677976 0.000000
0.228529 0.677174 0.000000
0.264543 0.676372 0.000000
0.300557 0.675571 0.000000
0.336570 0.674769 0.000000
0.372584 0.673967 0.000000
0.408598 0.673165 0.000000
0.444612 0.672364 0.000000
0.480626 0.671562 0.000000
0.516640 0.670760 0.000000
0.552654 0.669959 0.000000
0.588668 0.669157 0.000000
0.624682 0.668355 0.000000
0.660696 0.667553 0.000000
0.696710 0.666752 0.000000
0.732723 0.665950 0.000000
0.768737 0.665148 0.000000
0.804751 0.664347 0.000000
0.840765 0.663545 0.000000
0.876779 0.662743 0.000000
0.912793 0.661941 0.000000
0.948807 0.661140 0.000000
0.984821 0.660338 0.000000
1.000000 0.659536 0.000000
1.000000 0.658735 0.000000
1.000000 0.657933 0.000000
1.000000 0.657131 0.000000
0.000000 0.718373 0.000000
0.010856 0.717571 0.000000
0.046870 0.716770 0.000000
0.082884 0.715968 0.000000
0.118898 0.715166 0.000000
0.154912 0.714365 0.000000
0.190926 0.713563 0.000000
0.226939 0.712761 0.000000
0.262953 0.711959 0.000000
0.298967 0.711158 0.000000
0.334981 0.710356 0.000000
0.370995 0.709554 0.000000
0.407009 0.708753 0.000000
0.443023 0.707951 0.000000
0.479037 0.707149 0.000000
0.515051 0.706347 0.000000
0.551065 0.705546 0.000000
0.587078 0.704744 0.000000
0.623092 0.703942 0.000000
0.659106 0.703141 0.000000
0.695120 0.702339 0.000000
0.731134 0.701537 0.000000
0.767148 0.700735 0.000000
0.803162 0.699934 0.000000
0.839176 0.699132 0.000000
0.875190 0.698330 0.000000
0.911204 0.697529 0.000000
0.947217 0.696727 0.000000
0.983232 0.695925 0.000000
1.000000 0.695123 0.000000
1.000000 0.694322 0.000000
1.000000 0.693520 0.000000
1.000000 0.692718 0.000000
0.000000 0.753960 0.000000
0.009267 0.753159 0.000000
0.045280 0.752357 0.000000
0.081294 0.751555 0.000000
0.117308 0.750754 0.000000
0.153322 0.749952 0.000000
0.189336 0.749150 0.000000
0.225350 0.748348 0.000000
0.261364 0.747547 0.000000
0.297378 0.746745 0.000000
0.333392 0.745943 0.000000
0.369406 0.745142 0.000000
0.405420 0.744340 0.000000
0.441434 0.743538 0.000000
0.477447 0.742736 0.000000
0.513461 0.741935 0.000000
0.549475 0.741133 0.000000
0.585489 0.740331 0.000000
0.621503 0.739530 0.000000
0.657517 0.738728 0.000000
0.693531 0.737926 0.000000
0.729545 0.737124 0.000000
0.765559 0.736323 0.000000
0.801573 0.735521 0.000000
0.837586 0.734719 0.000000
0.873600 0.733918 0.000000
0.909614 0.733116 0.000000
0.945628 0.732314 0.000000
0.981642 0.731512 0.000000
1.000000 0.730711 0.000000
1.000000 0.729909 0.000000
1.000000 0.729107 0.000000
1.000000 0.728306 0.000000
0.000000 0.789548 0.000000
0.007677 0.788746 0.000000
0.043691 0.787944 0.000000
0.079705 0.787142 0.000000
0.115719 0.786341 0.000000
0.151733 0.785539 0.000000
0.187747 0.784737 0.000000
0.223761 0.783936 0.000000
0.259775 0.783134 0.000000
0.295788 0.782332 0.000000
0.331802 0.781530 0.000000
0.367816 0.780729 0.000000
0.403830 0.779927 0.000000
0.439844 0.779125 0.000000
0.475858 0.778324 0.000000
0.511872 0.777522 0.000000
0.547886 0.776720 0.000000
0.583900 0.775919 0.000000
0.619914 0.775117 0.000000
0.655928 0.774315 0.000000
0.691941 0.773513 0.000000
0.727955 0.772712 0.000000
0.763969 0.771910 0.000000
0.799983 0.771108 0.000000
0.835997 0.770307 0.000000
0.872011 0.769505 0.000000
0.908025 0.768703 0.000000
0.944039 0.767901 0.000000
0.980053 0.767100 0.000000
1.000000 0.766298 0.000000
1.000000 0.765496 0.000000
1.000000 0.764695 0.000000
1.000000 0.763893 0.000000
0.000000 0.825135 0.000000
0.006088 0.824333 0.000000
0.042102 0.823531 0.000000
0.078116 0.822730 0.000000
0.114130 0.821928 0.000000
0.150143 0.821126 0.000000
0.186157 0.820324 0.000000
0.222171 0.819523 0.000000
0.258185 0.818721 0.000000
0.294199 0.817919 0.000000
0.330213 0.817118 0.000000
0.366227 0.816316 0.000000
0.402241 0.815514 0.000000
0.438255 0.814712 0.000000
0.474269 0.813911 0.000000
0.510283 0.813109 0.000000
0.546296 0.812307 0.000000
0.582310 0.811506 0.000000
0.618324 0.810704 0.000000
0.654338 0.809902 0.000000
0.690352 0.809100 0.000000
0.726366 0.808299 0.000000
0.762380 0.807497 0.000000
0.798394 0.806695 0.000000
0.834408 0.805894 0.000000
0.870422 0.805092 0.000000
0.906436 0.804290 0.000000
0.942449 0.803488 0.000000
0.978463 0.802687 0.000000
1.000000 0.801885 0.000000
1.000000 0.801083 0.000000
1.000000 0.800282 0.000000
1.000000 0.799480 0.000000
0.000000 0.860722 0.000000
0.004498 0.859920 0.000000
0.040512 0.859119 0.000000
0.076526 0.858317 0.000000
0.112540 0.857515 0.000000
0.148554 0.856713 0.000000
0.184568 0.855912 0.000000
0.220582 0.855110 0.000000
0.256596 0.854308 0.000000
0.292610 0.853507 0.000000
0.328624 0.852705 0.000000
0.364638 0.851903 0.000000
0.400651 0.851101 0.000000
0.436665 0.850300 0.000000
0.472679 0.849498 0.000000
0.508693 0.848696 0.000000
0.544707 0.847895 0.000000
0.580721 0.847093 0.000000
0.616735 0.846291 0.000000
0.652749 0.845489 0.000000
0.688763 0.844688 0.000000
0.724777 0.843886 0.000000
0.760790 0.843084 0.000000
0.796804 0.842283 0.000000
0.832818 0.841481 0.000000
0.868832 0.840679 0.000000
0.904846 0.839877 0.000000
0.940860 0.839076 0.000000
0.976874 0.838274 0.000000
1.000000 0.837472 0.000000
1.000000 0.836671 0.000000
1.000000 0.835869 0.000000
1.000000 0.835067 0.000000
0.000000 0.896309 0.000000
0.002909 0.895507 0.000000
0.038923 0.894706 0.000000
0.074937 0.893904 0.000000
0.110951 0.893102 0.000000
0.146965 0.892301 0.000000
0.182979 0.891499 0.000000
0.218993 0.890697 0.000000
0.255006 0.889895 0.000000
0.291020 0.889094 0.000000
0.327034 0.888292 0.000000
0.363048 0.887490 0.000000
0.399062 0.886689 0.000000
0.435076 0.885887 0.000000
0.471090 0.885085 0.000000
0.507104 0.884284 0.000000
0.543118 0.883482 0.000000
0.579132 0.882680 0.000000
0.615146 0.881878 0.000000
0.651159 0.881077 0.000000
0.687173 0.880275 0.000000
0.723187 0.879473 0.000000
0.759201 0.878672 0.000000
0.795215 0.877870 0.000000
0.831229 0.877068 0.000000
0.867243 0.876266 0.000000
0.903257 0.875465 0.000000
0.939271 0.874663 0.000000
0.975285 0.873861 0.000000
1.000000 0.873060 0.000000
1.000000 0.872258 0.000000
1.000000 0.871456 0.000000
1.000000 0.870654 0.000000
0.000000 0.931896 0.000000
0.001320 0.931095 0.000000
0.037334 0.930293 0.000000
0.073348 0.929491 0.000000
0.109361 0.928689 0.000000
0.145375 0.927888 0.000000
0.181389 0.927086 0.000000
0.217403 0.926284 0.000000
0.253417 0.925483 0.000000
0.289431 0.924681 0.000000
0.325445 0.923879 0.000000
0.361459 0.923077 0.000000
0.397473 0.922276 0.000000
0.433487 0.921474 0.000000
0.469501 0.920672 0.000000
0.505514 0.919871 0.000000
0.541528 0.919069 0.000000
0.577542 0.918267 0.000000
0.613556 0.917465 0.000000
0.649570 0.916664 0.000000
0.685584 0.915862 0.000000
0.721598 0.915060 0.000000
0.757612 0.914259 0.000000
0.793626 0.913457 0.000000
0.829640 0.912655 0.000000
0.865654 0.911853 0.000000
0.901667 0.911052 0.000000
0.937681 0.910250 0.000000
0.973695 0.909448 0.000000
