assets/luts/primelive_dongri.cube
TITLE "primelive_dongri"
LUT_3D_SIZE 5
0.255200 0.255200 0.255200
0.441550 0.256330 0.256330
0.627900 0.257460 0.257460
0.814251 0.258591 0.258591
1.000000 0.259721 0.259721
0.257440 0.444424 0.257440
0.443790 0.445554 0.258570
0.630140 0.446684 0.259700
0.816491 0.447815 0.260831
1.000000 0.448945 0.261961
0.259680 0.633648 0.259680
0.446030 0.634778 0.260810
0.632380 0.635908 0.261940
0.818731 0.637039 0.263071
1.000000 0.638169 0.264201
0.261920 0.822872 0.261920
0.448270 0.824002 0.263050
0.634620 0.825132 0.264180
0.820971 0.826263 0.265311
1.000000 0.827393 0.266441
0.264160 1.000000 0.264160
0.450510 1.000000 0.265290
0.636860 1.000000 0.266420
0.823211 1.000000 0.267551
1.000000 1.000000 0.268681
0.255647 0.255647 0.447923
0.441998 0.256778 0.449054
0.628348 0.257908 0.450184
0.814698 0.259038 0.451314
1.000000 0.260168 0.452444
0.257887 0.444871 0.450163
0.444238 0.446002 0.451294
0.630588 0.447132 0.452424
0.816938 0.448262 0.453554
1.000000 0.449392 0.454684
0.260127 0.634095 0.452403
0.446478 0.635225 0.453534
0.632828 0.636356 0.454664
0.819178 0.637486 0.455794
1.000000 0.638616 0.456924
0.262367 0.823319 0.454643
0.448718 0.824450 0.455774
0.635068 0.825580 0.456904
0.821418 0.826710 0.458034
1.000000 0.827840 0.459164
0.264607 1.000000 0.456883
0.450958 1.000000 0.458014
0.637308 1.000000 0.459144
0.823658 1.000000 0.460274
1.000000 1.000000 0.461404
0.256095 0.256095 0.640647
0.442445 0.257225 0.641777
0.628795 0.258355 0.642907
0.815145 0.259485 0.644037
1.000000 0.260616 0.645168
0.258335 0.445319 0.642887
0.444685 0.446449 0.644017
0.631035 0.447579 0.645147
0.817385 0.448709 0.646277
1.000000 0.449840 0.647408
0.260575 0.634543 0.645127
0.446925 0.635673 0.646257
0.633275 0.636803 0.647387
0.819625 0.637933 0.648517
1.000000 0.639063 0.649648
0.262815 0.823767 0.647367
0.449165 0.824897 0.648497
0.635515 0.826027 0.649627
0.821865 0.827157 0.650757
1.000000 0.828288 0.651888
0.265055 1.000000 0.649607
0.451405 1.000000 0.650737
0.637755 1.000000 0.651867
0.824105 1.000000 0.652997
1.000000 1.000000 0.654128
0.256542 0.256542 0.833370
0.442892 0.257672 0.834500
0.629242 0.258802 0.835630
0.815593 0.259933 0.836761
1.000000 0.261063 0.837891
0.258782 0.445766 0.835610
0.445132 0.446896 0.836740
0.631482 0.448026 0.837870
0.817833 0.449157 0.839001
1.000000 0.450287 0.840131
0.261022 0.634990 0.837850
0.447372 0.636120 0.838980
0.633722 0.637250 0.840110
0.820073 0.638381 0.841241
1.000000 0.639511 0.842371
0.263262 0.824214 0.840090
0.449612 0.825344 0.841220
0.635962 0.826474 0.842350
0.822313 0.827605 0.843481
1.000000 0.828735 0.844611
0.265502 1.000000 0.842330
0.451852 1.000000 0.843460
0.638202 1.000000 0.844590
0.824553 1.000000 0.845721
1.000000 1.000000 0.846851
0.256989 0.256989 1.000000
0.443340 0.258120 1.000000
0.629690 0.259250 1.000000
0.816040 0.260380 1.000000
1.000000 0.261510 1.000000
0.259229 0.446213 1.000000
0.445580 0.447344 1.000000
0.631930 0.448474 1.000000
0.818280 0.449604 1.000000
1.000000 0.450734 1.000000
0.261469 0.635437 1.000000
0.447820 0.636567 1.000000
0.634170 0.637698 1.000000
0.820520 0.638828 1.000000
1.000000 0.639958 1.000000
0.263709 0.824661 1.000000
0.450060 0.825792 1.000000
0.636410 0.826922 1.000000
0.822760 0.828052 1.000000
1.000000 0.829182 1.000000
0.265949 1.000000 1.000000
0.452300 1.000000 1.000000
0.638650 1.000000 1.000000
0.825000 1.000000 1.000000
1.000000 1.000000 1.000000
