assets/luts/primelive_bainen.cube
TITLE "primelive_bainen"
LUT_3D_SIZE 5
0.122800 0.122800 0.122800
0.375145 0.119155 0.119155
0.627490 0.115510 0.115510
0.879836 0.111866 0.111866
1.000000 0.108221 0.108221
0.115644 0.371634 0.115644
0.367990 0.367990 0.112000
0.620335 0.364345 0.108355
0.872680 0.360700 0.104710
1.000000 0.357055 0.101065
0.108489 0.620469 0.108489
0.360834 0.616824 0.104844
0.613179 0.613179 0.101199
0.865525 0.609535 0.097555
1.000000 0.605890 0.093910
0.101333 0.869303 0.101333
0.353679 0.865659 0.097689
0.606024 0.862014 0.094044
0.858369 0.858369 0.090399
1.000000 0.854724 0.086754
0.094178 1.000000 0.094178
0.346523 1.000000 0.090533
0.598868 1.000000 0.086888
0.851213 1.000000 0.083243
1.000000 1.000000 0.079599
0.121371 0.121371 0.384606
0.373716 0.117726 0.380961
0.626061 0.114081 0.377316
0.878407 0.110437 0.373672
1.000000 0.106792 0.370027
0.114215 0.370205 0.377450
0.366561 0.366561 0.373806
0.618906 0.362916 0.370161
0.871251 0.359271 0.366516
1.000000 0.355626 0.362871
0.107060 0.619040 0.370295
0.359405 0.615395 0.366650
0.611750 0.611750 0.363005
0.864096 0.608106 0.359361
1.000000 0.604461 0.355716
0.099904 0.867874 0.363139
0.352250 0.864230 0.359495
0.604595 0.860585 0.355850
0.856940 0.856940 0.352205
1.000000 0.853295 0.348560
0.092749 1.000000 0.355984
0.345094 1.000000 0.352339
0.597439 1.000000 0.348694
0.849784 1.000000 0.345049
1.000000 1.000000 0.341405
0.119942 0.119942 0.646412
0.372287 0.116297 0.642767
0.624632 0.112652 0.639122
0.876978 0.109008 0.635478
1.000000 0.105363 0.631833
0.112786 0.368776 0.639256
0.365132 0.365132 0.635612
0.617477 0.361487 0.631967
0.869822 0.357842 0.628322
1.000000 0.354197 0.624677
0.105631 0.617611 0.632101
0.357976 0.613966 0.628456
0.610321 0.610321 0.624811
0.862667 0.606677 0.621167
1.000000 0.603032 0.617522
0.098475 0.866445 0.624945
0.350821 0.862801 0.621301
0.603166 0.859156 0.617656
0.855511 0.855511 0.614011
1.000000 0.851866 0.610366
0.091320 1.000000 0.617790
0.343665 1.000000 0.614145
0.596010 1.000000 0.610500
0.848355 1.000000 0.606855
1.000000 1.000000 0.603211
0.118513 0.118513 0.908218
0.370858 0.114868 0.904573
0.623203 0.111223 0.900928
0.875549 0.107579 0.897284
1.000000 0.103934 0.893639
0.111357 0.367347 0.901063
0.363703 0.363703 0.897418
0.616048 0.360058 0.893773
0.868393 0.356413 0.890128
1.000000 0.352768 0.886483
0.104202 0.616182 0.893907
0.356547 0.612537 0.890262
0.608892 0.608892 0.886617
0.861238 0.605248 0.882973
1.000000 0.601603 0.879328
0.097046 0.865016 0.886751
0.349392 0.861372 0.883107
0.601737 0.857727 0.879462
0.854082 0.854082 0.875817
1.000000 0.850437 0.872172
0.089891 1.000000 0.879596
0.342236 1.000000 0.875951
0.594581 1.000000 0.872306
0.846926 1.000000 0.868662
1.000000 1.000000 0.865017
0.117084 0.117084 1.000000
0.369429 0.113439 1.000000
0.621774 0.109794 1.000000
0.874120 0.106150 1.000000
1.000000 0.102505 1.000000
0.109929 0.365918 1.000000
0.362274 0.362274 1.000000
0.614619 0.358629 1.000000
0.866964 0.354984 1.000000
1.000000 0.351339 1.000000
0.102773 0.614753 1.000000
0.355118 0.611108 1.000000
0.607463 0.607463 1.000000
0.859809 0.603819 1.000000
1.000000 0.600174 1.000000
0.095617 0.863587 1.000000
0.347963 0.859943 1.000000
0.600308 0.856298 1.000000
0.852653 0.852653 1.000000
1.000000 0.849008 1.000000
0.088462 1.000000 1.000000
0.340807 1.000000 1.000000
0.593152 1.000000 1.000000
0.845497 1.000000 1.000000
1.000000 1.000000 1.000000
