assets/luts/primelive_dongjing.cube
TITLE "primelive_dongjing"
LUT_3D_SIZE 9
0.000000 0.017232 0.037691
0.129698 0.015662 0.035321
0.262624 0.014091 0.032951
0.395549 0.012521 0.030581
0.528475 0.010950 0.028211
0.661400 0.009379 0.025841
0.794326 0.007809 0.023471
0.927251 0.006238 0.021101
1.000000 0.004668 0.018731
0.000000 0.151844 0.032896
0.128138 0.150273 0.030526
0.261064 0.148703 0.028156
0.393989 0.147132 0.025786
0.526915 0.145561 0.023416
0.659840 0.143991 0.021046
0.792766 0.142420 0.018676
0.925691 0.140850 0.016306
1.000000 0.139279 0.013936
0.000000 0.286455 0.028101
0.126578 0.284885 0.025731
0.259504 0.283314 0.023361
0.392429 0.281744 0.020990
0.525355 0.280173 0.018620
0.658280 0.278602 0.016250
0.791206 0.277032 0.013880
0.924131 0.275461 0.011510
1.000000 0.273891 0.009140
0.000000 0.421067 0.023305
0.125018 0.419496 0.020935
0.257944 0.417926 0.018565
0.390869 0.416355 0.016195
0.523795 0.414785 0.013825
0.656720 0.413214 0.011455
0.789646 0.411643 0.009085
0.922571 0.410073 0.006715
1.000000 0.408502 0.004345
0.000000 0.555678 0.018510
0.123458 0.554108 0.016140
0.256384 0.552537 0.013770
0.389309 0.550967 0.011400
0.522235 0.549396 0.009030
0.655160 0.547825 0.006660
0.788085 0.546255 0.004290
0.921011 0.544684 0.001919
1.000000 0.543114 0.000000
0.000000 0.690290 0.013715
0.121898 0.688719 0.011344
0.254824 0.687149 0.008974
0.387749 0.685578 0.006604
0.520674 0.684008 0.004234
0.653600 0.682437 0.001864
0.786525 0.680867 0.000000
0.919451 0.679296 0.000000
1.000000 0.677725 0.000000
0.000000 0.824901 0.008919
0.120338 0.823331 0.006549
0.253263 0.821760 0.004179
0.386189 0.820190 0.001809
0.519114 0.818619 0.000000
0.652040 0.817049 0.000000
0.784965 0.815478 0.000000
0.917891 0.813907 0.000000
1.000000 0.812337 0.000000
0.000000 0.959513 0.004124
0.118778 0.957942 0.001754
0.251703 0.956372 0.000000
0.384629 0.954801 0.000000
0.517554 0.953231 0.000000
0.650480 0.951660 0.000000
0.783405 0.950089 0.000000
0.916331 0.948519 0.000000
1.000000 0.946948 0.000000
0.000000 1.000000 0.000000
0.117218 1.000000 0.000000
0.250143 1.000000 0.000000
0.383069 1.000000 0.000000
0.515994 1.000000 0.000000
0.648920 1.000000 0.000000
0.781845 1.000000 0.000000
0.914771 1.000000 0.000000
1.000000 1.000000 0.000000
0.000000 0.016585 0.181324
0.129381 0.015014 0.178954
0.262306 0.013443 0.176584
0.395231 0.011873 0.174214
0.528157 0.010302 0.171844
0.661082 0.008732 0.169474
0.794008 0.007161 0.167104
0.926933 0.005591 0.164734
1.000000 0.004020 0.162364
0.000000 0.151196 0.176529
0.127820 0.149625 0.174159
0.260746 0.148055 0.171789
0.393671 0.146484 0.169419
0.526597 0.144914 0.167049
0.659522 0.143343 0.164679
0.792448 0.141773 0.162309
0.925373 0.140202 0.159939
1.000000 0.138632 0.157569
0.000000 0.285808 0.171734
0.126260 0.284237 0.169364
0.259186 0.282666 0.166994
0.392111 0.281096 0.164624
0.525037 0.279525 0.162253
0.657962 0.277955 0.159883
0.790888 0.276384 0.157513
0.923813 0.274814 0.155143
1.000000 0.273243 0.152773
0.000000 0.420419 0.166938
0.124700 0.418849 0.164568
0.257626 0.417278 0.162198
0.390551 0.415707 0.159828
0.523477 0.414137 0.157458
0.656402 0.412566 0.155088
0.789328 0.410996 0.152718
0.922253 0.409425 0.150348
1.000000 0.407855 0.147978
0.000000 0.555031 0.162143
0.123140 0.553460 0.159773
0.256066 0.551889 0.157403
0.388991 0.550319 0.155033
0.521917 0.548748 0.152663
0.654842 0.547178 0.150293
0.787767 0.545607 0.147923
0.920693 0.544037 0.145553
1.000000 0.542466 0.143182
0.000000 0.689642 0.157348
0.121580 0.688072 0.154978
0.254506 0.686501 0.152607
0.387431 0.684930 0.150237
0.520356 0.683360 0.147867
0.653282 0.681789 0.145497
0.786207 0.680219 0.143127
0.919133 0.678648 0.140757
1.000000 0.677078 0.138387
0.000000 0.824254 0.152552
0.120020 0.822683 0.150182
0.252945 0.821113 0.147812
0.385871 0.819542 0.145442
0.518796 0.817971 0.143072
0.651722 0.816401 0.140702
0.784647 0.814830 0.138332
0.917573 0.813260 0.135962
1.000000 0.811689 0.133592
0.000000 0.958865 0.147757
0.118460 0.957295 0.145387
0.251385 0.955724 0.143017
0.384311 0.954153 0.140647
0.517236 0.952583 0.138277
0.650162 0.951012 0.135907
0.783087 0.949442 0.133537
0.916013 0.947871 0.131166
1.000000 0.946301 0.128796
0.000000 1.000000 0.142962
0.116900 1.000000 0.140591
0.249825 1.000000 0.138221
0.382751 1.000000 0.135851
0.515676 1.000000 0.133481
0.648602 1.000000 0.131111
0.781527 1.000000 0.128741
0.914453 1.000000 0.126371
1.000000 1.000000 0.124001
0.000000 0.015937 0.324958
0.129063 0.014366 0.322587
0.261988 0.012796 0.320217
0.394913 0.011225 0.317847
0.527839 0.009655 0.315477
0.660764 0.008084 0.313107
0.793690 0.006513 0.310737
0.926615 0.004943 0.308367
1.000000 0.003372 0.305997
0.000000 0.150548 0.320162
0.127502 0.148978 0.317792
0.260428 0.147407 0.315422
0.393353 0.145837 0.313052
0.526279 0.144266 0.310682
0.659204 0.142696 0.308312
0.792130 0.141125 0.305942
0.925055 0.139554 0.303572
1.000000 0.137984 0.301202
0.000000 0.285160 0.315367
0.125942 0.283589 0.312997
0.258868 0.282019 0.310627
0.391793 0.280448 0.308257
0.524719 0.278878 0.305887
0.657644 0.277307 0.303516
0.790570 0.275737 0.301146
0.923495 0.274166 0.298776
1.000000 0.272595 0.296406
0.000000 0.419771 0.310571
0.124382 0.418201 0.308201
0.257308 0.416630 0.305831
0.390233 0.415060 0.303461
0.523159 0.413489 0.301091
0.656084 0.411919 0.298721
0.789010 0.410348 0.296351
0.921935 0.408778 0.293981
1.000000 0.407207 0.291611
0.000000 0.554383 0.305776
0.122822 0.552812 0.303406
0.255748 0.551242 0.301036
0.388673 0.549671 0.298666
0.521599 0.548101 0.296296
0.654524 0.546530 0.293926
0.787450 0.544960 0.291556
0.920375 0.543389 0.289186
1.000000 0.541818 0.286816
0.000000 0.688994 0.300981
0.121262 0.687424 0.298611
0.254188 0.685853 0.296241
0.387113 0.684283 0.293871
0.520038 0.682712 0.291500
0.652964 0.681142 0.289130
0.785889 0.679571 0.286760
0.918815 0.678001 0.284390
1.000000 0.676430 0.282020
0.000000 0.823606 0.296185
0.119702 0.822035 0.293815
0.252628 0.820465 0.291445
0.385553 0.818894 0.289075
0.518478 0.817324 0.286705
0.651404 0.815753 0.284335
0.784329 0.814183 0.281965
0.917255 0.812612 0.279595
1.000000 0.811041 0.277225
0.000000 0.958217 0.291390
0.118142 0.956647 0.289020
0.251067 0.955076 0.286650
0.383993 0.953506 0.284280
0.516918 0.951935 0.281910
0.649844 0.950365 0.279540
0.782769 0.948794 0.277170
0.915695 0.947224 0.274800
1.000000 0.945653 0.272429
0.000000 1.000000 0.286595
0.116582 1.000000 0.284225
0.249507 1.000000 0.281854
0.382433 1.000000 0.279484
0.515358 1.000000 0.277114
0.648284 1.000000 0.274744
0.781209 1.000000 0.272374
0.914135 1.000000 0.270004
1.000000 1.000000 0.267634
0.000000 0.015289 0.468591
0.128745 0.013719 0.466221
0.261670 0.012148 0.463851
0.394595 0.010577 0.461480
0.527521 0.009007 0.459110
0.660446 0.007436 0.456740
0.793372 0.005866 0.454370
0.926297 0.004295 0.452000
1.000000 0.002725 0.449630
0.000000 0.149901 0.463795
0.127184 0.148330 0.461425
0.260110 0.146760 0.459055
0.393035 0.145189 0.456685
0.525961 0.143618 0.454315
0.658886 0.142048 0.451945
0.791812 0.140477 0.449575
0.924737 0.138907 0.447205
1.000000 0.137336 0.444835
0.000000 0.284512 0.459000
0.125624 0.282942 0.456630
0.258550 0.281371 0.454260
0.391475 0.279801 0.451890
0.524401 0.278230 0.449520
0.657326 0.276659 0.447150
0.790252 0.275089 0.444780
0.923177 0.273518 0.442409
1.000000 0.271948 0.440039
0.000000 0.419124 0.454205
0.124064 0.417553 0.451834
0.256990 0.415983 0.449464
0.389915 0.414412 0.447094
0.522841 0.412841 0.444724
0.655766 0.411271 0.442354
0.788692 0.409700 0.439984
0.921617 0.408130 0.437614
1.000000 0.406559 0.435244
0.000000 0.553735 0.449409
0.122504 0.552165 0.447039
0.255430 0.550594 0.444669
0.388355 0.549024 0.442299
0.521281 0.547453 0.439929
0.654206 0.545882 0.437559
0.787132 0.544312 0.435189
0.920057 0.542741 0.432819
1.000000 0.541171 0.430449
0.000000 0.688347 0.444614
0.120944 0.686776 0.442244
0.253870 0.685206 0.439874
0.386795 0.683635 0.437504
0.519721 0.682065 0.435134
0.652646 0.680494 0.432763
0.785571 0.678923 0.430393
0.918497 0.677353 0.428023
1.000000 0.675782 0.425653
0.000000 0.822958 0.439818
0.119384 0.821388 0.437448
0.252310 0.819817 0.435078
0.385235 0.818247 0.432708
0.518160 0.816676 0.430338
0.651086 0.815105 0.427968
0.784011 0.813535 0.425598
0.916937 0.811964 0.423228
1.000000 0.810394 0.420858
0.000000 0.957570 0.435023
0.117824 0.955999 0.432653
0.250749 0.954429 0.430283
0.383675 0.952858 0.427913
0.516600 0.951288 0.425543
0.649526 0.949717 0.423173
0.782451 0.948146 0.420803
0.915377 0.946576 0.418433
1.000000 0.945005 0.416063
0.000000 1.000000 0.430228
0.116264 1.000000 0.427858
0.249189 1.000000 0.425488
0.382115 1.000000 0.423118
0.515040 1.000000 0.420747
0.647966 1.000000 0.418377
0.780891 1.000000 0.416007
0.913817 1.000000 0.413637
1.000000 1.000000 0.411267
0.000000 0.014641 0.612224
0.128427 0.013071 0.609854
0.261352 0.011500 0.607484
0.394277 0.009930 0.605114
0.527203 0.008359 0.602743
0.660128 0.006789 0.600373
0.793054 0.005218 0.598003
0.925979 0.003648 0.595633
1.000000 0.002077 0.593263
0.000000 0.149253 0.607428
0.126867 0.147682 0.605058
0.259792 0.146112 0.602688
0.392717 0.144541 0.600318
0.525643 0.142971 0.597948
0.658568 0.141400 0.595578
0.791494 0.139830 0.593208
0.924419 0.138259 0.590838
1.000000 0.136689 0.588468
0.000000 0.283864 0.602633
0.125306 0.282294 0.600263
0.258232 0.280723 0.597893
0.391157 0.279153 0.595523
0.524083 0.277582 0.593153
0.657008 0.276012 0.590783
0.789934 0.274441 0.588413
0.922859 0.272871 0.586043
1.000000 0.271300 0.583672
0.000000 0.418476 0.597838
0.123746 0.416905 0.595468
0.256672 0.415335 0.593097
0.389597 0.413764 0.590727
0.522523 0.412194 0.588357
0.655448 0.410623 0.585987
0.788374 0.409053 0.583617
0.921299 0.407482 0.581247
1.000000 0.405912 0.578877
0.000000 0.553088 0.593042
0.122186 0.551517 0.590672
0.255112 0.549946 0.588302
0.388037 0.548376 0.585932
0.520963 0.546805 0.583562
0.653888 0.545235 0.581192
0.786814 0.543664 0.578822
0.919739 0.542094 0.576452
1.000000 0.540523 0.574082
0.000000 0.687699 0.588247
0.120626 0.686129 0.585877
0.253552 0.684558 0.583507
0.386477 0.682987 0.581137
0.519403 0.681417 0.578767
0.652328 0.679846 0.576397
0.785253 0.678276 0.574026
0.918179 0.676705 0.571656
1.000000 0.675135 0.569286
0.000000 0.822311 0.583451
0.119066 0.820740 0.581081
0.251992 0.819169 0.578711
0.384917 0.817599 0.576341
0.517842 0.816028 0.573971
0.650768 0.814458 0.571601
0.783693 0.812887 0.569231
0.916619 0.811317 0.566861
1.000000 0.809746 0.564491
0.000000 0.956922 0.578656
0.117506 0.955352 0.576286
0.250431 0.953781 0.573916
0.383357 0.952210 0.571546
0.516282 0.950640 0.569176
0.649208 0.949069 0.566806
0.782133 0.947499 0.564436
0.915059 0.945928 0.562066
1.000000 0.944358 0.559696
0.000000 1.000000 0.573861
0.115946 1.000000 0.571491
0.248871 1.000000 0.569121
0.381797 1.000000 0.566751
0.514722 1.000000 0.564380
0.647648 1.000000 0.562010
0.780573 1.000000 0.559640
0.913499 1.000000 0.557270
1.000000 1.000000 0.554900
0.000000 0.013994 0.755857
0.128109 0.012423 0.753487
0.261034 0.010853 0.751117
0.393960 0.009282 0.748747
0.526885 0.007712 0.746377
0.659810 0.006141 0.744006
0.792736 0.004570 0.741636
0.925661 0.003000 0.739266
1.000000 0.001429 0.736896
0.000000 0.148605 0.751061
0.126549 0.147035 0.748691
0.259474 0.145464 0.746321
0.392399 0.143894 0.743951
0.525325 0.142323 0.741581
0.658250 0.140752 0.739211
0.791176 0.139182 0.736841
0.924101 0.137611 0.734471
1.000000 0.136041 0.732101
0.000000 0.283217 0.746266
0.124988 0.281646 0.743896
0.257914 0.280076 0.741526
0.390839 0.278505 0.739156
0.523765 0.276935 0.736786
0.656690 0.275364 0.734416
0.789616 0.273793 0.732046
0.922541 0.272223 0.729676
1.000000 0.270652 0.727306
0.000000 0.417828 0.741471
0.123428 0.416258 0.739101
0.256354 0.414687 0.736731
0.389279 0.413117 0.734361
0.522205 0.411546 0.731990
0.655130 0.409976 0.729620
0.788056 0.408405 0.727250
0.920981 0.406834 0.724880
1.000000 0.405264 0.722510
0.000000 0.552440 0.736675
0.121868 0.550869 0.734305
0.254794 0.549299 0.731935
0.387719 0.547728 0.729565
0.520645 0.546158 0.727195
0.653570 0.544587 0.724825
0.786496 0.543016 0.722455
0.919421 0.541446 0.720085
1.000000 0.539875 0.717715
0.000000 0.687051 0.731880
0.120308 0.685481 0.729510
0.253234 0.683910 0.727140
0.386159 0.682340 0.724770
0.519085 0.680769 0.722400
0.652010 0.679199 0.720030
0.784935 0.677628 0.717660
0.917861 0.676058 0.715290
1.000000 0.674487 0.712919
0.000000 0.821663 0.727085
0.118748 0.820092 0.724715
0.251674 0.818522 0.722344
0.384599 0.816951 0.719974
0.517524 0.815381 0.717604
0.650450 0.813810 0.715234
0.783375 0.812240 0.712864
0.916301 0.810669 0.710494
1.000000 0.809098 0.708124
0.000000 0.956274 0.722289
0.117188 0.954704 0.719919
0.250114 0.953133 0.717549
0.383039 0.951563 0.715179
0.515964 0.949992 0.712809
0.648890 0.948422 0.710439
0.781815 0.946851 0.708069
0.914741 0.945280 0.705699
1.000000 0.943710 0.703329
0.000000 1.000000 0.717494
0.115628 1.000000 0.715124
0.248553 1.000000 0.712754
0.381479 1.000000 0.710384
0.514404 1.000000 0.708014
0.647330 1.000000 0.705644
0.780255 1.000000 0.703273
0.913181 1.000000 0.700903
1.000000 1.000000 0.698533
0.000000 0.013346 0.899490
0.127791 0.011776 0.897120
0.260716 0.010205 0.894750
0.393642 0.008634 0.892380
0.526567 0.007064 0.890010
0.659492 0.005493 0.887640
0.792418 0.003923 0.885270
0.925343 0.002352 0.882899
1.000000 0.000782 0.880529
0.000000 0.147958 0.894695
0.126231 0.146387 0.892324
0.259156 0.144816 0.889954
0.392081 0.143246 0.887584
0.525007 0.141675 0.885214
0.657932 0.140105 0.882844
0.790858 0.138534 0.880474
0.923783 0.136964 0.878104
1.000000 0.135393 0.875734
0.000000 0.282569 0.889899
0.124670 0.280999 0.887529
0.257596 0.279428 0.885159
0.390521 0.277857 0.882789
0.523447 0.276287 0.880419
0.656372 0.274716 0.878049
0.789298 0.273146 0.875679
0.922223 0.271575 0.873309
1.000000 0.270005 0.870939
0.000000 0.417181 0.885104
0.123110 0.415610 0.882734
0.256036 0.414040 0.880364
0.388961 0.412469 0.877994
0.521887 0.410898 0.875624
0.654812 0.409328 0.873253
0.787738 0.407757 0.870883
0.920663 0.406187 0.868513
1.000000 0.404616 0.866143
0.000000 0.551792 0.880308
0.121550 0.550222 0.877938
0.254476 0.548651 0.875568
0.387401 0.547080 0.873198
0.520327 0.545510 0.870828
0.653252 0.543939 0.868458
0.786178 0.542369 0.866088
0.919103 0.540798 0.863718
1.000000 0.539228 0.861348
0.000000 0.686404 0.875513
0.119990 0.684833 0.873143
0.252916 0.683263 0.870773
0.385841 0.681692 0.868403
0.518767 0.680121 0.866033
0.651692 0.678551 0.863663
0.784618 0.676980 0.861293
0.917543 0.675410 0.858923
1.000000 0.673839 0.856553
0.000000 0.821015 0.870718
0.118430 0.819445 0.868348
0.251356 0.817874 0.865978
0.384281 0.816304 0.863608
0.517206 0.814733 0.861237
0.650132 0.813162 0.858867
0.783057 0.811592 0.856497
0.915983 0.810021 0.854127
1.000000 0.808451 0.851757
0.000000 0.955627 0.865922
0.116870 0.954056 0.863552
0.249796 0.952486 0.861182
0.382721 0.950915 0.858812
0.515646 0.949344 0.856442
0.648572 0.947774 0.854072
0.781497 0.946203 0.851702
0.914423 0.944633 0.849332
1.000000 0.943062 0.846962
0.000000 1.000000 0.861127
0.115310 1.000000 0.858757
0.248235 1.000000 0.856387
0.381161 1.000000 0.854017
0.514086 1.000000 0.851647
0.647012 1.000000 0.849277
0.779937 1.000000 0.846907
0.912863 1.000000 0.844537
1.000000 1.000000 0.842166
0.000000 0.012698 1.000000
0.127473 0.011128 1.000000
0.260398 0.009557 1.000000
0.393324 0.007987 1.000000
0.526249 0.006416 1.000000
0.659174 0.004846 1.000000
0.792100 0.003275 1.000000
0.925025 0.001704 1.000000
1.000000 0.000134 1.000000
0.000000 0.147310 1.000000
0.125913 0.145739 1.000000
0.258838 0.144169 1.000000
0.391763 0.142598 1.000000
0.524689 0.141028 1.000000
0.657614 0.139457 1.000000
0.790540 0.137887 1.000000
0.923465 0.136316 1.000000
1.000000 0.134745 1.000000
0.000000 0.281921 1.000000
0.124352 0.280351 1.000000
0.257278 0.278780 1.000000
0.390203 0.277210 1.000000
0.523129 0.275639 1.000000
0.656054 0.274069 1.000000
0.788980 0.272498 1.000000
0.921905 0.270928 1.000000
1.000000 0.269357 1.000000
0.000000 0.416533 1.000000
0.122792 0.414962 1.000000
0.255718 0.413392 1.000000
0.388643 0.411821 1.000000
0.521569 0.410251 1.000000
0.654494 0.408680 1.000000
0.787420 0.407110 1.000000
0.920345 0.405539 1.000000
1.000000 0.403969 1.000000
0.000000 0.551144 1.000000
0.121232 0.549574 1.000000
0.254158 0.548003 1.000000
0.387083 0.546433 1.000000
0.520009 0.544862 1.000000
0.652934 0.543292 1.000000
0.785860 0.541721 1.000000
0.918785 0.540151 1.000000
1.000000 0.538580 1.000000
0.000000 0.685756 1.000000
0.119672 0.684185 1.000000
0.252598 0.682615 1.000000
0.385523 0.681044 1.000000
0.518449 0.679474 1.000000
0.651374 0.677903 1.000000
0.784300 0.676333 1.000000
0.917225 0.674762 1.000000
1.000000 0.673192 1.000000
0.000000 0.820367 1.000000
0.118112 0.818797 1.000000
0.251038 0.817226 1.000000
0.383963 0.815656 1.000000
0.516889 0.814085 1.000000
0.649814 0.812515 1.000000
0.782739 0.810944 1.000000
0.915665 0.809374 0.997760
1.000000 0.807803 0.995390
0.000000 0.954979 1.000000
0.116552 0.953408 1.000000
0.249478 0.951838 1.000000
0.382403 0.950267 1.000000
0.515328 0.948697 1.000000
0.648254 0.947126 0.997705
0.781179 0.945556 0.995335
0.914105 0.943985 0.992965
1.000000 0.942415 0.990595
0.000000 1.000000 1.000000
0.114992 1.000000 1.000000
0.247917 1.000000 1.000000
0.380843 1.000000 0.997650
0.513768 1.000000 0.995280
0.646694 1.000000 0.992910
0.779619 1.000000 0.990540
0.912545 1.000000 0.988170
1.000000 1.000000 0.985800
0.000000 0.012051 1.000000
0.127155 0.010480 1.000000
0.260080 0.008910 1.000000
0.393006 0.007339 1.000000
0.525931 0.005768 1.000000
0.658856 0.004198 1.000000
0.791782 0.002627 1.000000
0.924707 0.001057 1.000000
1.000000 0.000000 1.000000
0.000000 0.146662 1.000000
0.125595 0.145092 1.000000
0.258520 0.143521 1.000000
0.391446 0.141951 1.000000
0.524371 0.140380 1.000000
0.657296 0.138809 1.000000
0.790222 0.137239 1.000000
0.923147 0.135668 1.000000
1.000000 0.134098 1.000000
0.000000 0.281274 1.000000
0.124035 0.279703 1.000000
0.256960 0.278133 1.000000
0.389885 0.276562 1.000000
0.522811 0.274991 1.000000
0.655736 0.273421 1.000000
0.788662 0.271850 1.000000
0.921587 0.270280 1.000000
1.000000 0.268709 1.000000
0.000000 0.415885 1.000000
0.122474 0.414315 1.000000
0.255400 0.412744 1.000000
0.388325 0.411174 1.000000
0.521251 0.409603 1.000000
0.654176 0.408032 1.000000
0.787102 0.406462 1.000000
0.920027 0.404891 1.000000
1.000000 0.403321 1.000000
0.000000 0.550497 1.000000
0.120914 0.548926 1.000000
0.253840 0.547356 1.000000
0.386765 0.545785 1.000000
0.519691 0.544215 1.000000
0.652616 0.542644 1.000000
0.785542 0.541073 1.000000
0.918467 0.539503 1.000000
1.000000 0.537932 1.000000
0.000000 0.685108 1.000000
0.119354 0.683538 1.000000
0.252280 0.681967 1.000000
0.385205 0.680397 1.000000
0.518131 0.678826 1.000000
0.651056 0.677256 1.000000
0.783982 0.675685 1.000000
0.916907 0.674114 1.000000
1.000000 0.672544 1.000000
0.000000 0.819720 1.000000
0.117794 0.818149 1.000000
0.250720 0.816579 1.000000
0.383645 0.815008 1.000000
0.516571 0.813438 1.000000
0.649496 0.811867 1.000000
0.782421 0.810296 1.000000
0.915347 0.808726 1.000000
1.000000 0.807155 1.000000
0.000000 0.954331 1.000000
0.116234 0.952761 1.000000
0.249160 0.951190 1.000000
0.382085 0.949620 1.000000
0.515010 0.948049 1.000000
0.647936 0.946479 1.000000
0.780861 0.944908 1.000000
0.913787 0.943337 1.000000
1.000000 0.941767 1.000000
0.000000 1.000000 1.000000
0.114674 1.000000 1.000000
0.247599 1.000000 1.000000
0.380525 1.000000 1.000000
0.513450 1.000000 1.000000
0.646376 1.000000 1.000000
0.779301 1.000000 1.000000
0.912227 1.000000 1.000000
1.000000 1.000000 1.000000
