assets/luts/primelive_heibai.cube
TITLE "primelive_heibai"
LUT_3D_SIZE 5
0.016000 0.016000 0.016000
0.098225 0.098225 0.098225
0.180450 0.180450 0.180450
0.262675 0.262675 0.262675
0.344900 0.344900 0.344900
0.177425 0.177425 0.177425
0.259650 0.259650 0.259650
0.341875 0.341875 0.341875
0.424100 0.424100 0.424100
0.506325 0.506325 0.506325
0.338850 0.338850 0.338850
0.421075 0.421075 0.421075
0.503300 0.503300 0.503300
0.585525 0.585525 0.585525
0.667750 0.667750 0.667750
0.500275 0.500275 0.500275
0.582500 0.582500 0.582500
0.664725 0.664725 0.664725
0.746950 0.746950 0.746950
0.829175 0.829175 0.829175
0.661700 0.661700 0.661700
0.743925 0.743925 0.743925
0.826150 0.826150 0.826150
0.908375 0.908375 0.908375
0.990600 0.990600 0.990600
0.047350 0.047350 0.047350
0.129575 0.129575 0.129575
0.211800 0.211800 0.211800
0.294025 0.294025 0.294025
0.376250 0.376250 0.376250
0.208775 0.208775 0.208775
0.291000 0.291000 0.291000
0.373225 0.373225 0.373225
0.455450 0.455450 0.455450
0.537675 0.537675 0.537675
0.370200 0.370200 0.370200
0.452425 0.452425 0.452425
0.534650 0.534650 0.534650
0.616875 0.616875 0.616875
0.699100 0.699100 0.699100
0.531625 0.531625 0.531625
0.613850 0.613850 0.613850
0.696075 0.696075 0.696075
0.778300 0.778300 0.778300
0.860525 0.860525 0.860525
0.693050 0.693050 0.693050
0.775275 0.775275 0.775275
0.857500 0.857500 0.857500
0.939725 0.939725 0.939725
1.000000 1.000000 1.000000
0.078700 0.078700 0.078700
0.160925 0.160925 0.160925
0.243150 0.243150 0.243150
0.325375 0.325375 0.325375
0.407600 0.407600 0.407600
0.240125 0.240125 0.240125
0.322350 0.322350 0.322350
0.404575 0.404575 0.404575
0.486800 0.486800 0.486800
0.569025 0.569025 0.569025
0.401550 0.401550 0.401550
0.483775 0.483775 0.483775
0.566000 0.566000 0.566000
0.648225 0.648225 0.648225
0.730450 0.730450 0.730450
0.562975 0.562975 0.562975
0.645200 0.645200 0.645200
0.727425 0.727425 0.727425
0.809650 0.809650 0.809650
0.891875 0.891875 0.891875
0.724400 0.724400 0.724400
0.806625 0.806625 0.806625
0.888850 0.888850 0.888850
0.971075 0.971075 0.971075
1.000000 1.000000 1.000000
0.110050 0.110050 0.110050
0.192275 0.192275 0.192275
0.274500 0.274500 0.274500
0.356725 0.356725 0.356725
0.438950 0.438950 0.438950
0.271475 0.271475 0.271475
0.353700 0.353700 0.353700
0.435925 0.435925 0.435925
0.518150 0.518150 0.518150
0.600375 0.600375 0.600375
0.432900 0.432900 0.432900
0.515125 0.515125 0.515125
0.597350 0.597350 0.597350
0.679575 0.679575 0.679575
0.761800 0.761800 0.761800
0.594325 0.594325 0.594325
0.676550 0.676550 0.676550
0.758775 0.758775 0.758775
0.841000 0.841000 0.841000
0.923225 0.923225 0.923225
0.755750 0.755750 0.755750
0.837975 0.837975 0.837975
0.920200 0.920200 0.920200
1.000000 1.000000 1.000000
1.000000 1.000000 1.000000
0.141400 0.141400 0.141400
0.223625 0.223625 0.223625
0.305850 0.305850 0.305850
0.388075 0.388075 0.388075
0.470300 0.470300 0.470300
0.302825 0.302825 0.302825
0.385050 0.385050 0.385050
0.467275 0.467275 0.467275
0.549500 0.549500 0.549500
0.631725 0.631725 0.631725
0.464250 0.464250 0.464250
0.546475 0.546475 0.546475
0.628700 0.628700 0.628700
0.710925 0.710925 0.710925
0.793150 0.793150 0.793150
0.625675 0.625675 0.625675
0.707900 0.707900 0.707900
0.790125 0.790125 0.790125
0.872350 0.872350 0.872350
0.954575 0.954575 0.954575
0.787100 0.787100 0.787100
0.869325 0.869325 0.869325
0.951550 0.951550 0.951550
1.000000 1.000000 1.000000
1.000000 1.000000 1.000000
