luts/primelive_LUT_female_warm.cube
TITLE "primelive Female Warm Soft"
LUT_3D_SIZE 5
DOMAIN_MIN 0.0 0.0 0.0
DOMAIN_MAX 1.0 1.0 1.0
0.082113 0.052894 0.071070
0.368820 0.049167 0.065336
0.620307 0.045898 0.060306
0.858470 0.042801 0.055543
1.000000 0.040193 0.051745
0.067155 0.323077 0.052373
0.353862 0.319349 0.046639
0.605350 0.316080 0.041609
0.843512 0.312984 0.036846
1.000000 0.310423 0.032984
0.054028 0.560194 0.035965
0.340735 0.556467 0.030230
0.592223 0.553198 0.025201
0.830385 0.550101 0.020437
1.000000 0.547568 0.016540
0.041596 0.784761 0.020424
0.328303 0.781034 0.014690
0.579791 0.777765 0.009660
0.817953 0.774670 0.005722
1.000000 0.772139 0.004938
0.030000 0.997204 0.005887
0.316542 0.993482 0.004735
0.568030 0.990217 0.003723
0.806192 0.987125 0.002765
1.000000 0.984594 0.001981
0.080671 0.051723 0.338750
0.367379 0.047996 0.333016
0.618866 0.044727 0.327986
0.857028 0.041630 0.323223
1.000000 0.039027 0.319418
0.065714 0.321906 0.320053
0.352421 0.318178 0.314319
0.603909 0.314909 0.309289
0.842071 0.311813 0.304526
1.000000 0.309257 0.300658
0.052587 0.559023 0.303644
0.339294 0.555296 0.297910
0.590781 0.552027 0.292880
0.828944 0.548930 0.288117
1.000000 0.546397 0.284219
0.040155 0.783590 0.288104
0.326862 0.779863 0.282370
0.578349 0.776594 0.277340
0.816512 0.773498 0.272577
1.000000 0.770964 0.268679
0.030000 0.996038 0.273396
0.315101 0.992305 0.267669
0.566588 0.989036 0.262639
0.804751 0.985940 0.257876
0.999639 0.983406 0.253978
0.079405 0.050695 0.573860
0.366113 0.046967 0.568126
0.617600 0.043698 0.563096
0.855763 0.040602 0.558333
1.000000 0.038003 0.554523
0.064448 0.320877 0.555164
0.351155 0.317150 0.549429
0.602643 0.313880 0.544400
0.840805 0.310784 0.539636
1.000000 0.308233 0.535763
0.051321 0.557995 0.538755
0.338028 0.554267 0.533021
0.589516 0.550998 0.527991
0.827678 0.547902 0.523228
1.000000 0.545368 0.519330
0.038889 0.782562 0.523215
0.325596 0.778835 0.517480
0.577083 0.775565 0.512451
0.815246 0.772469 0.507687
1.000000 0.769936 0.503790
0.030000 0.995013 0.508501
0.313835 0.991277 0.502779
0.565322 0.988008 0.497749
0.803485 0.984911 0.492986
0.998373 0.982378 0.489088
0.078206 0.049721 0.796547
0.364914 0.045993 0.790813
0.616401 0.042724 0.785783
0.854564 0.039628 0.781020
1.000000 0.037032 0.777205
0.063249 0.319903 0.777851
0.349956 0.316176 0.772116
0.601444 0.312906 0.767087
0.839606 0.309810 0.762323
1.000000 0.307262 0.758445
0.050122 0.557020 0.761442
0.336829 0.553293 0.755708
0.588317 0.550024 0.750678
0.826479 0.546928 0.745915
1.000000 0.544394 0.742017
0.037690 0.781588 0.745902
0.324397 0.777861 0.740167
0.575884 0.774591 0.735138
0.814047 0.771495 0.730374
1.000000 0.768962 0.726476
0.030000 0.994043 0.731183
0.312636 0.990303 0.725466
0.564123 0.987033 0.720436
0.802286 0.983937 0.715673
0.997174 0.981404 0.711775
0.077049 0.048780 1.000000
0.363757 0.045053 1.000000
0.615244 0.041784 1.000000
0.853407 0.038688 0.995908
1.000000 0.036096 0.992088
0.062092 0.318963 0.992738
0.348799 0.315236 0.987004
0.600287 0.311966 0.981974
0.838449 0.308870 0.977211
1.000000 0.306326 0.973327
0.048965 0.556080 0.976329
0.335672 0.552353 0.970595
0.587160 0.549084 0.965565
0.825322 0.545988 0.960802
1.000000 0.543454 0.956904
0.036533 0.780648 0.960789
0.323240 0.776921 0.955055
0.574727 0.773651 0.950025
0.812890 0.770555 0.945262
1.000000 0.768021 0.941364
0.030000 0.993107 0.946066
0.311479 0.989363 0.940354
0.562966 0.986093 0.935324
0.801129 0.982997 0.930561
0.996017 0.980464 0.926663
