luts/primelive_LUT_female_warm.cube
TITLE "primelive Female Warm Soft"
LUT_3D_SIZE 9
DOMAIN_MIN 0.0 0.0 0.0
DOMAIN_MAX 1.0 1.0 1.0
0.082113 0.052894 0.071070
0.233940 0.050920 0.068034
0.368820 0.049167 0.065336
0.496765 0.047504 0.062777
0.620307 0.045898 0.060306
0.740643 0.044333 0.057900
0.858470 0.042801 0.055543
0.974241 0.041296 0.053228
1.000000 0.040193 0.051745
0.074194 0.195921 0.061173
0.226022 0.193947 0.058136
0.360902 0.192194 0.055438
0.488847 0.190530 0.052880
0.612389 0.188924 0.050409
0.732725 0.187360 0.048002
0.850552 0.185828 0.045645
0.966323 0.184323 0.043330
1.000000 0.183245 0.041813
0.067155 0.323077 0.052373
0.218982 0.321103 0.049337
0.353862 0.319349 0.046639
0.481807 0.317686 0.044080
0.605350 0.316080 0.041609
0.725686 0.314516 0.039203
0.843512 0.312984 0.036846
0.959283 0.311479 0.034531
1.000000 0.310423 0.032984
0.060477 0.443708 0.044026
0.212304 0.441734 0.040989
0.347184 0.439981 0.038291
0.475129 0.438317 0.035732
0.598671 0.436711 0.033262
0.719008 0.435147 0.030855
0.836834 0.433615 0.028498
0.952605 0.432110 0.026183
1.000000 0.431076 0.024608
0.054028 0.560194 0.035965
0.205855 0.558220 0.032928
0.340735 0.556467 0.030230
0.468680 0.554804 0.027672
0.592223 0.553198 0.025201
0.712559 0.551633 0.022794
0.830385 0.550101 0.020437
0.946156 0.548596 0.018122
1.000000 0.547568 0.016540
0.047746 0.673660 0.028113
0.199574 0.671686 0.025076
0.334454 0.669933 0.022378
0.462399 0.668270 0.019820
0.585941 0.666664 0.017349
0.706277 0.665099 0.014942
0.824104 0.663567 0.012585
0.939875 0.662062 0.010270
1.000000 0.661034 0.008688
0.041596 0.784761 0.020424
0.193423 0.782788 0.017388
0.328303 0.781034 0.014690
0.456248 0.779371 0.012131
0.579791 0.777765 0.009660
0.700127 0.776201 0.007254
0.817953 0.774670 0.005722
0.933724 0.773167 0.005256
1.000000 0.772139 0.004938
0.035552 0.893926 0.012870
0.187380 0.891952 0.009833
0.322260 0.890199 0.007136
0.450205 0.888537 0.005658
0.573747 0.886933 0.005160
0.694083 0.885371 0.004676
0.811909 0.883841 0.004202
0.927680 0.882338 0.003737
1.000000 0.881311 0.003418
0.030000 0.997204 0.005887
0.181662 0.995233 0.005277
0.316542 0.993482 0.004735
0.444487 0.991821 0.004220
0.568030 0.990217 0.003723
0.688366 0.988654 0.003239
0.806192 0.987125 0.002765
0.921963 0.985622 0.002299
1.000000 0.984594 0.001981
0.081350 0.052275 0.212697
0.233177 0.050301 0.209660
0.368057 0.048547 0.206963
0.496002 0.046884 0.204404
0.619545 0.045278 0.201933
0.739881 0.043714 0.199526
0.857707 0.042182 0.197170
0.973478 0.040677 0.194854
1.000000 0.039576 0.193368
0.073432 0.195301 0.202799
0.225259 0.193327 0.199763
0.360139 0.191574 0.197065
0.488084 0.189911 0.194506
0.611627 0.188305 0.192035
0.731963 0.186740 0.189628
0.849789 0.185208 0.187272
0.965560 0.183703 0.184957
1.000000 0.182628 0.183437
0.066392 0.322457 0.194000
0.218220 0.320483 0.190963
0.353100 0.318730 0.188266
0.481045 0.317066 0.185707
0.604587 0.315460 0.183236
0.724923 0.313896 0.180829
0.842750 0.312364 0.178473
0.958521 0.310859 0.176157
1.000000 0.309806 0.174607
0.059714 0.443088 0.185652
0.211542 0.441115 0.182616
0.346422 0.439361 0.179918
0.474366 0.437698 0.177359
0.597909 0.436092 0.174888
0.718245 0.434527 0.172481
0.836071 0.432996 0.170125
0.951842 0.431491 0.167809
1.000000 0.430459 0.166231
0.053265 0.559575 0.177591
0.205093 0.557601 0.174555
0.339973 0.555847 0.171857
0.467918 0.554184 0.169298
0.591460 0.552578 0.166827
0.711796 0.551014 0.164420
0.829623 0.549482 0.162064
0.945394 0.547977 0.159748
1.000000 0.546948 0.158166
0.046984 0.673041 0.169739
0.198811 0.671067 0.166703
0.333691 0.669313 0.164005
0.461636 0.667650 0.161446
0.585179 0.666044 0.158975
0.705515 0.664480 0.156568
0.823341 0.662948 0.154212
0.939112 0.661443 0.151896
1.000000 0.660414 0.150314
0.040833 0.784142 0.162051
0.192661 0.782168 0.159014
0.327541 0.780415 0.156317
0.455485 0.778751 0.153758
0.579028 0.777145 0.151287
0.699364 0.775581 0.148880
0.817190 0.774049 0.146524
0.932961 0.772544 0.144208
1.000000 0.771516 0.142626
0.034790 0.893307 0.154497
0.186617 0.891333 0.151460
0.321497 0.889579 0.148762
0.449442 0.887916 0.146203
0.572985 0.886310 0.143733
0.693321 0.884746 0.141326
0.811147 0.883214 0.138969
0.926918 0.881709 0.136654
1.000000 0.880680 0.135072
0.030000 0.996587 0.147346
0.180900 0.994610 0.144313
0.315780 0.992857 0.141615
0.443725 0.991194 0.139057
0.567267 0.989588 0.136586
0.687603 0.988023 0.134179
0.805429 0.986491 0.131822
0.921200 0.984986 0.129507
1.000000 0.983958 0.127925
0.080671 0.051723 0.338750
0.232499 0.049749 0.335713
0.367379 0.047996 0.333016
0.495324 0.046333 0.330457
0.618866 0.044727 0.327986
0.739202 0.043162 0.325579
0.857028 0.041630 0.323223
0.972799 0.040125 0.320907
1.000000 0.039027 0.319418
0.072753 0.194750 0.328852
0.224581 0.192776 0.325816
0.359461 0.191023 0.323118
0.487405 0.189359 0.320559
0.610948 0.187753 0.318088
0.731284 0.186189 0.315682
0.849110 0.184657 0.313325
0.964881 0.183152 0.311010
1.000000 0.182079 0.309487
0.065714 0.321906 0.320053
0.217541 0.319932 0.317017
0.352421 0.318178 0.314319
0.480366 0.316515 0.311760
0.603909 0.314909 0.309289
0.724245 0.313345 0.306882
0.842071 0.311813 0.304526
0.957842 0.310308 0.302210
1.000000 0.309257 0.300658
0.059036 0.442537 0.311705
0.210863 0.440563 0.308669
0.345743 0.438810 0.305971
0.473688 0.437146 0.303412
0.597230 0.435540 0.300941
0.717566 0.433976 0.298535
0.835393 0.432444 0.296178
0.951164 0.430939 0.293863
1.000000 0.429910 0.292281
0.052587 0.559023 0.303644
0.204414 0.557049 0.300608
0.339294 0.555296 0.297910
0.467239 0.553633 0.295351
0.590781 0.552027 0.292880
0.711118 0.550462 0.290474
0.828944 0.548930 0.288117
0.944715 0.547425 0.285802
1.000000 0.546397 0.284219
0.046305 0.672489 0.295792
0.198133 0.670515 0.292756
0.333013 0.668762 0.290058
0.460957 0.667099 0.287499
0.584500 0.665493 0.285028
0.704836 0.663928 0.282622
0.822662 0.662396 0.280265
0.938433 0.660891 0.277950
1.000000 0.659863 0.276367
0.040155 0.783590 0.288104
0.191982 0.781617 0.285067
0.326862 0.779863 0.282370
0.454807 0.778200 0.279811
0.578349 0.776594 0.277340
0.698685 0.775030 0.274933
0.816512 0.773498 0.272577
0.932283 0.771993 0.270261
1.000000 0.770964 0.268679
0.034111 0.892755 0.280550
0.185939 0.890781 0.277513
0.320818 0.889028 0.274816
0.448763 0.887365 0.272257
0.572306 0.885759 0.269786
0.692642 0.884194 0.267379
0.810468 0.882662 0.265022
0.926239 0.881157 0.262707
1.000000 0.880129 0.261125
0.030000 0.996038 0.273396
0.180221 0.994059 0.270366
0.315101 0.992305 0.267669
0.443046 0.990642 0.265110
0.566588 0.989036 0.262639
0.686924 0.987472 0.260232
0.804751 0.985940 0.257876
0.920522 0.984435 0.255560
0.999639 0.983406 0.253978
0.080027 0.051200 0.458356
0.231855 0.049226 0.455319
0.366735 0.047473 0.452622
0.494680 0.045809 0.450063
0.618222 0.044203 0.447592
0.738558 0.042639 0.445185
0.856384 0.041107 0.442829
0.972155 0.039602 0.440513
1.000000 0.038506 0.439021
0.072109 0.194227 0.448458
0.223937 0.192253 0.445422
0.358817 0.190499 0.442724
0.486761 0.188836 0.440165
0.610304 0.187230 0.437694
0.730640 0.185666 0.435288
0.848466 0.184134 0.432931
0.964237 0.182629 0.430616
1.000000 0.181558 0.429090
0.065070 0.321382 0.439659
0.216897 0.319409 0.436622
0.351777 0.317655 0.433925
0.479722 0.315992 0.431366
0.603265 0.314386 0.428895
0.723601 0.312821 0.426488
0.841427 0.311290 0.424132
0.957198 0.309785 0.421816
1.000000 0.308736 0.420261
0.058392 0.442014 0.431311
0.210219 0.440040 0.428275
0.345099 0.438287 0.425577
0.473044 0.436623 0.423018
0.596586 0.435017 0.420547
0.716922 0.433453 0.418141
0.834749 0.431921 0.415784
0.950520 0.430416 0.413469
1.000000 0.429387 0.411886
0.051943 0.558500 0.423250
0.203770 0.556526 0.420214
0.338650 0.554773 0.417516
0.466595 0.553109 0.414957
0.590138 0.551503 0.412486
0.710474 0.549939 0.410080
0.828300 0.548407 0.407723
0.944071 0.546902 0.405408
1.000000 0.545874 0.403825
0.045661 0.671966 0.415398
0.197489 0.669992 0.412362
0.332369 0.668239 0.409664
0.460313 0.666575 0.407105
0.583856 0.664969 0.404634
0.704192 0.663405 0.402228
0.822018 0.661873 0.399871
0.937789 0.660368 0.397556
1.000000 0.659340 0.395973
0.039511 0.783067 0.407710
0.191338 0.781093 0.404673
0.326218 0.779340 0.401976
0.454163 0.777677 0.399417
0.577705 0.776071 0.396946
0.698041 0.774506 0.394539
0.815868 0.772975 0.392183
0.931639 0.771469 0.389867
1.000000 0.770441 0.388285
0.033467 0.892232 0.400156
0.185295 0.890258 0.397119
0.320174 0.888505 0.394422
0.448119 0.886841 0.391863
0.571662 0.885235 0.389392
0.691998 0.883671 0.386985
0.809824 0.882139 0.384628
0.925595 0.880634 0.382313
1.000000 0.879606 0.380731
0.030000 0.995517 0.392999
0.179577 0.993536 0.389972
0.314457 0.991782 0.387275
0.442402 0.990119 0.384716
0.565944 0.988513 0.382245
0.686281 0.986949 0.379838
0.804107 0.985417 0.377482
0.919878 0.983912 0.375166
0.998995 0.982883 0.373584
0.079405 0.050695 0.573860
0.231233 0.048721 0.570824
0.366113 0.046967 0.568126
0.494058 0.045304 0.565567
0.617600 0.043698 0.563096
0.737936 0.042134 0.560690
0.855763 0.040602 0.558333
0.971534 0.039097 0.556018
1.000000 0.038003 0.554523
0.071487 0.193721 0.563963
0.223315 0.191747 0.560926
0.358195 0.189994 0.558229
0.486140 0.188331 0.555670
0.609682 0.186725 0.553199
0.730018 0.185160 0.550792
0.847844 0.183629 0.548436
0.963615 0.182123 0.546120
1.000000 0.181054 0.544592
0.064448 0.320877 0.555164
0.216275 0.318903 0.552127
0.351155 0.317150 0.549429
0.479100 0.315487 0.546870
0.602643 0.313880 0.544400
0.722979 0.312316 0.541993
0.840805 0.310784 0.539636
0.956576 0.309279 0.537321
1.000000 0.308233 0.535763
0.057770 0.441508 0.546816
0.209597 0.439535 0.543779
0.344477 0.437781 0.541082
0.472422 0.436118 0.538523
0.595964 0.434512 0.536052
0.716301 0.432947 0.533645
0.834127 0.431416 0.531289
0.949898 0.429911 0.528973
1.000000 0.428882 0.527391
0.051321 0.557995 0.538755
0.203148 0.556021 0.535718
0.338028 0.554267 0.533021
0.465973 0.552604 0.530462
0.589516 0.550998 0.527991
0.709852 0.549434 0.525584
0.827678 0.547902 0.523228
0.943449 0.546397 0.520912
1.000000 0.545368 0.519330
0.045039 0.671461 0.530903
0.196867 0.669487 0.527866
0.331747 0.667733 0.525169
0.459692 0.666070 0.522610
0.583234 0.664464 0.520139
0.703570 0.662900 0.517732
0.821396 0.661368 0.515376
0.937167 0.659863 0.513060
1.000000 0.658834 0.511478
0.038889 0.782562 0.523215
0.190716 0.780588 0.520178
0.325596 0.778835 0.517480
0.453541 0.777171 0.514921
0.577083 0.775565 0.512451
0.697420 0.774001 0.510044
0.815246 0.772469 0.507687
0.931017 0.770964 0.505372
1.000000 0.769936 0.503790
0.032845 0.891727 0.515660
0.184673 0.889753 0.512624
0.319553 0.887999 0.509926
0.447497 0.886336 0.507367
0.571040 0.884730 0.504896
0.691376 0.883166 0.502490
0.809202 0.881634 0.500133
0.924973 0.880129 0.497818
1.000000 0.879100 0.496235
0.030000 0.995013 0.508501
0.178955 0.993030 0.505477
0.313835 0.991277 0.502779
0.441780 0.989614 0.500220
0.565322 0.988008 0.497749
0.685659 0.986443 0.495343
0.803485 0.984911 0.492986
0.919256 0.983406 0.490671
0.998373 0.982378 0.489088
0.078800 0.050202 0.686375
0.230627 0.048229 0.683338
0.365507 0.046475 0.680641
0.493452 0.044812 0.678082
0.616994 0.043206 0.675611
0.737330 0.041642 0.673204
0.855157 0.040110 0.670848
0.970928 0.038605 0.668532
1.000000 0.037512 0.667035
0.070882 0.193229 0.676477
0.222709 0.191255 0.673441
0.357589 0.189502 0.670743
0.485534 0.187839 0.668184
0.609076 0.186232 0.665713
0.729412 0.184668 0.663307
0.847239 0.183136 0.660950
0.963010 0.181631 0.658635
1.000000 0.180564 0.657104
0.063842 0.320385 0.667678
0.215670 0.318411 0.664641
0.350549 0.316658 0.661944
0.478494 0.314994 0.659385
0.602037 0.313388 0.656914
0.722373 0.311824 0.654507
0.840199 0.310292 0.652151
0.955970 0.308787 0.649835
1.000000 0.307742 0.648275
0.057164 0.441016 0.659330
0.208991 0.439042 0.656294
0.343871 0.437289 0.653596
0.471816 0.435626 0.651037
0.595359 0.434020 0.648566
0.715695 0.432455 0.646160
0.833521 0.430924 0.643803
0.949292 0.429418 0.641488
1.000000 0.428390 0.639905
0.050715 0.557502 0.651269
0.202543 0.555529 0.648233
0.337422 0.553775 0.645535
0.465367 0.552112 0.642976
0.588910 0.550506 0.640505
0.709246 0.548941 0.638099
0.827072 0.547410 0.635742
0.942843 0.545905 0.633427
1.000000 0.544876 0.631844
0.044434 0.670968 0.643417
0.196261 0.668995 0.640381
0.331141 0.667241 0.637683
0.459086 0.665578 0.635124
0.582628 0.663972 0.632653
0.702964 0.662407 0.630247
0.820791 0.660876 0.627890
0.936562 0.659371 0.625575
1.000000 0.658342 0.623992
0.038283 0.782070 0.635729
0.190110 0.780096 0.632692
0.324990 0.778343 0.629995
0.452935 0.776679 0.627436
0.576478 0.775073 0.624965
0.696814 0.773509 0.622558
0.814640 0.771977 0.620202
0.930411 0.770472 0.617886
1.000000 0.769443 0.616304
0.032239 0.891234 0.628175
0.184067 0.889261 0.625138
0.318947 0.887507 0.622441
0.446892 0.885844 0.619882
0.570434 0.884238 0.617411
0.690770 0.882673 0.615004
0.808597 0.881142 0.612647
0.924368 0.879637 0.610332
1.000000 0.878608 0.608750
0.030000 0.994523 0.621013
0.178349 0.992538 0.617991
0.313229 0.990785 0.615294
0.441174 0.989121 0.612735
0.564717 0.987515 0.610264
0.685053 0.985951 0.607857
0.802879 0.984419 0.605501
0.918650 0.982914 0.603185
0.997767 0.981886 0.601603
0.078206 0.049721 0.796547
0.230034 0.047747 0.793511
0.364914 0.045993 0.790813
0.492859 0.044330 0.788254
0.616401 0.042724 0.785783
0.736737 0.041160 0.783377
0.854564 0.039628 0.781020
0.970335 0.038123 0.778705
1.000000 0.037032 0.777205
0.070288 0.192747 0.786650
0.222116 0.190773 0.783613
0.356996 0.189020 0.780916
0.484941 0.187357 0.778357
0.608483 0.185750 0.775886
0.728819 0.184186 0.773479
0.846645 0.182654 0.771123
0.962417 0.181149 0.768807
1.000000 0.180084 0.767274
0.063249 0.319903 0.777851
0.215076 0.317929 0.774814
0.349956 0.316176 0.772116
0.477901 0.314512 0.769557
0.601444 0.312906 0.767087
0.721780 0.311342 0.764680
0.839606 0.309810 0.762323
0.955377 0.308305 0.760008
1.000000 0.307262 0.758445
0.056571 0.440534 0.769503
0.208398 0.438561 0.766466
0.343278 0.436807 0.763769
0.471223 0.435144 0.761210
0.594765 0.433538 0.758739
0.715102 0.431973 0.756332
0.832928 0.430442 0.753975
0.948699 0.428937 0.751660
1.000000 0.427908 0.750078
0.050122 0.557020 0.761442
0.201949 0.555047 0.758405
0.336829 0.553293 0.755708
0.464774 0.551630 0.753149
0.588317 0.550024 0.750678
0.708653 0.548460 0.748271
0.826479 0.546928 0.745915
0.942250 0.545423 0.743599
1.000000 0.544394 0.742017
0.043840 0.670487 0.753590
0.195668 0.668513 0.750553
0.330548 0.666759 0.747856
0.458493 0.665096 0.745297
0.582035 0.663490 0.742826
0.702371 0.661926 0.740419
0.820197 0.660394 0.738063
0.935968 0.658889 0.735747
1.000000 0.657860 0.734165
0.037690 0.781588 0.745902
0.189517 0.779614 0.742865
0.324397 0.777861 0.740167
0.452342 0.776197 0.737608
0.575884 0.774591 0.735138
0.696221 0.773027 0.732731
0.814047 0.771495 0.730374
0.929818 0.769990 0.728059
1.000000 0.768962 0.726476
0.031646 0.890752 0.738347
0.183474 0.888779 0.735311
0.318354 0.887025 0.732613
0.446298 0.885362 0.730054
0.569841 0.883756 0.727583
0.690177 0.882192 0.725177
0.808003 0.880660 0.722820
0.923774 0.879155 0.720505
1.000000 0.878126 0.718922
0.030000 0.994043 0.731183
0.177756 0.992056 0.728164
0.312636 0.990303 0.725466
0.440581 0.988640 0.722907
0.564123 0.987033 0.720436
0.684460 0.985469 0.718030
0.802286 0.983937 0.715673
0.918057 0.982432 0.713358
0.997174 0.981404 0.711775
0.077624 0.049247 0.904802
0.229451 0.047273 0.901765
0.364331 0.045520 0.899067
0.492276 0.043856 0.896508
0.615818 0.042250 0.894038
0.736154 0.040686 0.891631
0.853981 0.039154 0.889274
0.969752 0.037649 0.886959
1.000000 0.036560 0.885457
0.069706 0.192273 0.894904
0.221533 0.190300 0.891867
0.356413 0.188546 0.889170
0.484358 0.186883 0.886611
0.607900 0.185277 0.884140
0.728236 0.183713 0.881733
0.846063 0.182181 0.879377
0.961834 0.180676 0.877061
1.000000 0.179612 0.875525
0.062666 0.319429 0.886105
0.214493 0.317456 0.883068
0.349373 0.315702 0.880370
0.477318 0.314039 0.877812
0.600861 0.312433 0.875341
0.721197 0.310868 0.872934
0.839023 0.309337 0.870577
0.954794 0.307832 0.868262
1.000000 0.306791 0.866696
0.055988 0.440061 0.877757
0.207815 0.438087 0.874720
0.342695 0.436333 0.872023
0.470640 0.434670 0.869464
0.594183 0.433064 0.866993
0.714519 0.431500 0.864586
0.832345 0.429968 0.862230
0.948116 0.428463 0.859914
1.000000 0.427434 0.858332
0.049539 0.556547 0.869696
0.201366 0.554573 0.866659
0.336246 0.552820 0.863962
0.464191 0.551156 0.861403
0.587734 0.549550 0.858932
0.708070 0.547986 0.856525
0.825896 0.546454 0.854169
0.941667 0.544949 0.851853
1.000000 0.543921 0.850271
0.043258 0.670013 0.861844
0.195085 0.668039 0.858807
0.329965 0.666286 0.856110
0.457910 0.664622 0.853551
0.581452 0.663016 0.851080
0.701788 0.661452 0.848673
0.819615 0.659920 0.846317
0.935386 0.658415 0.844001
1.000000 0.657387 0.842419
0.037107 0.781114 0.854156
0.188934 0.779140 0.851119
0.323814 0.777387 0.848421
0.451759 0.775724 0.845863
0.575302 0.774118 0.843392
0.695638 0.772553 0.840985
0.813464 0.771022 0.838628
0.929235 0.769516 0.836313
1.000000 0.768488 0.834731
0.031063 0.890279 0.846601
0.182891 0.888305 0.843565
0.317771 0.886552 0.840867
0.445716 0.884888 0.838308
0.569258 0.883282 0.835837
0.689594 0.881718 0.833431
0.807421 0.880186 0.831074
0.923192 0.878681 0.828759
1.000000 0.877653 0.827176
0.030000 0.993571 0.839435
0.177173 0.991583 0.836418
0.312053 0.989829 0.833720
0.439998 0.988166 0.831161
0.563541 0.986560 0.828690
0.683877 0.984995 0.826284
0.801703 0.983464 0.823927
0.917474 0.981959 0.821612
0.996591 0.980930 0.820029
0.077049 0.048780 1.000000
0.228877 0.046807 1.000000
0.363757 0.045053 1.000000
0.491702 0.043390 1.000000
0.615244 0.041784 1.000000
0.735580 0.040219 0.998264
0.853407 0.038688 0.995908
0.969178 0.037183 0.993592
1.000000 0.036096 0.992088
0.069131 0.191807 1.000000
0.220959 0.189833 0.998501
0.355839 0.188080 0.995803
0.483784 0.186416 0.993244
0.607326 0.184810 0.990773
0.727662 0.183246 0.988367
0.845489 0.181714 0.986010
0.961260 0.180209 0.983695
1.000000 0.179148 0.982157
0.062092 0.318963 0.992738
0.213919 0.316989 0.989702
0.348799 0.315236 0.987004
0.476744 0.313572 0.984445
0.600287 0.311966 0.981974
0.720623 0.310402 0.979567
0.838449 0.308870 0.977211
0.954220 0.307365 0.974895
1.000000 0.306326 0.973327
0.055414 0.439594 0.984390
0.207241 0.437620 0.981354
0.342121 0.435867 0.978656
0.470066 0.434204 0.976097
0.593608 0.432598 0.973626
0.713945 0.431033 0.971220
0.831771 0.429502 0.968863
0.947542 0.427996 0.966548
1.000000 0.426968 0.964965
0.048965 0.556080 0.976329
0.200792 0.554107 0.973293
0.335672 0.552353 0.970595
0.463617 0.550690 0.968036
0.587160 0.549084 0.965565
0.707496 0.547519 0.963159
0.825322 0.545988 0.960802
0.941093 0.544483 0.958487
1.000000 0.543454 0.956904
0.042683 0.669546 0.968477
0.194511 0.667573 0.965441
0.329391 0.665819 0.962743
0.457336 0.664156 0.960184
0.580878 0.662550 0.957713
0.701214 0.660985 0.955307
0.819040 0.659454 0.952950
0.934812 0.657949 0.950635
1.000000 0.656920 0.949052
0.036533 0.780648 0.960789
0.188360 0.778674 0.957753
0.323240 0.776921 0.955055
0.451185 0.775257 0.952496
0.574727 0.773651 0.950025
0.695064 0.772087 0.947618
0.812890 0.770555 0.945262
0.928661 0.769050 0.942946
1.000000 0.768021 0.941364
0.030489 0.889812 0.953235
0.182317 0.887839 0.950198
0.317197 0.886085 0.947501
0.445142 0.884422 0.944942
0.568684 0.882816 0.942471
0.689020 0.881251 0.940064
0.806846 0.879720 0.937708
0.922617 0.878215 0.935392
1.000000 0.877186 0.933810
0.030000 0.993107 0.946066
0.176599 0.991116 0.943051
0.311479 0.989363 0.940354
0.439424 0.987699 0.937795
0.562966 0.986093 0.935324
0.683303 0.984529 0.932917
0.801129 0.982997 0.930561
0.916900 0.981492 0.928245
0.996017 0.980464 0.926663
