luts/primelive_LUT_male_clarity.cube
TITLE "primelive Male Clarity"
LUT_3D_SIZE 5
DOMAIN_MIN 0.0 0.0 0.0
DOMAIN_MAX 1.0 1.0 1.0
0.000000 0.005000 0.025000
0.182802 0.007495 0.025651
0.449844 0.010863 0.026530
0.721239 0.014287 0.027423
0.954134 0.017225 0.028189
0.000000 0.211400 0.027234
0.196206 0.213895 0.027885
0.463248 0.217264 0.028764
0.734644 0.220687 0.029657
0.967539 0.223625 0.030423
0.016419 0.488790 0.030237
0.214221 0.491285 0.030887
0.481263 0.494654 0.031766
0.752659 0.498077 0.032659
0.985553 0.501015 0.033426
0.034728 0.770702 0.033288
0.232530 0.773197 0.033939
0.499572 0.776566 0.034818
0.770967 0.779989 0.035711
1.000000 0.782927 0.036477
0.049368 0.996124 0.035728
0.247170 0.998619 0.036379
0.514212 1.000000 0.037258
0.785607 1.000000 0.038151
1.000000 1.000000 0.038917
0.000000 0.005899 0.230956
0.184209 0.008394 0.231607
0.451251 0.011762 0.232486
0.722646 0.015186 0.233379
0.955541 0.018124 0.234145
0.000000 0.212299 0.233190
0.197613 0.214794 0.233841
0.464655 0.218163 0.234720
0.736051 0.221586 0.235613
0.968946 0.224524 0.236379
0.017827 0.489689 0.236193
0.215628 0.492184 0.236843
0.482670 0.495553 0.237722
0.754066 0.498976 0.238615
0.986961 0.501914 0.239382
0.036135 0.771601 0.239244
0.233937 0.774096 0.239895
0.500979 0.777465 0.240774
0.772374 0.780888 0.241667
1.000000 0.783826 0.242433
0.050775 0.997023 0.241684
0.248577 0.999518 0.242335
0.515619 1.000000 0.243214
0.787014 1.000000 0.244107
1.000000 1.000000 0.244873
0.000000 0.007097 0.505376
0.186084 0.009592 0.506027
0.453126 0.012960 0.506905
0.724521 0.016384 0.507798
0.957416 0.019321 0.508565
0.001687 0.213497 0.507610
0.199488 0.215992 0.508261
0.466530 0.219361 0.509139
0.737926 0.222784 0.510032
0.970821 0.225722 0.510799
0.019702 0.490887 0.510612
0.217503 0.493382 0.511263
0.484545 0.496750 0.512142
0.755941 0.500174 0.513035
0.988836 0.503112 0.513801
0.038010 0.772799 0.513664
0.235812 0.775294 0.514315
0.502854 0.778662 0.515193
0.774249 0.782086 0.516086
1.000000 0.785023 0.516853
0.052650 0.998221 0.516104
0.250452 1.000000 0.516755
0.517494 1.000000 0.517633
0.788889 1.000000 0.518526
1.000000 1.000000 0.519293
0.000000 0.008314 0.784269
0.187989 0.010809 0.784920
0.455031 0.014178 0.785799
0.726427 0.017601 0.786692
0.959321 0.020539 0.787458
0.003592 0.214715 0.786503
0.201394 0.217210 0.787154
0.468436 0.220578 0.788033
0.739831 0.224001 0.788926
0.972726 0.226939 0.789692
0.021607 0.492104 0.789506
0.219409 0.494599 0.790156
0.486451 0.497968 0.791035
0.757846 0.501391 0.791928
0.990741 0.504329 0.792695
0.039916 0.774016 0.792557
0.237717 0.776511 0.793208
0.504759 0.779880 0.794087
0.776155 0.783303 0.794980
1.000000 0.786241 0.795746
0.054555 0.999438 0.794997
0.252357 1.000000 0.795648
0.519399 1.000000 0.796527
0.790795 1.000000 0.797420
1.000000 1.000000 0.798186
0.000000 0.009152 0.976083
0.189300 0.011647 0.976734
0.456342 0.015015 0.977613
0.727737 0.018438 0.978506
0.960632 0.021376 0.979272
0.004903 0.215552 0.978317
0.202704 0.218047 0.978968
0.469746 0.221415 0.979847
0.741142 0.224839 0.980740
0.974037 0.227776 0.981506
0.022917 0.492942 0.981320
0.220719 0.495437 0.981970
0.487761 0.498805 0.982849
0.759157 0.502228 0.983742
0.992051 0.505166 0.984509
0.041226 0.774854 0.984371
0.239028 0.777349 0.985022
0.506070 0.780717 0.985901
0.777465 0.784140 0.986794
1.000000 0.787078 0.987560
0.055866 1.000000 0.986811
0.253668 1.000000 0.987462
0.520710 1.000000 0.988341
0.792105 1.000000 0.989234
1.000000 1.000000 0.990000
