luts/primelive_LUT_male_clarity.cube
TITLE "primelive Male Clarity"
LUT_3D_SIZE 9
DOMAIN_MIN 0.0 0.0 0.0
DOMAIN_MAX 1.0 1.0 1.0
0.000000 0.005000 0.025000
0.052113 0.005847 0.025221
0.182802 0.007495 0.025651
0.315621 0.009170 0.026088
0.449844 0.010863 0.026530
0.585119 0.012570 0.026975
0.721239 0.014287 0.027423
0.858066 0.016013 0.027873
0.954134 0.017225 0.028189
0.000000 0.075647 0.025765
0.056701 0.076494 0.025986
0.187390 0.078142 0.026416
0.320209 0.079817 0.026853
0.454432 0.081510 0.027294
0.589707 0.083217 0.027739
0.725827 0.084934 0.028187
0.862654 0.086660 0.028638
0.958722 0.087871 0.028954
0.000000 0.211400 0.027234
0.065517 0.212247 0.027455
0.196206 0.213895 0.027885
0.329026 0.215571 0.028322
0.463248 0.217264 0.028764
0.598524 0.218970 0.029209
0.734644 0.220687 0.029657
0.871471 0.222413 0.030107
0.967539 0.223625 0.030423
0.007365 0.349367 0.028727
0.074477 0.350213 0.028948
0.205166 0.351862 0.029378
0.337986 0.353537 0.029815
0.472208 0.355230 0.030257
0.607484 0.356936 0.030702
0.743604 0.358653 0.031150
0.880431 0.360379 0.031600
0.976499 0.361591 0.031916
0.016419 0.488790 0.030237
0.083532 0.489637 0.030457
0.214221 0.491285 0.030887
0.347041 0.492961 0.031325
0.481263 0.494654 0.031766
0.616538 0.496360 0.032211
0.752659 0.498077 0.032659
0.889486 0.499803 0.033109
0.985553 0.501015 0.033426
0.025545 0.629307 0.031758
0.092658 0.630154 0.031978
0.223347 0.631802 0.032408
0.356167 0.633478 0.032845
0.490389 0.635171 0.033287
0.625664 0.636877 0.033732
0.761784 0.638594 0.034180
0.898611 0.640320 0.034630
0.994679 0.641532 0.034947
0.034728 0.770702 0.033288
0.101841 0.771549 0.033509
0.232530 0.773197 0.033939
0.365349 0.774873 0.034376
0.499572 0.776566 0.034818
0.634847 0.778272 0.035263
0.770967 0.779989 0.035711
0.907794 0.781715 0.036161
1.000000 0.782927 0.036477
0.043959 0.912831 0.034826
0.111071 0.913678 0.035047
0.241760 0.915326 0.035477
0.374580 0.917001 0.035914
0.508802 0.918694 0.036356
0.644078 0.920401 0.036801
0.780198 0.922118 0.037249
0.917025 0.923844 0.037699
1.000000 0.925056 0.038015
0.049368 0.996124 0.035728
0.116481 0.996971 0.035949
0.247170 0.998619 0.036379
0.379989 1.000000 0.036816
0.514212 1.000000 0.037258
0.649487 1.000000 0.037703
0.785607 1.000000 0.038151
0.922434 1.000000 0.038601
1.000000 1.000000 0.038917
0.000000 0.005313 0.096656
0.052602 0.006159 0.096877
0.183291 0.007808 0.097307
0.316111 0.009483 0.097744
0.450333 0.011176 0.098186
0.585609 0.012883 0.098631
0.721729 0.014600 0.099079
0.858556 0.016325 0.099529
0.954624 0.017537 0.099845
0.000000 0.075960 0.097421
0.057190 0.076806 0.097642
0.187879 0.078455 0.098072
0.320699 0.080130 0.098509
0.454921 0.081823 0.098951
0.590197 0.083530 0.099396
0.726317 0.085247 0.099844
0.863144 0.086972 0.100294
0.959212 0.088184 0.100610
0.000000 0.211713 0.098890
0.066007 0.212560 0.099111
0.196696 0.214208 0.099541
0.329515 0.215883 0.099978
0.463738 0.217577 0.100420
0.599013 0.219283 0.100865
0.735133 0.221000 0.101313
0.871960 0.222726 0.101763
0.968028 0.223938 0.102079
0.007854 0.349679 0.100384
0.074967 0.350526 0.100605
0.205656 0.352174 0.101035
0.338476 0.353850 0.101472
0.472698 0.355543 0.101913
0.607973 0.357249 0.102358
0.744093 0.358966 0.102806
0.880920 0.360692 0.103257
0.976988 0.361904 0.103573
0.016909 0.489103 0.101893
0.084022 0.489949 0.102114
0.214711 0.491598 0.102544
0.347530 0.493273 0.102981
0.481753 0.494966 0.103422
0.617028 0.496673 0.103868
0.753148 0.498390 0.104315
0.889975 0.500116 0.104766
0.986043 0.501327 0.105082
0.026035 0.629620 0.103414
0.093147 0.630467 0.103635
0.223837 0.632115 0.104065
0.356656 0.633790 0.104502
0.490879 0.635484 0.104943
0.626154 0.637190 0.105389
0.762274 0.638907 0.105836
0.899101 0.640633 0.106287
0.995169 0.641845 0.106603
0.035218 0.771015 0.104944
0.102330 0.771861 0.105165
0.233019 0.773510 0.105595
0.365839 0.775185 0.106032
0.500061 0.776878 0.106474
0.635337 0.778585 0.106919
0.771457 0.780302 0.107367
0.908284 0.782028 0.107817
1.000000 0.783239 0.108133
0.044448 0.913144 0.106483
0.111561 0.913990 0.106703
0.242250 0.915639 0.107134
0.375069 0.917314 0.107571
0.509292 0.919007 0.108012
0.644567 0.920714 0.108457
0.780687 0.922431 0.108905
0.917514 0.924157 0.109356
1.000000 0.925368 0.109672
0.049858 0.996437 0.107384
0.116970 0.997283 0.107605
0.247659 0.998932 0.108035
0.380479 1.000000 0.108472
0.514701 1.000000 0.108914
0.649977 1.000000 0.109359
0.786097 1.000000 0.109807
0.922924 1.000000 0.110257
1.000000 1.000000 0.110573
0.000000 0.005899 0.230956
0.053520 0.006746 0.231177
0.184209 0.008394 0.231607
0.317028 0.010069 0.232044
0.451251 0.011762 0.232486
0.586526 0.013469 0.232931
0.722646 0.015186 0.233379
0.859473 0.016912 0.233829
0.955541 0.018124 0.234145
0.000000 0.076546 0.231721
0.058108 0.077393 0.231941
0.188797 0.079041 0.232372
0.321617 0.080716 0.232809
0.455839 0.082409 0.233250
0.591114 0.084116 0.233695
0.727234 0.085833 0.234143
0.864061 0.087559 0.234594
0.960129 0.088770 0.234910
0.000000 0.212299 0.233190
0.066924 0.213146 0.233411
0.197613 0.214794 0.233841
0.330433 0.216470 0.234278
0.464655 0.218163 0.234720
0.599931 0.219869 0.235165
0.736051 0.221586 0.235613
0.872878 0.223312 0.236063
0.968946 0.224524 0.236379
0.008772 0.350266 0.234683
0.075884 0.351112 0.234904
0.206574 0.352761 0.235334
0.339393 0.354436 0.235771
0.473616 0.356129 0.236213
0.608891 0.357835 0.236658
0.745011 0.359552 0.237106
0.881838 0.361278 0.237556
0.977906 0.362490 0.237872
0.017827 0.489689 0.236193
0.084939 0.490536 0.236413
0.215628 0.492184 0.236843
0.348448 0.493860 0.237280
0.482670 0.495553 0.237722
0.617946 0.497259 0.238167
0.754066 0.498976 0.238615
0.890893 0.500702 0.239065
0.986961 0.501914 0.239382
0.026952 0.630206 0.237713
0.094065 0.631053 0.237934
0.224754 0.632701 0.238364
0.357574 0.634377 0.238801
0.491796 0.636070 0.239243
0.627071 0.637776 0.239688
0.763192 0.639493 0.240136
0.900019 0.641219 0.240586
0.996086 0.642431 0.240902
0.036135 0.771601 0.239244
0.103248 0.772448 0.239465
0.233937 0.774096 0.239895
0.366757 0.775772 0.240332
0.500979 0.777465 0.240774
0.636254 0.779171 0.241219
0.772374 0.780888 0.241667
0.909201 0.782614 0.242117
1.000000 0.783826 0.242433
0.045366 0.913730 0.240782
0.112478 0.914577 0.241003
0.243167 0.916225 0.241433
0.375987 0.917900 0.241870
0.510209 0.919594 0.242312
0.645485 0.921300 0.242757
0.781605 0.923017 0.243205
0.918432 0.924743 0.243655
1.000000 0.925955 0.243971
0.050775 0.997023 0.241684
0.117888 0.997870 0.241905
0.248577 0.999518 0.242335
0.381396 1.000000 0.242772
0.515619 1.000000 0.243214
0.650894 1.000000 0.243659
0.787014 1.000000 0.244107
0.923841 1.000000 0.244557
1.000000 1.000000 0.244873
0.000000 0.006495 0.367445
0.054452 0.007341 0.367666
0.185141 0.008990 0.368096
0.317961 0.010665 0.368533
0.452183 0.012358 0.368975
0.587459 0.014065 0.369420
0.723579 0.015782 0.369868
0.860406 0.017507 0.370318
0.956474 0.018719 0.370634
0.000000 0.077142 0.368210
0.059040 0.077988 0.368431
0.189729 0.079637 0.368861
0.322549 0.081312 0.369298
0.456772 0.083005 0.369739
0.592047 0.084712 0.370184
0.728167 0.086429 0.370632
0.864994 0.088154 0.371083
0.961062 0.089366 0.371399
0.000744 0.212895 0.369679
0.067857 0.213742 0.369900
0.198546 0.215390 0.370330
0.331366 0.217065 0.370767
0.465588 0.218759 0.371209
0.600863 0.220465 0.371654
0.736983 0.222182 0.372102
0.873810 0.223908 0.372552
0.969878 0.225120 0.372868
0.009704 0.350861 0.371172
0.076817 0.351708 0.371393
0.207506 0.353356 0.371823
0.340326 0.355032 0.372260
0.474548 0.356725 0.372702
0.609823 0.358431 0.373147
0.745944 0.360148 0.373595
0.882770 0.361874 0.374045
0.978838 0.363086 0.374361
0.018759 0.490285 0.372682
0.085872 0.491131 0.372902
0.216561 0.492780 0.373332
0.349380 0.494455 0.373770
0.483603 0.496148 0.374211
0.618878 0.497855 0.374656
0.754998 0.499572 0.375104
0.891825 0.501298 0.375554
0.987893 0.502509 0.375871
0.027885 0.630802 0.374203
0.094998 0.631649 0.374423
0.225687 0.633297 0.374853
0.358506 0.634972 0.375291
0.492729 0.636666 0.375732
0.628004 0.638372 0.376177
0.764124 0.640089 0.376625
0.900951 0.641815 0.377075
0.997019 0.643027 0.377392
0.037068 0.772197 0.375733
0.104180 0.773043 0.375954
0.234869 0.774692 0.376384
0.367689 0.776367 0.376821
0.501912 0.778060 0.377263
0.637187 0.779767 0.377708
0.773307 0.781484 0.378156
0.910134 0.783210 0.378606
1.000000 0.784421 0.378922
0.046298 0.914326 0.377271
0.113411 0.915172 0.377492
0.244100 0.916821 0.377922
0.376920 0.918496 0.378359
0.511142 0.920189 0.378801
0.646417 0.921896 0.379246
0.782537 0.923613 0.379694
0.919364 0.925339 0.380144
1.000000 0.926550 0.380460
0.051708 0.997619 0.378173
0.118820 0.998465 0.378394
0.249509 1.000000 0.378824
0.382329 1.000000 0.379261
0.516551 1.000000 0.379703
0.651827 1.000000 0.380148
0.787947 1.000000 0.380596
0.924774 1.000000 0.381046
1.000000 1.000000 0.381362
0.000000 0.007097 0.505376
0.055395 0.007943 0.505596
0.186084 0.009592 0.506027
0.318903 0.011267 0.506464
0.453126 0.012960 0.506905
0.588401 0.014667 0.507350
0.724521 0.016384 0.507798
0.861348 0.018110 0.508249
0.957416 0.019321 0.508565
0.000000 0.077744 0.506140
0.059983 0.078590 0.506361
0.190672 0.080239 0.506791
0.323492 0.081914 0.507228
0.457714 0.083607 0.507670
0.592989 0.085314 0.508115
0.729109 0.087031 0.508563
0.865936 0.088757 0.509013
0.962004 0.089968 0.509329
0.001687 0.213497 0.507610
0.068799 0.214344 0.507831
0.199488 0.215992 0.508261
0.332308 0.217668 0.508698
0.466530 0.219361 0.509139
0.601806 0.221067 0.509584
0.737926 0.222784 0.510032
0.874753 0.224510 0.510483
0.970821 0.225722 0.510799
0.010647 0.351464 0.509103
0.077759 0.352310 0.509324
0.208448 0.353959 0.509754
0.341268 0.355634 0.510191
0.475490 0.357327 0.510633
0.610766 0.359033 0.511078
0.746886 0.360750 0.511526
0.883713 0.362476 0.511976
0.979781 0.363688 0.512292
0.019702 0.490887 0.510612
0.086814 0.491734 0.510833
0.217503 0.493382 0.511263
0.350323 0.495057 0.511700
0.484545 0.496750 0.512142
0.619821 0.498457 0.512587
0.755941 0.500174 0.513035
0.892768 0.501900 0.513485
0.988836 0.503112 0.513801
0.028827 0.631404 0.512133
0.095940 0.632251 0.512354
0.226629 0.633899 0.512784
0.359449 0.635575 0.513221
0.493671 0.637268 0.513663
0.628946 0.638974 0.514108
0.765067 0.640691 0.514556
0.901893 0.642417 0.515006
0.997961 0.643629 0.515322
0.038010 0.772799 0.513664
0.105123 0.773646 0.513885
0.235812 0.775294 0.514315
0.368631 0.776969 0.514752
0.502854 0.778662 0.515193
0.638129 0.780369 0.515638
0.774249 0.782086 0.516086
0.911076 0.783812 0.516537
1.000000 0.785023 0.516853
0.047241 0.914928 0.515202
0.114353 0.915774 0.515423
0.245042 0.917423 0.515853
0.377862 0.919098 0.516290
0.512084 0.920791 0.516732
0.647360 0.922498 0.517177
0.783480 0.924215 0.517625
0.920307 0.925941 0.518075
1.000000 0.927152 0.518391
0.052650 0.998221 0.516104
0.119763 0.999067 0.516324
0.250452 1.000000 0.516755
0.383271 1.000000 0.517192
0.517494 1.000000 0.517633
0.652769 1.000000 0.518078
0.788889 1.000000 0.518526
0.925716 1.000000 0.518977
1.000000 1.000000 0.519293
0.000000 0.007704 0.644388
0.056344 0.008550 0.644609
0.187033 0.010199 0.645039
0.319853 0.011874 0.645476
0.454076 0.013567 0.645918
0.589351 0.015273 0.646363
0.725471 0.016990 0.646811
0.862298 0.018716 0.647261
0.958366 0.019928 0.647577
0.000000 0.078351 0.645153
0.060932 0.079197 0.645374
0.191622 0.080846 0.645804
0.324441 0.082521 0.646241
0.458664 0.084214 0.646682
0.593939 0.085920 0.647128
0.730059 0.087637 0.647576
0.866886 0.089363 0.648026
0.962954 0.090575 0.648342
0.002636 0.214104 0.646622
0.069749 0.214950 0.646843
0.200438 0.216599 0.647273
0.333258 0.218274 0.647710
0.467480 0.219967 0.648152
0.602755 0.221674 0.648597
0.738876 0.223391 0.649045
0.875702 0.225117 0.649495
0.971770 0.226328 0.649811
0.011596 0.352070 0.648116
0.078709 0.352917 0.648336
0.209398 0.354565 0.648766
0.342218 0.356241 0.649204
0.476440 0.357934 0.649645
0.611715 0.359640 0.650090
0.747836 0.361357 0.650538
0.884663 0.363083 0.650989
0.980730 0.364295 0.651305
0.020651 0.491494 0.649625
0.087764 0.492340 0.649846
0.218453 0.493989 0.650276
0.351273 0.495664 0.650713
0.485495 0.497357 0.651154
0.620770 0.499064 0.651599
0.756890 0.500781 0.652047
0.893717 0.502507 0.652498
0.989785 0.503718 0.652814
0.029777 0.632011 0.651146
0.096890 0.632857 0.651367
0.227579 0.634506 0.651797
0.360398 0.636181 0.652234
0.494621 0.637874 0.652675
0.629896 0.639581 0.653120
0.766016 0.641298 0.653568
0.902843 0.643024 0.654019
0.998911 0.644235 0.654335
0.038960 0.773406 0.652676
0.106072 0.774252 0.652897
0.236762 0.775901 0.653327
0.369581 0.777576 0.653764
0.503804 0.779269 0.654206
0.639079 0.780976 0.654651
0.775199 0.782693 0.655099
0.912026 0.784418 0.655549
1.000000 0.785630 0.655865
0.048190 0.915535 0.654215
0.115303 0.916381 0.654435
0.245992 0.918030 0.654865
0.378812 0.919705 0.655303
0.513034 0.921398 0.655744
0.648309 0.923104 0.656189
0.784430 0.924821 0.656637
0.921256 0.926547 0.657087
1.000000 0.927759 0.657404
0.053600 0.998828 0.655116
0.120712 0.999674 0.655337
0.251401 1.000000 0.655767
0.384221 1.000000 0.656204
0.518444 1.000000 0.656646
0.653719 1.000000 0.657091
0.789839 1.000000 0.657539
0.926666 1.000000 0.657989
1.000000 1.000000 0.658305
0.000000 0.008314 0.784269
0.057300 0.009161 0.784490
0.187989 0.010809 0.784920
0.320809 0.012485 0.785357
0.455031 0.014178 0.785799
0.590306 0.015884 0.786244
0.726427 0.017601 0.786692
0.863254 0.019327 0.787142
0.959321 0.020539 0.787458
0.000000 0.078961 0.785034
0.061888 0.079808 0.785255
0.192577 0.081456 0.785685
0.325397 0.083132 0.786122
0.459619 0.084825 0.786563
0.594895 0.086531 0.787008
0.731015 0.088248 0.787456
0.867842 0.089974 0.787907
0.963910 0.091186 0.788223
0.003592 0.214715 0.786503
0.070705 0.215561 0.786724
0.201394 0.217210 0.787154
0.334213 0.218885 0.787591
0.468436 0.220578 0.788033
0.603711 0.222284 0.788478
0.739831 0.224001 0.788926
0.876658 0.225727 0.789376
0.972726 0.226939 0.789692
0.012552 0.352681 0.787996
0.079665 0.353527 0.788217
0.210354 0.355176 0.788647
0.343174 0.356851 0.789084
0.477396 0.358544 0.789526
0.612671 0.360251 0.789971
0.748791 0.361968 0.790419
0.885618 0.363694 0.790869
0.981686 0.364905 0.791185
0.021607 0.492104 0.789506
0.088720 0.492951 0.789726
0.219409 0.494599 0.790156
0.352228 0.496275 0.790594
0.486451 0.497968 0.791035
0.621726 0.499674 0.791480
0.757846 0.501391 0.791928
0.894673 0.503117 0.792378
0.990741 0.504329 0.792695
0.030733 0.632622 0.791027
0.097845 0.633468 0.791247
0.228534 0.635117 0.791677
0.361354 0.636792 0.792114
0.495577 0.638485 0.792556
0.630852 0.640191 0.793001
0.766972 0.641908 0.793449
0.903799 0.643634 0.793899
0.999867 0.644846 0.794216
0.039916 0.774016 0.792557
0.107028 0.774863 0.792778
0.237717 0.776511 0.793208
0.370537 0.778187 0.793645
0.504759 0.779880 0.794087
0.640035 0.781586 0.794532
0.776155 0.783303 0.794980
0.912982 0.785029 0.795430
1.000000 0.786241 0.795746
0.049146 0.916145 0.794095
0.116259 0.916992 0.794316
0.246948 0.918640 0.794746
0.379767 0.920316 0.795183
0.513990 0.922009 0.795625
0.649265 0.923715 0.796070
0.785385 0.925432 0.796518
0.922212 0.927158 0.796968
1.000000 0.928370 0.797284
0.054555 0.999438 0.794997
0.121668 1.000000 0.795218
0.252357 1.000000 0.795648
0.385177 1.000000 0.796085
0.519399 1.000000 0.796527
0.654674 1.000000 0.796972
0.790795 1.000000 0.797420
0.927622 1.000000 0.797870
1.000000 1.000000 0.798186
0.000000 0.008928 0.924876
0.058261 0.009775 0.925097
0.188950 0.011423 0.925527
0.321769 0.013098 0.925964
0.455992 0.014791 0.926406
0.591267 0.016498 0.926851
0.727387 0.018215 0.927299
0.864214 0.019941 0.927749
0.960282 0.021152 0.928065
0.000000 0.079575 0.925641
0.062849 0.080422 0.925862
0.193538 0.082070 0.926292
0.326358 0.083745 0.926729
0.460580 0.085438 0.927170
0.595855 0.087145 0.927615
0.731975 0.088862 0.928063
0.868802 0.090588 0.928514
0.964870 0.091799 0.928830
0.004553 0.215328 0.927110
0.071665 0.216175 0.927331
0.202354 0.217823 0.927761
0.335174 0.219499 0.928198
0.469396 0.221192 0.928640
0.604672 0.222898 0.929085
0.740792 0.224615 0.929533
0.877619 0.226341 0.929983
0.973687 0.227553 0.930299
0.013513 0.353295 0.928604
0.080625 0.354141 0.928824
0.211315 0.355790 0.929254
0.344134 0.357465 0.929691
0.478357 0.359158 0.930133
0.613632 0.360864 0.930578
0.749752 0.362581 0.931026
0.886579 0.364307 0.931476
0.982647 0.365519 0.931793
0.022568 0.492718 0.930113
0.089680 0.493565 0.930333
0.220369 0.495213 0.930764
0.353189 0.496889 0.931201
0.487411 0.498582 0.931642
0.622687 0.500288 0.932087
0.758807 0.502005 0.932535
0.895634 0.503731 0.932986
0.991702 0.504943 0.933302
0.031693 0.633235 0.931634
0.098806 0.634082 0.931854
0.229495 0.635730 0.932284
0.362315 0.637406 0.932722
0.496537 0.639099 0.933163
0.631812 0.640805 0.933608
0.767933 0.642522 0.934056
0.904760 0.644248 0.934506
1.000000 0.645460 0.934823
0.040876 0.774630 0.933164
0.107989 0.775477 0.933385
0.238678 0.777125 0.933815
0.371498 0.778800 0.934252
0.505720 0.780494 0.934694
0.640995 0.782200 0.935139
0.777115 0.783917 0.935587
0.913942 0.785643 0.936037
1.000000 0.786855 0.936353
0.050107 0.916759 0.934702
0.117219 0.917606 0.934923
0.247908 0.919254 0.935353
0.380728 0.920929 0.935790
0.514950 0.922622 0.936232
0.650226 0.924329 0.936677
0.786346 0.926046 0.937125
0.923173 0.927772 0.937575
1.000000 0.928984 0.937891
0.055516 1.000000 0.935604
0.122629 1.000000 0.935825
0.253318 1.000000 0.936255
0.386137 1.000000 0.936692
0.520360 1.000000 0.937134
0.655635 1.000000 0.937579
0.791755 1.000000 0.938027
0.928582 1.000000 0.938477
1.000000 1.000000 0.938793
0.000000 0.009152 0.976083
0.058611 0.009998 0.976304
0.189300 0.011647 0.976734
0.322119 0.013322 0.977171
0.456342 0.015015 0.977613
0.591617 0.016721 0.978058
0.727737 0.018438 0.978506
0.864564 0.020164 0.978956
0.960632 0.021376 0.979272
0.000000 0.079798 0.976848
0.063199 0.080645 0.977069
0.193888 0.082294 0.977499
0.326707 0.083969 0.977936
0.460930 0.085662 0.978377
0.596205 0.087368 0.978822
0.732325 0.089085 0.979270
0.869152 0.090811 0.979721
0.965220 0.092023 0.980037
0.004903 0.215552 0.978317
0.072015 0.216398 0.978538
0.202704 0.218047 0.978968
0.335524 0.219722 0.979405
0.469746 0.221415 0.979847
0.605022 0.223122 0.980292
0.741142 0.224839 0.980740
0.877969 0.226564 0.981190
0.974037 0.227776 0.981506
0.013863 0.353518 0.979810
0.080975 0.354365 0.980031
0.211664 0.356013 0.980461
0.344484 0.357689 0.980898
0.478706 0.359382 0.981340
0.613982 0.361088 0.981785
0.750102 0.362805 0.982233
0.886929 0.364531 0.982683
0.982997 0.365743 0.982999
0.022917 0.492942 0.981320
0.090030 0.493788 0.981540
0.220719 0.495437 0.981970
0.353539 0.497112 0.982408
0.487761 0.498805 0.982849
0.623036 0.500511 0.983294
0.759157 0.502228 0.983742
0.895984 0.503954 0.984192
0.992051 0.505166 0.984509
0.032043 0.633459 0.982841
0.099156 0.634305 0.983061
0.229845 0.635954 0.983491
0.362665 0.637629 0.983928
0.496887 0.639322 0.984370
0.632162 0.641029 0.984815
0.768282 0.642746 0.985263
0.905109 0.644472 0.985713
1.000000 0.645683 0.986030
0.041226 0.774854 0.984371
0.108339 0.775700 0.984592
0.239028 0.777349 0.985022
0.371847 0.779024 0.985459
0.506070 0.780717 0.985901
0.641345 0.782423 0.986346
0.777465 0.784140 0.986794
0.914292 0.785866 0.987244
1.000000 0.787078 0.987560
0.050457 0.916983 0.985909
0.117569 0.917829 0.986130
0.248258 0.919478 0.986560
0.381078 0.921153 0.986997
0.515300 0.922846 0.987439
0.650576 0.924552 0.987884
0.786696 0.926269 0.988332
0.923523 0.927995 0.988782
1.000000 0.929207 0.989098
0.055866 1.000000 0.986811
0.122979 1.000000 0.987032
0.253668 1.000000 0.987462
0.386487 1.000000 0.987899
0.520710 1.000000 0.988341
0.655985 1.000000 0.988786
0.792105 1.000000 0.989234
0.928932 1.000000 0.989684
1.000000 1.000000 0.990000
