luts/primelive_LUT_female_warm.cube
TITLE "primelive Female Warm Soft"
LUT_3D_SIZE 33
DOMAIN_MIN 0.0 0.0 0.0
DOMAIN_MAX 1.0 1.0 1.0
0.082113 0.052894 0.071070
0.123589 0.052355 0.070241
0.161864 0.051857 0.069475
0.198467 0.051382 0.068743
0.233940 0.050920 0.068034
0.268566 0.050470 0.067341
0.302516 0.050029 0.066662
0.335906 0.049595 0.065994
0.368820 0.049167 0.065336
0.401319 0.048744 0.064686
0.433451 0.048327 0.064043
0.465256 0.047913 0.063407
0.496765 0.047504 0.062777
0.528004 0.047098 0.062152
0.558995 0.046695 0.061533
0.589757 0.046295 0.060917
0.620307 0.045898 0.060306
0.650659 0.045503 0.059699
0.680825 0.045111 0.059096
0.710817 0.044721 0.058496
0.740643 0.044333 0.057900
0.770314 0.043947 0.057306
0.799838 0.043564 0.056716
0.829221 0.043182 0.056128
0.858470 0.042801 0.055543
0.887591 0.042423 0.054961
0.916590 0.042046 0.054381
0.945471 0.041670 0.053803
0.974241 0.041296 0.053228
1.000000 0.040924 0.052654
1.000000 0.040548 0.052089
1.000000 0.040193 0.051745
1.000000 0.040193 0.051745
0.079952 0.091928 0.068369
0.121428 0.091389 0.067540
0.159704 0.090891 0.066774
0.196306 0.090415 0.066042
0.231779 0.089954 0.065333
0.266405 0.089504 0.064640
0.300355 0.089063 0.063961
0.333745 0.088629 0.063293
0.366659 0.088201 0.062635
0.399158 0.087778 0.061985
0.431290 0.087361 0.061342
0.463095 0.086947 0.060706
0.494604 0.086538 0.060076
0.525843 0.086131 0.059451
0.556834 0.085729 0.058831
0.587596 0.085329 0.058216
0.618146 0.084931 0.057605
0.648498 0.084537 0.056998
0.678664 0.084145 0.056395
0.708656 0.083755 0.055795
0.738482 0.083367 0.055198
0.768154 0.082981 0.054605
0.797677 0.082598 0.054014
0.827060 0.082216 0.053427
0.856309 0.081835 0.052842
0.885430 0.081457 0.052259
0.914429 0.081080 0.051679
0.943310 0.080704 0.051102
0.972080 0.080330 0.050526
1.000000 0.079958 0.049953
1.000000 0.079586 0.049382
1.000000 0.079234 0.049034
1.000000 0.079234 0.049034
0.077955 0.127989 0.065874
0.119432 0.127450 0.065044
0.157707 0.126952 0.064279
0.194309 0.126476 0.063547
0.229783 0.126015 0.062837
0.264408 0.125565 0.062145
0.298359 0.125124 0.061466
0.331749 0.124690 0.060798
0.364662 0.124262 0.060139
0.397161 0.123839 0.059489
0.429294 0.123422 0.058847
0.461099 0.123008 0.058211
0.492607 0.122599 0.057581
0.523846 0.122192 0.056956
0.554838 0.121790 0.056336
0.585600 0.121390 0.055721
0.616150 0.120993 0.055110
0.646502 0.120598 0.054503
0.676668 0.120206 0.053899
0.706659 0.119816 0.053299
0.736486 0.119428 0.052703
0.766157 0.119042 0.052109
0.795680 0.118659 0.051519
0.825063 0.118277 0.050931
0.854312 0.117896 0.050346
0.883433 0.117518 0.049764
0.912432 0.117141 0.049184
0.941314 0.116765 0.048606
0.970083 0.116391 0.048031
0.998745 0.116019 0.047458
1.000000 0.115647 0.046887
1.000000 0.115302 0.046530
1.000000 0.115302 0.046530
0.076046 0.162484 0.063487
0.117522 0.161945 0.062657
0.155797 0.161448 0.061891
0.192400 0.160972 0.061159
0.227873 0.160511 0.060450
0.262499 0.160061 0.059757
0.296449 0.159619 0.059078
0.329839 0.159185 0.058411
0.362753 0.158757 0.057752
0.395252 0.158335 0.057102
0.427384 0.157917 0.056460
0.459189 0.157504 0.055824
0.490698 0.157094 0.055193
0.521937 0.156688 0.054569
0.552928 0.156285 0.053949
0.583690 0.155885 0.053334
0.614240 0.155488 0.052723
0.644592 0.155093 0.052115
0.674758 0.154701 0.051512
0.704750 0.154311 0.050912
0.734576 0.153923 0.050316
0.764247 0.153538 0.049722
0.793771 0.153154 0.049132
0.823154 0.152772 0.048544
0.852403 0.152392 0.047959
0.881524 0.152013 0.047377
0.910523 0.151636 0.046797
0.939404 0.151261 0.046219
0.968174 0.150887 0.045644
0.996835 0.150514 0.045071
1.000000 0.150143 0.044499
1.000000 0.149803 0.044135
1.000000 0.149803 0.044135
0.074194 0.195921 0.061173
0.115671 0.195382 0.060343
0.153946 0.194884 0.059578
0.190549 0.194408 0.058846
0.226022 0.193947 0.058136
0.260648 0.193497 0.057444
0.294598 0.193055 0.056765
0.327988 0.192621 0.056097
0.360902 0.192194 0.055438
0.393401 0.191771 0.054789
0.425533 0.191353 0.054146
0.457338 0.190940 0.053510
0.488847 0.190530 0.052880
0.520086 0.190124 0.052255
0.551077 0.189721 0.051635
0.581839 0.189321 0.051020
0.612389 0.188924 0.050409
0.642741 0.188530 0.049802
0.672907 0.188137 0.049198
0.702898 0.187748 0.048599
0.732725 0.187360 0.048002
0.762396 0.186974 0.047409
0.791920 0.186590 0.046818
0.821303 0.186208 0.046230
0.850552 0.185828 0.045645
0.879673 0.185449 0.045063
0.908672 0.185072 0.044483
0.937553 0.184697 0.043905
0.966323 0.184323 0.043330
0.994984 0.183950 0.042757
1.000000 0.183579 0.042186
1.000000 0.183245 0.041813
1.000000 0.183245 0.041813
0.072387 0.228561 0.058914
0.113864 0.228022 0.058084
0.152139 0.227524 0.057319
0.188742 0.227049 0.056587
0.224215 0.226587 0.055877
0.258841 0.226137 0.055185
0.292791 0.225696 0.054506
0.326181 0.225262 0.053838
0.359095 0.224834 0.053180
0.391594 0.224411 0.052530
0.423726 0.223994 0.051887
0.455531 0.223580 0.051251
0.487040 0.223171 0.050621
0.518279 0.222765 0.049996
0.549270 0.222362 0.049376
0.580032 0.221962 0.048761
0.610582 0.221565 0.048150
0.640934 0.221170 0.047543
0.671100 0.220778 0.046940
0.701091 0.220388 0.046340
0.730918 0.220000 0.045743
0.760589 0.219615 0.045150
0.790113 0.219231 0.044559
0.819496 0.218849 0.043972
0.848745 0.218468 0.043387
0.877866 0.218090 0.042804
0.906865 0.217713 0.042224
0.935746 0.217337 0.041647
0.964516 0.216963 0.041071
0.993177 0.216591 0.040498
1.000000 0.216220 0.039927
1.000000 0.215891 0.039547
1.000000 0.215891 0.039547
0.070616 0.260567 0.056699
0.112092 0.260028 0.055870
0.150368 0.259530 0.055104
0.186970 0.259054 0.054372
0.222443 0.258593 0.053663
0.257069 0.258143 0.052970
0.291019 0.257702 0.052291
0.324409 0.257267 0.051623
0.357323 0.256840 0.050965
0.389822 0.256417 0.050315
0.421954 0.255999 0.049672
0.453759 0.255586 0.049036
0.485268 0.255176 0.048406
0.516507 0.254770 0.047781
0.547498 0.254367 0.047161
0.578260 0.253967 0.046546
0.608810 0.253570 0.045935
0.639162 0.253176 0.045328
0.669328 0.252784 0.044725
0.699320 0.252394 0.044125
0.729146 0.252006 0.043528
0.758818 0.251620 0.042935
0.788341 0.251236 0.042344
0.817724 0.250854 0.041757
0.846973 0.250474 0.041172
0.876094 0.250096 0.040589
0.905093 0.249719 0.040009
0.933974 0.249343 0.039432
0.962744 0.248969 0.038856
0.991405 0.248596 0.038283
1.000000 0.248225 0.037712
1.000000 0.247903 0.037324
1.000000 0.247903 0.037324
0.068873 0.292046 0.054521
0.110349 0.291507 0.053691
0.148625 0.291009 0.052926
0.185227 0.290533 0.052194
0.220700 0.290072 0.051484
0.255326 0.289622 0.050792
0.289276 0.289181 0.050113
0.322667 0.288747 0.049445
0.355580 0.288319 0.048787
0.388079 0.287896 0.048137
0.420211 0.287479 0.047494
0.452016 0.287065 0.046858
0.483525 0.286655 0.046228
0.514764 0.286249 0.045603
0.545755 0.285847 0.044983
0.576518 0.285447 0.044368
0.607068 0.285049 0.043757
0.637419 0.284655 0.043150
0.667585 0.284263 0.042546
0.697577 0.283873 0.041947
0.727404 0.283485 0.041350
0.757075 0.283099 0.040757
0.786598 0.282716 0.040166
0.815981 0.282334 0.039578
0.845230 0.281953 0.038993
0.874351 0.281575 0.038411
0.903350 0.281198 0.037831
0.932232 0.280822 0.037253
0.961001 0.280448 0.036678
0.989662 0.280076 0.036105
1.000000 0.279704 0.035534
1.000000 0.279387 0.035139
1.000000 0.279387 0.035139
0.067155 0.323077 0.052373
0.108631 0.322537 0.051544
0.146907 0.322040 0.050778
0.183509 0.321564 0.050046
0.218982 0.321103 0.049337
0.253608 0.320653 0.048644
0.287558 0.320211 0.047965
0.320949 0.319777 0.047297
0.353862 0.319349 0.046639
0.386361 0.318927 0.045989
0.418494 0.318509 0.045347
0.450298 0.318096 0.044710
0.481807 0.317686 0.044080
0.513046 0.317280 0.043455
0.544037 0.316877 0.042836
0.574800 0.316477 0.042220
0.605350 0.316080 0.041609
0.635701 0.315685 0.041002
0.665868 0.315293 0.040399
0.695859 0.314903 0.039799
0.725686 0.314516 0.039203
0.755357 0.314130 0.038609
0.784880 0.313746 0.038019
0.814263 0.313364 0.037431
0.843512 0.312984 0.036846
0.872633 0.312605 0.036264
0.901632 0.312228 0.035684
0.930514 0.311853 0.035106
0.959283 0.311479 0.034531
0.987944 0.311106 0.033957
1.000000 0.310735 0.033386
1.000000 0.310423 0.032984
1.000000 0.310423 0.032984
0.065459 0.353717 0.050253
0.106935 0.353178 0.049424
0.145211 0.352680 0.048658
0.181813 0.352204 0.047926
0.217286 0.351743 0.047216
0.251912 0.351293 0.046524
0.285862 0.350852 0.045845
0.319253 0.350418 0.045177
0.352166 0.349990 0.044519
0.384665 0.349567 0.043869
0.416797 0.349149 0.043226
0.448602 0.348736 0.042590
0.480111 0.348326 0.041960
0.511350 0.347920 0.041335
0.542341 0.347517 0.040715
0.573104 0.347117 0.040100
0.603653 0.346720 0.039489
0.634005 0.346326 0.038882
0.664171 0.345934 0.038279
0.694163 0.345544 0.037679
0.723990 0.345156 0.037082
0.753661 0.344770 0.036489
0.783184 0.344386 0.035898
0.812567 0.344004 0.035311
0.841816 0.343624 0.034726
0.870937 0.343246 0.034143
0.899936 0.342869 0.033563
0.928818 0.342493 0.032986
0.957587 0.342119 0.032410
0.986248 0.341747 0.031837
1.000000 0.341375 0.031266
1.000000 0.341069 0.030856
1.000000 0.341069 0.030856
0.063782 0.384012 0.048157
0.105258 0.383473 0.047327
0.143533 0.382976 0.046562
0.180136 0.382500 0.045829
0.215609 0.382039 0.045120
0.250235 0.381589 0.044427
0.284185 0.381147 0.043748
0.317575 0.380713 0.043081
0.350489 0.380285 0.042422
0.382988 0.379863 0.041772
0.415120 0.379445 0.041130
0.446925 0.379032 0.040494
0.478434 0.378622 0.039863
0.509673 0.378216 0.039239
0.540664 0.377813 0.038619
0.571426 0.377413 0.038004
0.601976 0.377016 0.037393
0.632328 0.376621 0.036786
0.662494 0.376229 0.036182
0.692486 0.375839 0.035582
0.722312 0.375451 0.034986
0.751984 0.375066 0.034392
0.781507 0.374682 0.033802
0.810890 0.374300 0.033214
0.840139 0.373920 0.032629
0.869260 0.373541 0.032047
0.898259 0.373164 0.031467
0.927140 0.372789 0.030889
0.955910 0.372415 0.030314
0.984571 0.372042 0.029741
1.000000 0.371671 0.029169
1.000000 0.371370 0.028753
1.000000 0.371370 0.028753
0.062121 0.414000 0.046081
0.103598 0.413460 0.045252
0.141873 0.412963 0.044486
0.178476 0.412487 0.043754
0.213949 0.412026 0.043045
0.248575 0.411576 0.042352
0.282525 0.411134 0.041673
0.315915 0.410700 0.041006
0.348829 0.410272 0.040347
0.381328 0.409850 0.039697
0.413460 0.409432 0.039055
0.445265 0.409019 0.038418
0.476774 0.408609 0.037788
0.508013 0.408203 0.037164
0.539004 0.407800 0.036544
0.569766 0.407400 0.035928
0.600316 0.407003 0.035317
0.630668 0.406608 0.034710
0.660834 0.406216 0.034107
0.690825 0.405826 0.033507
0.720652 0.405439 0.032911
0.750323 0.405053 0.032317
0.779847 0.404669 0.031727
0.809230 0.404287 0.031139
0.838479 0.403907 0.030554
0.867600 0.403528 0.029972
0.896599 0.403151 0.029392
0.925480 0.402776 0.028814
0.954250 0.402402 0.028239
0.982911 0.402029 0.027665
1.000000 0.401658 0.027094
1.000000 0.401363 0.026671
1.000000 0.401363 0.026671
0.060477 0.443708 0.044026
0.101953 0.443169 0.043196
0.140229 0.442671 0.042431
0.176831 0.442195 0.041698
0.212304 0.441734 0.040989
0.246930 0.441284 0.040296
0.280880 0.440843 0.039617
0.314271 0.440409 0.038950
0.347184 0.439981 0.038291
0.379683 0.439558 0.037641
0.411815 0.439141 0.036999
0.443620 0.438727 0.036363
0.475129 0.438317 0.035732
0.506368 0.437911 0.035108
0.537359 0.437508 0.034488
0.568122 0.437109 0.033873
0.598671 0.436711 0.033262
0.629023 0.436317 0.032655
0.659189 0.435925 0.032051
0.689181 0.435535 0.031451
0.719008 0.435147 0.030855
0.748679 0.434761 0.030261
0.778202 0.434377 0.029671
0.807585 0.433995 0.029083
0.836834 0.433615 0.028498
0.865955 0.433237 0.027916
0.894954 0.432860 0.027336
0.923836 0.432484 0.026758
0.952605 0.432110 0.026183
0.981266 0.431738 0.025610
1.000000 0.431366 0.025039
1.000000 0.431076 0.024608
1.000000 0.431076 0.024608
0.058846 0.473162 0.041987
0.100322 0.472623 0.041158
0.138598 0.472125 0.040392
0.175200 0.471650 0.039660
0.210674 0.471188 0.038951
0.245299 0.470738 0.038258
0.279250 0.470297 0.037579
0.312640 0.469863 0.036911
0.345553 0.469435 0.036253
0.378052 0.469013 0.035603
0.410185 0.468595 0.034960
0.441990 0.468181 0.034324
0.473498 0.467772 0.033694
0.504737 0.467366 0.033069
0.535729 0.466963 0.032450
0.566491 0.466563 0.031834
0.597041 0.466166 0.031223
0.627393 0.465771 0.030616
0.657559 0.465379 0.030013
0.687550 0.464989 0.029413
0.717377 0.464601 0.028817
0.747048 0.464216 0.028223
0.776571 0.463832 0.027633
0.805954 0.463450 0.027045
0.835203 0.463070 0.026460
0.864324 0.462691 0.025878
0.893323 0.462314 0.025298
0.922205 0.461938 0.024720
0.950974 0.461564 0.024145
0.979635 0.461192 0.023571
1.000000 0.460821 0.023000
1.000000 0.460536 0.022563
1.000000 0.460536 0.022563
0.057228 0.502383 0.039965
0.098705 0.501844 0.039136
0.136980 0.501346 0.038370
0.173583 0.500871 0.037638
0.209056 0.500409 0.036929
0.243682 0.499959 0.036236
0.277632 0.499518 0.035557
0.311022 0.499084 0.034889
0.343936 0.498656 0.034231
0.376435 0.498234 0.033581
0.408567 0.497816 0.032938
0.440372 0.497402 0.032302
0.471881 0.496993 0.031672
0.503120 0.496587 0.031047
0.534111 0.496184 0.030427
0.564873 0.495784 0.029812
0.595423 0.495387 0.029201
0.625775 0.494992 0.028594
0.655941 0.494600 0.027991
0.685932 0.494210 0.027391
0.715759 0.493822 0.026794
0.745430 0.493437 0.026201
0.774954 0.493053 0.025611
0.804337 0.492671 0.025023
0.833586 0.492291 0.024438
0.862707 0.491912 0.023856
0.891706 0.491535 0.023276
0.920587 0.491160 0.022698
0.949357 0.490785 0.022122
0.978018 0.490413 0.021549
1.000000 0.490042 0.020978
1.000000 0.489757 0.020540
1.000000 0.489757 0.020540
0.055623 0.531389 0.037958
0.097099 0.530850 0.037128
0.135375 0.530352 0.036363
0.171977 0.529876 0.035631
0.207450 0.529415 0.034921
0.242076 0.528965 0.034229
0.276026 0.528524 0.033550
0.309416 0.528089 0.032882
0.342330 0.527662 0.032224
0.374829 0.527239 0.031574
0.406961 0.526821 0.030931
0.438766 0.526408 0.030295
0.470275 0.525998 0.029665
0.501514 0.525592 0.029040
0.532505 0.525189 0.028420
0.563267 0.524789 0.027805
0.593817 0.524392 0.027194
0.624169 0.523998 0.026587
0.654335 0.523605 0.025984
0.684327 0.523216 0.025384
0.714154 0.522828 0.024787
0.743825 0.522442 0.024194
0.773348 0.522058 0.023603
0.802731 0.521676 0.023016
0.831980 0.521296 0.022431
0.861101 0.520917 0.021848
0.890100 0.520540 0.021268
0.918982 0.520165 0.020691
0.947751 0.519791 0.020115
0.976412 0.519418 0.019542
1.000000 0.519047 0.018971
1.000000 0.518762 0.018533
1.000000 0.518762 0.018533
0.054028 0.560194 0.035965
0.095504 0.559655 0.035135
0.133780 0.559157 0.034370
0.170382 0.558682 0.033638
0.205855 0.558220 0.032928
0.240481 0.557770 0.032236
0.274431 0.557329 0.031557
0.307822 0.556895 0.030889
0.340735 0.556467 0.030230
0.373234 0.556044 0.029580
0.405367 0.555627 0.028938
0.437171 0.555213 0.028302
0.468680 0.554804 0.027672
0.499919 0.554398 0.027047
0.530910 0.553995 0.026427
0.561673 0.553595 0.025812
0.592223 0.553198 0.025201
0.622574 0.552803 0.024594
0.652741 0.552411 0.023990
0.682732 0.552021 0.023390
0.712559 0.551633 0.022794
0.742230 0.551247 0.022200
0.771753 0.550864 0.021610
0.801136 0.550482 0.021022
0.830385 0.550101 0.020437
0.859506 0.549723 0.019855
0.888505 0.549346 0.019275
0.917387 0.548970 0.018697
0.946156 0.548596 0.018122
0.974817 0.548224 0.017549
1.000000 0.547853 0.016978
1.000000 0.547568 0.016540
1.000000 0.547568 0.016540
0.052444 0.588813 0.033984
0.093920 0.588274 0.033155
0.132196 0.587776 0.032389
0.168798 0.587300 0.031657
0.204271 0.586839 0.030948
0.238897 0.586389 0.030255
0.272847 0.585948 0.029576
0.306237 0.585514 0.028908
0.339151 0.585086 0.028250
0.371650 0.584663 0.027600
0.403782 0.584245 0.026957
0.435587 0.583832 0.026321
0.467096 0.583422 0.025691
0.498335 0.583016 0.025066
0.529326 0.582613 0.024446
0.560088 0.582213 0.023831
0.590638 0.581816 0.023220
0.620990 0.581422 0.022613
0.651156 0.581030 0.022010
0.681148 0.580640 0.021410
0.710975 0.580252 0.020813
0.740646 0.579866 0.020220
0.770169 0.579482 0.019630
0.799552 0.579100 0.019042
0.828801 0.578720 0.018457
0.857922 0.578342 0.017874
0.886921 0.577965 0.017295
0.915803 0.577589 0.016717
0.944572 0.577215 0.016141
0.973233 0.576843 0.015568
1.000000 0.576471 0.014997
1.000000 0.576187 0.014559
1.000000 0.576187 0.014559
0.050869 0.617257 0.032016
0.092345 0.616717 0.031186
0.130621 0.616220 0.030421
0.167223 0.615744 0.029689
0.202696 0.615283 0.028979
0.237322 0.614833 0.028287
0.271272 0.614391 0.027608
0.304663 0.613957 0.026940
0.337576 0.613529 0.026282
0.370075 0.613107 0.025632
0.402208 0.612689 0.024989
0.434012 0.612276 0.024353
0.465521 0.611866 0.023723
0.496760 0.611460 0.023098
0.527751 0.611057 0.022478
0.558514 0.610657 0.021863
0.589064 0.610260 0.021252
0.619415 0.609865 0.020645
0.649582 0.609473 0.020042
0.679573 0.609083 0.019442
0.709400 0.608696 0.018845
0.739071 0.608310 0.018252
0.768594 0.607926 0.017661
0.797977 0.607544 0.017074
0.827226 0.607164 0.016489
0.856347 0.606785 0.015906
0.885346 0.606408 0.015326
0.914228 0.606033 0.014749
0.942997 0.605659 0.014173
0.971658 0.605286 0.013600
1.000000 0.604915 0.013029
1.000000 0.604630 0.012591
1.000000 0.604630 0.012591
0.049303 0.645536 0.030059
0.090780 0.644997 0.029229
0.129055 0.644499 0.028464
0.165658 0.644023 0.027732
0.201131 0.643562 0.027022
0.235757 0.643112 0.026330
0.269707 0.642671 0.025651
0.303097 0.642237 0.024983
0.336011 0.641809 0.024325
0.368509 0.641386 0.023675
0.400642 0.640969 0.023032
0.432447 0.640555 0.022396
0.463956 0.640145 0.021766
0.495195 0.639739 0.021141
0.526186 0.639336 0.020521
0.556948 0.638937 0.019906
0.587498 0.638539 0.019295
0.617850 0.638145 0.018688
0.648016 0.637753 0.018085
0.678007 0.637363 0.017485
0.707834 0.636975 0.016888
0.737505 0.636589 0.016295
0.767029 0.636205 0.015704
0.796412 0.635824 0.015117
0.825661 0.635443 0.014532
0.854782 0.635065 0.013949
0.883781 0.634688 0.013369
0.912662 0.634312 0.012792
0.941432 0.633938 0.012216
0.970093 0.633566 0.011643
0.998650 0.633194 0.011072
1.000000 0.632910 0.010634
1.000000 0.632910 0.010634
0.047746 0.673660 0.028113
0.089223 0.673121 0.027283
0.127498 0.672623 0.026518
0.164101 0.672148 0.025786
0.199574 0.671686 0.025076
0.234200 0.671236 0.024384
0.268150 0.670795 0.023705
0.301540 0.670361 0.023037
0.334454 0.669933 0.022378
0.366953 0.669510 0.021728
0.399085 0.669093 0.021086
0.430890 0.668679 0.020450
0.462399 0.668270 0.019820
0.493638 0.667864 0.019195
0.524629 0.667461 0.018575
0.555391 0.667061 0.017960
0.585941 0.666664 0.017349
0.616293 0.666269 0.016742
0.646459 0.665877 0.016138
0.676450 0.665487 0.015538
0.706277 0.665099 0.014942
0.735948 0.664713 0.014349
0.765472 0.664330 0.013758
0.794855 0.663948 0.013170
0.824104 0.663567 0.012585
0.853225 0.663189 0.012003
0.882224 0.662812 0.011423
0.911105 0.662436 0.010845
0.939875 0.662062 0.010270
0.968536 0.661690 0.009697
0.997093 0.661319 0.009126
1.000000 0.661034 0.008688
1.000000 0.661034 0.008688
0.046198 0.701638 0.026177
0.087674 0.701098 0.025347
0.125950 0.700601 0.024582
0.162552 0.700125 0.023849
0.198025 0.699664 0.023140
0.232651 0.699214 0.022448
0.266601 0.698772 0.021768
0.299991 0.698338 0.021101
0.332905 0.697910 0.020442
0.365404 0.697488 0.019792
0.397536 0.697070 0.019150
0.429341 0.696657 0.018514
0.460850 0.696247 0.017883
0.492089 0.695841 0.017259
0.523080 0.695438 0.016639
0.553842 0.695038 0.016024
0.584392 0.694641 0.015413
0.614744 0.694246 0.014806
0.644910 0.693854 0.014202
0.674902 0.693464 0.013602
0.704728 0.693077 0.013006
0.734400 0.692691 0.012412
0.763923 0.692307 0.011822
0.793306 0.691925 0.011234
0.822555 0.691545 0.010649
0.851676 0.691166 0.010067
0.880675 0.690789 0.009487
0.909556 0.690414 0.008909
0.938326 0.690040 0.008334
0.966987 0.689667 0.007761
0.995544 0.689296 0.007190
1.000000 0.689011 0.006752
1.000000 0.689011 0.006752
0.044656 0.729476 0.024250
0.086133 0.728937 0.023421
0.124408 0.728439 0.022655
0.161011 0.727963 0.021923
0.196484 0.727502 0.021214
0.231110 0.727052 0.020521
0.265060 0.726611 0.019842
0.298450 0.726177 0.019174
0.331364 0.725749 0.018516
0.363863 0.725326 0.017866
0.395995 0.724908 0.017223
0.427800 0.724495 0.016587
0.459309 0.724085 0.015957
0.490548 0.723679 0.015332
0.521539 0.723276 0.014712
0.552301 0.722876 0.014097
0.582851 0.722479 0.013486
0.613203 0.722085 0.012879
0.643369 0.721693 0.012276
0.673360 0.721303 0.011676
0.703187 0.720915 0.011079
0.732858 0.720529 0.010486
0.762382 0.720145 0.009896
0.791765 0.719763 0.009308
0.821014 0.719383 0.008723
0.850135 0.719005 0.008140
0.879134 0.718628 0.007560
0.908015 0.718252 0.006983
0.936785 0.717878 0.006407
0.965446 0.717506 0.005910
0.994003 0.717135 0.005796
1.000000 0.716851 0.005707
1.000000 0.716851 0.005707
0.043123 0.757182 0.022333
0.084599 0.756643 0.021503
0.122875 0.756145 0.020738
0.159477 0.755669 0.020006
0.194950 0.755208 0.019296
0.229576 0.754758 0.018604
0.263526 0.754316 0.017925
0.296916 0.753882 0.017257
0.329830 0.753455 0.016599
0.362329 0.753032 0.015949
0.394461 0.752614 0.015306
0.426266 0.752201 0.014670
0.457775 0.751791 0.014040
0.489014 0.751385 0.013415
0.520005 0.750982 0.012795
0.550767 0.750582 0.012180
0.581317 0.750185 0.011569
0.611669 0.749791 0.010962
0.641835 0.749398 0.010359
0.671827 0.749009 0.009759
0.701654 0.748621 0.009162
0.731325 0.748235 0.008569
0.760848 0.747851 0.007978
0.790231 0.747469 0.007391
0.819480 0.747089 0.006806
0.848601 0.746710 0.006223
0.877600 0.746334 0.005872
0.906481 0.745959 0.005756
0.935251 0.745585 0.005640
0.963912 0.745213 0.005525
0.992469 0.744842 0.005410
1.000000 0.744558 0.005322
1.000000 0.744558 0.005322
0.041596 0.784761 0.020424
0.083072 0.784222 0.019595
0.121348 0.783725 0.018829
0.157950 0.783249 0.018097
0.193423 0.782788 0.017388
0.228049 0.782338 0.016695
0.261999 0.781896 0.016016
0.295390 0.781462 0.015348
0.328303 0.781034 0.014690
0.360802 0.780612 0.014040
0.392934 0.780194 0.013398
0.424739 0.779781 0.012761
0.456248 0.779371 0.012131
0.487487 0.778965 0.011506
0.518478 0.778562 0.010887
0.549241 0.778162 0.010271
0.579791 0.777765 0.009660
0.610142 0.777370 0.009053
0.640308 0.776978 0.008450
0.670300 0.776588 0.007850
0.700127 0.776201 0.007254
0.729798 0.775815 0.006660
0.759321 0.775431 0.006070
0.788704 0.775049 0.005840
0.817953 0.774670 0.005722
0.847074 0.774292 0.005605
0.876073 0.773915 0.005488
0.904955 0.773540 0.005372
0.933724 0.773167 0.005256
0.962385 0.772795 0.005141
0.990942 0.772424 0.005026
1.000000 0.772139 0.004938
1.000000 0.772139 0.004938
0.040076 0.812221 0.018524
0.081552 0.811682 0.017695
0.119828 0.811184 0.016929
0.156430 0.810708 0.016197
0.191903 0.810247 0.015488
0.226529 0.809797 0.014795
0.260479 0.809355 0.014116
0.293869 0.808921 0.013448
0.326783 0.808494 0.012790
0.359282 0.808071 0.012140
0.391414 0.807653 0.011497
0.423219 0.807240 0.010861
0.454728 0.806830 0.010231
0.485967 0.806424 0.009606
0.516958 0.806021 0.008986
0.547720 0.805621 0.008371
0.578270 0.805224 0.007760
0.608622 0.804830 0.007153
0.638788 0.804437 0.006550
0.668780 0.804048 0.005950
0.698606 0.803660 0.005814
0.728278 0.803275 0.005694
0.757801 0.802892 0.005576
0.787184 0.802510 0.005457
0.816433 0.802131 0.005340
0.845554 0.801753 0.005223
0.874553 0.801376 0.005106
0.903434 0.801001 0.004990
0.932204 0.800628 0.004874
0.960865 0.800255 0.004759
0.989422 0.799885 0.004644
1.000000 0.799600 0.004556
1.000000 0.799600 0.004556
0.038562 0.839565 0.016632
0.080038 0.839026 0.015802
0.118314 0.838528 0.015037
0.154916 0.838052 0.014305
0.190389 0.837591 0.013595
0.225015 0.837141 0.012903
0.258965 0.836700 0.012224
0.292356 0.836265 0.011556
0.325269 0.835838 0.010898
0.357768 0.835415 0.010248
0.389900 0.834997 0.009605
0.421705 0.834584 0.008969
0.453214 0.834174 0.008339
0.484453 0.833768 0.007714
0.515444 0.833365 0.007094
0.546207 0.832965 0.006479
0.576757 0.832568 0.005917
0.607108 0.832174 0.005795
0.637274 0.831783 0.005674
0.667266 0.831393 0.005553
0.697093 0.831006 0.005433
0.726764 0.830621 0.005314
0.756287 0.830237 0.005195
0.785670 0.829856 0.005077
0.814919 0.829476 0.004959
0.844040 0.829098 0.004842
0.873039 0.828722 0.004725
