luts/primelive_LUT_male_clarity.cube
TITLE "primelive Male Clarity"
LUT_3D_SIZE 33
DOMAIN_MIN 0.0 0.0 0.0
DOMAIN_MAX 1.0 1.0 1.0
0.000000 0.005000 0.025000
0.000000 0.005000 0.025000
0.000000 0.005040 0.025010
0.019965 0.005441 0.025115
0.052113 0.005847 0.025221
0.084512 0.006255 0.025327
0.117114 0.006666 0.025435
0.149885 0.007080 0.025543
0.182802 0.007495 0.025651
0.215846 0.007912 0.025760
0.249005 0.008330 0.025869
0.282266 0.008750 0.025978
0.315621 0.009170 0.026088
0.349063 0.009592 0.026198
0.382584 0.010015 0.026308
0.416179 0.010439 0.026419
0.449844 0.010863 0.026530
0.483574 0.011289 0.026641
0.517365 0.011715 0.026752
0.551214 0.012142 0.026863
0.585119 0.012570 0.026975
0.619076 0.012998 0.027086
0.653083 0.013427 0.027198
0.687138 0.013857 0.027310
0.721239 0.014287 0.027423
0.755384 0.014718 0.027535
0.789571 0.015149 0.027647
0.823799 0.015580 0.027760
0.858066 0.016013 0.027873
0.892371 0.016445 0.027986
0.926713 0.016879 0.028099
0.954134 0.017225 0.028189
0.954134 0.017225 0.028189
0.000000 0.005000 0.025000
0.000000 0.005000 0.025000
0.000000 0.005040 0.025010
0.019965 0.005441 0.025115
0.052113 0.005847 0.025221
0.084512 0.006255 0.025327
0.117114 0.006666 0.025435
0.149885 0.007080 0.025543
0.182802 0.007495 0.025651
0.215846 0.007912 0.025760
0.249005 0.008330 0.025869
0.282266 0.008750 0.025978
0.315621 0.009170 0.026088
0.349063 0.009592 0.026198
0.382584 0.010015 0.026308
0.416179 0.010439 0.026419
0.449844 0.010863 0.026530
0.483574 0.011289 0.026641
0.517365 0.011715 0.026752
0.551214 0.012142 0.026863
0.585119 0.012570 0.026975
0.619076 0.012998 0.027086
0.653083 0.013427 0.027198
0.687138 0.013857 0.027310
0.721239 0.014287 0.027423
0.755384 0.014718 0.027535
0.789571 0.015149 0.027647
0.823799 0.015580 0.027760
0.858066 0.016013 0.027873
0.892371 0.016445 0.027986
0.926713 0.016879 0.028099
0.954134 0.017225 0.028189
0.954134 0.017225 0.028189
0.000000 0.009210 0.025046
0.000000 0.009210 0.025046
0.000000 0.009250 0.025056
0.020239 0.009651 0.025161
0.052386 0.010056 0.025266
0.084785 0.010465 0.025373
0.117387 0.010876 0.025480
0.150158 0.011290 0.025588
0.183075 0.011705 0.025696
0.216120 0.012122 0.025805
0.249278 0.012540 0.025914
0.282540 0.012960 0.026024
0.315895 0.013380 0.026134
0.349336 0.013802 0.026244
0.382857 0.014225 0.026354
0.416452 0.014649 0.026464
0.450117 0.015073 0.026575
0.483847 0.015499 0.026686
0.517638 0.015925 0.026797
0.551488 0.016352 0.026909
0.585392 0.016780 0.027020
0.619350 0.017208 0.027132
0.653357 0.017637 0.027244
0.687412 0.018067 0.027356
0.721513 0.018497 0.027468
0.755657 0.018927 0.027581
0.789845 0.019359 0.027693
0.824072 0.019790 0.027806
0.858340 0.020223 0.027918
0.892644 0.020655 0.028031
0.926986 0.021089 0.028144
0.954407 0.021434 0.028235
0.954407 0.021434 0.028235
0.000000 0.042254 0.025403
0.000000 0.042254 0.025403
0.000000 0.042294 0.025414
0.022385 0.042695 0.025518
0.054532 0.043101 0.025624
0.086931 0.043509 0.025731
0.119533 0.043920 0.025838
0.152304 0.044334 0.025946
0.185221 0.044749 0.026054
0.218266 0.045166 0.026163
0.251424 0.045584 0.026272
0.284686 0.046004 0.026381
0.318041 0.046424 0.026491
0.351482 0.046846 0.026601
0.385003 0.047269 0.026712
0.418599 0.047693 0.026822
0.452263 0.048117 0.026933
0.485993 0.048543 0.027044
0.519784 0.048969 0.027155
0.553634 0.049396 0.027266
0.587538 0.049824 0.027378
0.621496 0.050252 0.027490
0.655503 0.050681 0.027602
0.689558 0.051111 0.027714
0.723659 0.051541 0.027826
0.757803 0.051971 0.027938
0.791991 0.052403 0.028051
0.826218 0.052834 0.028163
0.860486 0.053267 0.028276
0.894791 0.053699 0.028389
0.929132 0.054133 0.028502
0.956553 0.054478 0.028592
0.956553 0.054478 0.028592
0.000000 0.075647 0.025765
0.000000 0.075647 0.025765
0.000000 0.075687 0.025775
0.024553 0.076088 0.025880
0.056701 0.076494 0.025986
0.089100 0.076902 0.026092
0.121702 0.077313 0.026199
0.154473 0.077727 0.026307
0.187390 0.078142 0.026416
0.220434 0.078559 0.026524
0.253593 0.078977 0.026633
0.286854 0.079397 0.026743
0.320209 0.079817 0.026853
0.353651 0.080239 0.026963
0.387172 0.080662 0.027073
0.420767 0.081086 0.027184
0.454432 0.081510 0.027294
0.488162 0.081936 0.027405
0.521953 0.082362 0.027516
0.555803 0.082789 0.027628
0.589707 0.083217 0.027739
0.623664 0.083645 0.027851
0.657671 0.084074 0.027963
0.691726 0.084504 0.028075
0.725827 0.084934 0.028187
0.759972 0.085364 0.028300
0.794159 0.085796 0.028412
0.828387 0.086227 0.028525
0.862654 0.086660 0.028638
0.896959 0.087092 0.028750
0.931301 0.087526 0.028863
0.958722 0.087871 0.028954
0.958722 0.087871 0.028954
0.000000 0.109302 0.026129
0.000000 0.109302 0.026129
0.000000 0.109342 0.026139
0.026739 0.109743 0.026244
0.058886 0.110148 0.026350
0.091286 0.110557 0.026456
0.123888 0.110968 0.026564
0.156659 0.111382 0.026672
0.189576 0.111797 0.026780
0.222620 0.112214 0.026889
0.255779 0.112632 0.026998
0.289040 0.113052 0.027107
0.322395 0.113472 0.027217
0.355837 0.113894 0.027327
0.389358 0.114317 0.027437
0.422953 0.114741 0.027548
0.456618 0.115165 0.027659
0.490347 0.115591 0.027770
0.524139 0.116017 0.027881
0.557988 0.116444 0.027992
0.591893 0.116872 0.028104
0.625850 0.117300 0.028215
0.659857 0.117729 0.028327
0.693912 0.118159 0.028439
0.728013 0.118589 0.028552
0.762158 0.119019 0.028664
0.796345 0.119451 0.028776
0.830573 0.119882 0.028889
0.864840 0.120315 0.029002
0.899145 0.120747 0.029115
0.933486 0.121181 0.029228
0.960908 0.121526 0.029318
0.960908 0.121526 0.029318
0.000000 0.143167 0.026496
0.000000 0.143167 0.026496
0.000000 0.143207 0.026506
0.028938 0.143608 0.026611
0.061086 0.144014 0.026716
0.093485 0.144422 0.026823
0.126087 0.144834 0.026930
0.158858 0.145247 0.027038
0.191775 0.145662 0.027146
0.224819 0.146079 0.027255
0.257978 0.146497 0.027364
0.291239 0.146917 0.027474
0.324595 0.147337 0.027583
0.358036 0.147759 0.027694
0.391557 0.148182 0.027804
0.425152 0.148606 0.027914
0.458817 0.149031 0.028025
0.492547 0.149456 0.028136
0.526338 0.149882 0.028247
0.560188 0.150309 0.028359
0.594092 0.150737 0.028470
0.628049 0.151165 0.028582
0.662056 0.151594 0.028694
0.696112 0.152024 0.028806
0.730212 0.152454 0.028918
0.764357 0.152885 0.029031
0.798544 0.153316 0.029143
0.832772 0.153748 0.029256
0.867039 0.154180 0.029368
0.901344 0.154613 0.029481
0.935686 0.155046 0.029594
0.963107 0.155392 0.029685
0.963107 0.155392 0.029685
0.000000 0.177208 0.026864
0.000000 0.177208 0.026864
0.000000 0.177248 0.026874
0.031149 0.177649 0.026979
0.063297 0.178055 0.027085
0.095696 0.178463 0.027191
0.128298 0.178875 0.027299
0.161069 0.179288 0.027407
0.193986 0.179703 0.027515
0.227030 0.180120 0.027624
0.260189 0.180538 0.027733
0.293450 0.180958 0.027842
0.326805 0.181378 0.027952
0.360247 0.181800 0.028062
0.393768 0.182223 0.028172
0.427363 0.182647 0.028283
0.461028 0.183072 0.028394
0.494758 0.183497 0.028505
0.528549 0.183923 0.028616
0.562398 0.184350 0.028727
0.596303 0.184778 0.028839
0.630260 0.185206 0.028950
0.664267 0.185635 0.029062
0.698322 0.186065 0.029174
0.732423 0.186495 0.029287
0.766568 0.186926 0.029399
0.800755 0.187357 0.029511
0.834983 0.187789 0.029624
0.869250 0.188221 0.029737
0.903555 0.188653 0.029850
0.937897 0.189087 0.029963
0.965318 0.189433 0.030053
0.965318 0.189433 0.030053
0.000000 0.211400 0.027234
0.000000 0.211400 0.027234
0.001558 0.211440 0.027244
0.033370 0.211841 0.027349
0.065517 0.212247 0.027455
0.097917 0.212656 0.027562
0.130518 0.213067 0.027669
0.163290 0.213480 0.027777
0.196206 0.213895 0.027885
0.229251 0.214312 0.027994
0.262409 0.214730 0.028103
0.295671 0.215150 0.028212
0.329026 0.215571 0.028322
0.362467 0.215993 0.028432
0.395988 0.216415 0.028542
0.429584 0.216839 0.028653
0.463248 0.217264 0.028764
0.496978 0.217689 0.028875
0.530769 0.218115 0.028986
0.564619 0.218542 0.029097
0.598524 0.218970 0.029209
0.632481 0.219398 0.029321
0.666488 0.219827 0.029432
0.700543 0.220257 0.029545
0.734644 0.220687 0.029657
0.768789 0.221118 0.029769
0.802976 0.221549 0.029882
0.837204 0.221981 0.029994
0.871471 0.222413 0.030107
0.905776 0.222846 0.030220
0.940117 0.223279 0.030333
0.967539 0.223625 0.030423
0.967539 0.223625 0.030423
0.000634 0.245725 0.027606
0.000634 0.245725 0.027606
0.003788 0.245765 0.027616
0.035599 0.246166 0.027721
0.067746 0.246572 0.027826
0.100146 0.246981 0.027933
0.132748 0.247392 0.028040
0.165519 0.247805 0.028148
0.198435 0.248220 0.028257
0.231480 0.248637 0.028365
0.264639 0.249055 0.028474
0.297900 0.249475 0.028584
0.331255 0.249896 0.028694
0.364696 0.250318 0.028804
0.398218 0.250740 0.028914
0.431813 0.251164 0.029024
0.465478 0.251589 0.029135
0.499207 0.252014 0.029246
0.532999 0.252440 0.029357
0.566848 0.252867 0.029469
0.600753 0.253295 0.029580
0.634710 0.253723 0.029692
0.668717 0.254152 0.029804
0.702772 0.254582 0.029916
0.736873 0.255012 0.030028
0.771018 0.255443 0.030141
0.805205 0.255874 0.030253
0.839433 0.256306 0.030366
0.873700 0.256738 0.030479
0.908005 0.257171 0.030591
0.942346 0.257604 0.030704
0.969768 0.257950 0.030795
0.969768 0.257950 0.030795
0.002871 0.280169 0.027978
0.002871 0.280169 0.027978
0.006025 0.280208 0.027989
0.037836 0.280610 0.028094
0.069983 0.281015 0.028199
0.102383 0.281424 0.028306
0.134985 0.281835 0.028413
0.167756 0.282249 0.028521
0.200672 0.282664 0.028629
0.233717 0.283081 0.028738
0.266875 0.283499 0.028847
0.300137 0.283918 0.028957
0.333492 0.284339 0.029066
0.366933 0.284761 0.029176
0.400454 0.285184 0.029287
0.434050 0.285608 0.029397
0.467714 0.286032 0.029508
0.501444 0.286458 0.029619
0.535236 0.286884 0.029730
0.569085 0.287311 0.029842
0.602990 0.287739 0.029953
0.636947 0.288167 0.030065
0.670954 0.288596 0.030177
0.705009 0.289025 0.030289
0.739110 0.289456 0.030401
0.773255 0.289886 0.030513
0.807442 0.290317 0.030626
0.841670 0.290749 0.030739
0.875937 0.291181 0.030851
0.910242 0.291614 0.030964
0.944583 0.292047 0.031077
0.972005 0.292393 0.031167
0.972005 0.292393 0.031167
0.005115 0.314719 0.028352
0.005115 0.314719 0.028352
0.008268 0.314759 0.028363
0.040080 0.315160 0.028467
0.072227 0.315566 0.028573
0.104627 0.315974 0.028680
0.137228 0.316385 0.028787
0.170000 0.316799 0.028895
0.202916 0.317214 0.029003
0.235961 0.317631 0.029112
0.269119 0.318049 0.029221
0.302381 0.318469 0.029331
0.335736 0.318889 0.029440
0.369177 0.319311 0.029550
0.402698 0.319734 0.029661
0.436294 0.320158 0.029771
0.469958 0.320582 0.029882
0.503688 0.321008 0.029993
0.537479 0.321434 0.030104
0.571329 0.321861 0.030216
0.605234 0.322289 0.030327
0.639191 0.322717 0.030439
0.673198 0.323146 0.030551
0.707253 0.323576 0.030663
0.741354 0.324006 0.030775
0.775499 0.324436 0.030887
0.809686 0.324868 0.031000
0.843914 0.325299 0.031113
0.878181 0.325732 0.031225
0.912486 0.326164 0.031338
0.946827 0.326598 0.031451
0.974249 0.326943 0.031541
0.974249 0.326943 0.031541
0.007365 0.349367 0.028727
0.007365 0.349367 0.028727
0.010519 0.349406 0.028738
0.042330 0.349808 0.028843
0.074477 0.350213 0.028948
0.106877 0.350622 0.029055
0.139479 0.351033 0.029162
0.172250 0.351446 0.029270
0.205166 0.351862 0.029378
0.238211 0.352279 0.029487
0.271369 0.352697 0.029596
0.304631 0.353116 0.029706
0.337986 0.353537 0.029815
0.371427 0.353959 0.029925
0.404948 0.354382 0.030036
0.438544 0.354805 0.030146
0.472208 0.355230 0.030257
0.505938 0.355656 0.030368
0.539730 0.356082 0.030479
0.573579 0.356509 0.030591
0.607484 0.356936 0.030702
0.641441 0.357365 0.030814
0.675448 0.357794 0.030926
0.709503 0.358223 0.031038
0.743604 0.358653 0.031150
0.777749 0.359084 0.031262
0.811936 0.359515 0.031375
0.846164 0.359947 0.031488
0.880431 0.360379 0.031600
0.914736 0.360812 0.031713
0.949077 0.361245 0.031826
0.976499 0.361591 0.031916
0.976499 0.361591 0.031916
0.009621 0.384104 0.029103
0.009621 0.384104 0.029103
0.012775 0.384144 0.029114
0.044586 0.384545 0.029219
0.076733 0.384950 0.029324
0.109133 0.385359 0.029431
0.141735 0.385770 0.029538
0.174506 0.386184 0.029646
0.207422 0.386599 0.029754
0.240467 0.387016 0.029863
0.273625 0.387434 0.029972
0.306887 0.387854 0.030082
0.340242 0.388274 0.030191
0.373683 0.388696 0.030301
0.407204 0.389119 0.030412
0.440800 0.389543 0.030522
0.474464 0.389967 0.030633
0.508194 0.390393 0.030744
0.541986 0.390819 0.030855
0.575835 0.391246 0.030967
0.609740 0.391674 0.031078
0.643697 0.392102 0.031190
0.677704 0.392531 0.031302
0.711759 0.392961 0.031414
0.745860 0.393391 0.031526
0.780005 0.393821 0.031638
0.814192 0.394253 0.031751
0.848420 0.394684 0.031864
0.882687 0.395117 0.031976
0.916992 0.395549 0.032089
0.951333 0.395982 0.032202
0.978755 0.396328 0.032292
0.978755 0.396328 0.032292
0.011882 0.418924 0.029480
0.011882 0.418924 0.029480
0.015036 0.418964 0.029491
0.046847 0.419365 0.029595
0.078995 0.419770 0.029701
0.111394 0.420179 0.029808
0.143996 0.420590 0.029915
0.176767 0.421004 0.030023
0.209684 0.421419 0.030131
0.242728 0.421836 0.030240
0.275887 0.422254 0.030349
0.309148 0.422674 0.030459
0.342503 0.423094 0.030568
0.375945 0.423516 0.030678
0.409466 0.423939 0.030789
0.443061 0.424363 0.030899
0.476726 0.424787 0.031010
0.510456 0.425213 0.031121
0.544247 0.425639 0.031232
0.578096 0.426066 0.031344
0.612001 0.426494 0.031455
0.645958 0.426922 0.031567
0.679965 0.427351 0.031679
0.714020 0.427781 0.031791
0.748121 0.428211 0.031903
0.782266 0.428641 0.032015
0.816453 0.429073 0.032128
0.850681 0.429504 0.032240
0.884948 0.429937 0.032353
0.919253 0.430369 0.032466
0.953595 0.430803 0.032579
0.981016 0.431148 0.032669
0.981016 0.431148 0.032669
0.014148 0.453821 0.029858
0.014148 0.453821 0.029858
0.017302 0.453861 0.029868
0.049114 0.454262 0.029973
0.081261 0.454668 0.030079
0.113660 0.455076 0.030186
0.146262 0.455487 0.030293
0.179033 0.455901 0.030401
0.211950 0.456316 0.030509
0.244995 0.456733 0.030618
0.278153 0.457151 0.030727
0.311415 0.457571 0.030836
0.344770 0.457991 0.030946
0.378211 0.458413 0.031056
0.411732 0.458836 0.031166
0.445328 0.459260 0.031277
0.478992 0.459684 0.031388
0.512722 0.460110 0.031499
0.546513 0.460536 0.031610
0.580363 0.460963 0.031721
0.614267 0.461391 0.031833
0.648225 0.461819 0.031945
0.682232 0.462248 0.032056
0.716287 0.462678 0.032169
0.750388 0.463108 0.032281
0.784532 0.463538 0.032393
0.818720 0.463970 0.032506
0.852947 0.464401 0.032618
0.887215 0.464834 0.032731
0.921519 0.465266 0.032844
0.955861 0.465700 0.032957
0.983282 0.466045 0.033047
0.983282 0.466045 0.033047
0.016419 0.488790 0.030237
0.016419 0.488790 0.030237
0.019573 0.488830 0.030247
0.051385 0.489231 0.030352
0.083532 0.489637 0.030457
0.115932 0.490045 0.030564
0.148533 0.490457 0.030671
0.181304 0.490870 0.030779
0.214221 0.491285 0.030887
0.247266 0.491702 0.030996
0.280424 0.492120 0.031105
0.313686 0.492540 0.031215
0.347041 0.492961 0.031325
0.380482 0.493382 0.031435
0.414003 0.493805 0.031545
0.447599 0.494229 0.031655
0.481263 0.494654 0.031766
0.514993 0.495079 0.031877
0.548784 0.495505 0.031988
0.582634 0.495932 0.032100
0.616538 0.496360 0.032211
0.650496 0.496788 0.032323
0.684503 0.497217 0.032435
0.718558 0.497647 0.032547
0.752659 0.498077 0.032659
0.786804 0.498508 0.032772
0.820991 0.498939 0.032884
0.855219 0.499371 0.032997
0.889486 0.499803 0.033109
0.923791 0.500236 0.033222
0.958132 0.500669 0.033335
0.985553 0.501015 0.033426
0.985553 0.501015 0.033426
0.018695 0.523827 0.030616
0.018695 0.523827 0.030616
0.021849 0.523867 0.030626
0.053660 0.524268 0.030731
0.085807 0.524674 0.030837
0.118207 0.525082 0.030943
0.150809 0.525494 0.031051
0.183580 0.525907 0.031158
0.216497 0.526322 0.031267
0.249541 0.526739 0.031375
0.282700 0.527157 0.031485
0.315961 0.527577 0.031594
0.349316 0.527997 0.031704
0.382758 0.528419 0.031814
0.416279 0.528842 0.031924
0.449874 0.529266 0.032035
0.483539 0.529691 0.032145
0.517269 0.530116 0.032256
0.551060 0.530542 0.032368
0.584909 0.530969 0.032479
0.618814 0.531397 0.032591
0.652771 0.531825 0.032702
0.686778 0.532254 0.032814
0.720833 0.532684 0.032926
0.754934 0.533114 0.033038
0.789079 0.533545 0.033151
0.823266 0.533976 0.033263
0.857494 0.534408 0.033376
0.891761 0.534840 0.033489
0.926066 0.535272 0.033602
0.960408 0.535706 0.033715
0.987829 0.536052 0.033805
0.987829 0.536052 0.033805
0.020975 0.558928 0.030996
0.020975 0.558928 0.030996
0.024128 0.558968 0.031006
0.055940 0.559369 0.031111
0.088087 0.559774 0.031217
0.120487 0.560183 0.031323
0.153088 0.560594 0.031430
0.185860 0.561008 0.031538
0.218776 0.561423 0.031647
0.251821 0.561840 0.031755
0.284979 0.562258 0.031864
0.318241 0.562677 0.031974
0.351596 0.563098 0.032084
0.385037 0.563520 0.032194
0.418558 0.563943 0.032304
0.452154 0.564367 0.032415
0.485818 0.564791 0.032525
0.519548 0.565217 0.032636
0.553339 0.565643 0.032748
0.587189 0.566070 0.032859
0.621094 0.566498 0.032970
0.655051 0.566926 0.033082
0.689058 0.567355 0.033194
0.723113 0.567784 0.033306
0.757214 0.568215 0.033418
0.791359 0.568645 0.033531
0.825546 0.569076 0.033643
0.859774 0.569508 0.033756
0.894041 0.569940 0.033869
0.928346 0.570373 0.033982
0.962687 0.570806 0.034095
0.990109 0.571152 0.034185
0.990109 0.571152 0.034185
0.023258 0.594089 0.031376
0.023258 0.594089 0.031376
0.026412 0.594129 0.031387
0.058223 0.594530 0.031491
0.090371 0.594935 0.031597
0.122770 0.595344 0.031704
0.155372 0.595755 0.031811
0.188143 0.596169 0.031919
0.221060 0.596584 0.032027
0.254104 0.597001 0.032136
0.287263 0.597419 0.032245
0.320524 0.597839 0.032355
0.353879 0.598259 0.032464
0.387321 0.598681 0.032574
0.420842 0.599104 0.032685
0.454437 0.599528 0.032795
0.488102 0.599952 0.032906
0.521832 0.600378 0.033017
0.555623 0.600804 0.033128
0.589472 0.601231 0.033240
0.623377 0.601659 0.033351
0.657334 0.602087 0.033463
0.691341 0.602516 0.033575
0.725396 0.602946 0.033687
0.759497 0.603376 0.033799
0.793642 0.603806 0.033911
0.827829 0.604238 0.034024
0.862057 0.604669 0.034136
0.896324 0.605102 0.034249
0.930629 0.605534 0.034362
0.964971 0.605967 0.034475
0.992392 0.606313 0.034565
0.992392 0.606313 0.034565
0.025545 0.629307 0.031758
0.025545 0.629307 0.031758
0.028699 0.629347 0.031768
0.060511 0.629748 0.031873
0.092658 0.630154 0.031978
0.125057 0.630563 0.032085
0.157659 0.630974 0.032192
0.190430 0.631387 0.032300
0.223347 0.631802 0.032408
0.256392 0.632219 0.032517
0.289550 0.632637 0.032626
0.322811 0.633057 0.032736
0.356167 0.633478 0.032845
0.389608 0.633900 0.032956
0.423129 0.634322 0.033066
0.456724 0.634746 0.033176
0.490389 0.635171 0.033287
0.524119 0.635596 0.033398
0.557910 0.636022 0.033509
0.591760 0.636449 0.033621
0.625664 0.636877 0.033732
0.659621 0.637305 0.033844
0.693629 0.637734 0.033956
0.727684 0.638164 0.034068
0.761784 0.638594 0.034180
0.795929 0.639025 0.034293
0.830116 0.639456 0.034405
0.864344 0.639888 0.034518
0.898611 0.640320 0.034630
0.932916 0.640753 0.034743
0.967258 0.641186 0.034856
0.994679 0.641532 0.034947
0.994679 0.641532 0.034947
0.027836 0.664580 0.032139
0.027836 0.664580 0.032139
0.030990 0.664620 0.032150
0.062801 0.665021 0.032254
0.094949 0.665427 0.032360
0.127348 0.665835 0.032467
0.159950 0.666247 0.032574
0.192721 0.666660 0.032682
0.225638 0.667075 0.032790
0.258682 0.667492 0.032899
0.291841 0.667910 0.033008
0.325102 0.668330 0.033118
0.358457 0.668751 0.033227
0.391899 0.669172 0.033337
0.425420 0.669595 0.033448
0.459015 0.670019 0.033558
0.492680 0.670444 0.033669
0.526410 0.670869 0.033780
0.560201 0.671295 0.033891
0.594050 0.671722 0.034003
0.627955 0.672150 0.034114
0.661912 0.672578 0.034226
0.695919 0.673007 0.034338
0.729974 0.673437 0.034450
0.764075 0.673867 0.034562
0.798220 0.674298 0.034674
0.832407 0.674729 0.034787
0.866635 0.675161 0.034899
0.900902 0.675593 0.035012
0.935207 0.676026 0.035125
0.969549 0.676459 0.035238
0.996970 0.676805 0.035328
0.996970 0.676805 0.035328
0.030130 0.699905 0.032522
0.030130 0.699905 0.032522
0.033284 0.699945 0.032532
0.065095 0.700346 0.032637
0.097243 0.700752 0.032743
0.129642 0.701160 0.032849
0.162244 0.701572 0.032956
0.195015 0.701985 0.033064
0.227932 0.702400 0.033173
0.260976 0.702817 0.033281
0.294135 0.703235 0.033390
0.327396 0.703655 0.033500
0.360752 0.704076 0.033610
0.394193 0.704497 0.033720
0.427714 0.704920 0.033830
0.461309 0.705344 0.033941
0.494974 0.705769 0.034051
0.528704 0.706194 0.034162
0.562495 0.706620 0.034273
0.596345 0.707047 0.034385
0.630249 0.707475 0.034496
0.664206 0.707903 0.034608
0.698214 0.708332 0.034720
0.732269 0.708762 0.034832
0.766369 0.709192 0.034944
0.800514 0.709623 0.035057
0.834701 0.710054 0.035169
0.868929 0.710486 0.035282
0.903196 0.710918 0.035395
0.937501 0.711351 0.035507
0.971843 0.711784 0.035620
0.999264 0.712130 0.035711
0.999264 0.712130 0.035711
0.032428 0.735280 0.032905
0.032428 0.735280 0.032905
0.035582 0.735320 0.032915
0.067393 0.735721 0.033020
0.099540 0.736126 0.033125
0.131940 0.736535 0.033232
0.164541 0.736946 0.033339
0.197313 0.737360 0.033447
0.230229 0.737775 0.033555
0.263274 0.738192 0.033664
0.296432 0.738610 0.033773
0.329694 0.739030 0.033883
0.363049 0.739450 0.033993
0.396490 0.739872 0.034103
0.430011 0.740295 0.034213
0.463607 0.740719 0.034323
0.497271 0.741143 0.034434
0.531001 0.741569 0.034545
0.564793 0.741995 0.034656
0.598642 0.742422 0.034768
0.632547 0.742850 0.034879
0.666504 0.743278 0.034991
0.700511 0.743707 0.035103
0.734566 0.744136 0.035215
0.768667 0.744567 0.035327
0.802812 0.744997 0.035440
0.836999 0.745429 0.035552
0.871227 0.745860 0.035665
0.905494 0.746293 0.035777
0.939799 0.746725 0.035890
0.974140 0.747158 0.036003
1.000000 0.747504 0.036094
1.000000 0.747504 0.036094
0.034728 0.770702 0.033288
0.034728 0.770702 0.033288
0.037882 0.770742 0.033298
0.069693 0.771143 0.033403
0.101841 0.771549 0.033509
0.134240 0.771957 0.033615
0.166842 0.772369 0.033723
0.199613 0.772782 0.033831
0.232530 0.773197 0.033939
0.265574 0.773614 0.034048
0.298733 0.774032 0.034157
0.331994 0.774452 0.034266
0.365349 0.774873 0.034376
0.398791 0.775294 0.034486
0.432312 0.775717 0.034596
0.465907 0.776141 0.034707
0.499572 0.776566 0.034818
0.533302 0.776991 0.034929
0.567093 0.777417 0.035040
0.600942 0.777844 0.035151
0.634847 0.778272 0.035263
0.668804 0.778700 0.035374
0.702811 0.779129 0.035486
0.736866 0.779559 0.035598
0.770967 0.779989 0.035711
0.805112 0.780420 0.035823
0.839299 0.780851 0.035936
0.873527 0.781283 0.036048
0.907794 0.781715 0.036161
0.942099 0.782148 0.036274
0.976441 0.782581 0.036387
1.000000 0.782927 0.036477
1.000000 0.782927 0.036477
0.037032 0.806170 0.033672
0.037032 0.806170 0.033672
0.040185 0.806210 0.033682
0.071997 0.806611 0.033787
0.104144 0.807017 0.033893
0.136544 0.807425 0.033999
0.169145 0.807837 0.034107
0.201917 0.808250 0.034214
0.234833 0.808665 0.034323
0.267878 0.809082 0.034432
0.301036 0.809500 0.034541
0.334298 0.809920 0.034650
0.367653 0.810340 0.034760
0.401094 0.810762 0.034870
0.434615 0.811185 0.034980
0.468211 0.811609 0.035091
0.501875 0.812034 0.035202
0.535605 0.812459 0.035313
0.569396 0.812885 0.035424
0.603246 0.813312 0.035535
0.637151 0.813740 0.035647
0.671108 0.814168 0.035758
0.705115 0.814597 0.035870
0.739170 0.815027 0.035982
0.773271 0.815457 0.036095
0.807416 0.815888 0.036207
0.841603 0.816319 0.036319
0.875831 0.816751 0.036432
0.910098 0.817183 0.036545
0.944403 0.817616 0.036658
0.978744 0.818049 0.036771
1.000000 0.818395 0.036861
1.000000 0.818395 0.036861
0.039338 0.841682 0.034056
0.039338 0.841682 0.034056
0.042492 0.841722 0.034067
0.074303 0.842123 0.034171
0.106450 0.842529 0.034277
0.138850 0.842937 0.034384
0.171452 0.843348 0.034491
0.204223 0.843762 0.034599
0.237140 0.844177 0.034707
0.270184 0.844594 0.034816
0.303343 0.845012 0.034925
0.336604 0.845432 0.035034
0.369959 0.845852 0.035144
0.403401 0.846274 0.035254
0.436922 0.846697 0.035365
0.470517 0.847121 0.035475
0.504182 0.847545 0.035586
0.537911 0.847971 0.035697
0.571703 0.848397 0.035808
0.605552 0.848824 0.035919
0.639457 0.849252 0.036031
0.673414 0.849680 0.036143
0.707421 0.850109 0.036255
0.741476 0.850539 0.036367
0.775577 0.850969 0.036479
0.809722 0.851399 0.036591
0.843909 0.851831 0.036704
